; G-Code generated by Simplify3D(R) Version 4.0.0
; Nov 15, 2017 at 9:44:13 AM
; Settings Summary
;   processName,Process1
;   applyToModels,LCD Bracket Graphical,LCD Bracket Graphical(2),LCD Bracket Graphical(3),LCD Bracket Graphical(4),LCD Bracket Graphical(5)
;   profileName,XL PRUSA (modified)
;   profileVersion,2017-06-14 11:58:57
;   baseProfile,Default (modified)
;   printMaterial,ABS
;   printQuality,Medium
;   printExtruders,
;   extruderName,Primary Extruder
;   extruderToolheadNumber,0
;   extruderDiameter,0.4
;   extruderAutoWidth,0
;   extruderWidth,0.42
;   extrusionMultiplier,1
;   extruderUseRetract,1
;   extruderRetractionDistance,1.4
;   extruderExtraRestartDistance,0
;   extruderRetractionZLift,0
;   extruderRetractionSpeed,3000
;   extruderUseCoasting,0
;   extruderCoastingDistance,0.2
;   extruderUseWipe,0
;   extruderWipeDistance,5
;   primaryExtruder,0
;   layerHeight,0.2
;   topSolidLayers,3
;   bottomSolidLayers,3
;   perimeterOutlines,2
;   printPerimetersInsideOut,1
;   startPointOption,2
;   startPointOriginX,0
;   startPointOriginY,0
;   sequentialIslands,0
;   spiralVaseMode,0
;   firstLayerHeightPercentage,100
;   firstLayerWidthPercentage,100
;   firstLayerUnderspeed,0.5
;   useRaft,0
;   raftExtruder,0
;   raftTopLayers,3
;   raftBaseLayers,2
;   raftOffset,3
;   raftSeparationDistance,0.14
;   raftTopInfill,100
;   aboveRaftSpeedMultiplier,0.3
;   useSkirt,1
;   skirtExtruder,0
;   skirtLayers,1
;   skirtOutlines,2
;   skirtOffset,4
;   usePrimePillar,0
;   primePillarExtruder,999
;   primePillarWidth,12
;   primePillarLocation,7
;   primePillarSpeedMultiplier,1
;   useOozeShield,0
;   oozeShieldExtruder,999
;   oozeShieldOffset,2
;   oozeShieldOutlines,1
;   oozeShieldSidewallShape,1
;   oozeShieldSidewallAngle,30
;   oozeShieldSpeedMultiplier,1
;   infillExtruder,0
;   internalInfillPattern,Rectilinear
;   externalInfillPattern,Rectilinear
;   infillPercentage,30
;   outlineOverlapPercentage,20
;   infillExtrusionWidthPercentage,140
;   minInfillLength,6
;   infillLayerInterval,1
;   internalInfillAngles,45,-45
;   overlapInternalInfillAngles,0
;   externalInfillAngles,45,-45
;   generateSupport,0
;   supportExtruder,0
;   supportInfillPercentage,25
;   supportExtraInflation,0
;   supportBaseLayers,0
;   denseSupportExtruder,0
;   denseSupportLayers,0
;   denseSupportInfillPercentage,70
;   supportLayerInterval,1
;   supportHorizontalPartOffset,0.5
;   supportUpperSeparationLayers,1
;   supportLowerSeparationLayers,1
;   supportType,0
;   supportGridSpacing,3
;   maxOverhangAngle,45
;   supportAngles,0
;   temperatureName,Primary Extruder,Heat Bed
;   temperatureNumber,0,0
;   temperatureSetpointCount,1,1
;   temperatureSetpointLayers,1,1
;   temperatureSetpointTemperatures,245,80
;   temperatureStabilizeAtStartup,1,1
;   temperatureHeatedBed,0,1
;   temperatureRelayBetweenLayers,0,0
;   temperatureRelayBetweenLoops,0,0
;   fanLayers,1
;   fanSpeeds,0
;   blipFanToFullPower,0
;   adjustSpeedForCooling,1
;   minSpeedLayerTime,30
;   minCoolingSpeedSlowdown,40
;   increaseFanForCooling,0
;   minFanLayerTime,45
;   maxCoolingFanSpeed,100
;   increaseFanForBridging,0
;   bridgingFanSpeed,100
;   use5D,1
;   relativeEdistances,0
;   allowEaxisZeroing,1
;   independentExtruderAxes,0
;   includeM10123,0
;   stickySupport,1
;   applyToolheadOffsets,0
;   gcodeXoffset,0
;   gcodeYoffset,0
;   gcodeZoffset,0
;   overrideMachineDefinition,1
;   machineTypeOverride,0
;   strokeXoverride,240
;   strokeYoverride,260
;   strokeZoverride,200
;   originOffsetXoverride,0
;   originOffsetYoverride,0
;   originOffsetZoverride,0
;   homeXdirOverride,-1
;   homeYdirOverride,-1
;   homeZdirOverride,-1
;   flipXoverride,1
;   flipYoverride,-1
;   flipZoverride,1
;   toolheadOffsets,0,0|0,0|0,0|0,0|0,0|0,0
;   overrideFirmwareConfiguration,0
;   firmwareTypeOverride,RepRap (Marlin/Repetier/Sprinter)
;   GPXconfigOverride,r2
;   baudRateOverride,115200
;   overridePrinterModels,0
;   printerModelsOverride
;   startingGcode,M80 ;,G28 ; home all axes,G29 L ;,G29 A ;,,,
;   layerChangeGcode,
;   retractionGcode,
;   toolChangeGcode,
;   endingGcode,G91 ;,G1 Z5 ;,G28 X ;,M104 S0 ; turn off extruder,M140 S0 ; turn off bed,M84 ; disable motors,M81 ;,
;   exportFileFormat,gcode
;   celebration,0
;   celebrationSong,Random Song
;   postProcessing,
;   defaultSpeed,2400
;   outlineUnderspeed,0.8
;   solidInfillUnderspeed,0.8
;   supportUnderspeed,1
;   rapidXYspeed,3600
;   rapidZspeed,1200
;   minBridgingArea,50
;   bridgingExtraInflation,0
;   bridgingExtrusionMultiplier,1
;   bridgingSpeedMultiplier,1
;   useFixedBridgingAngle,0
;   fixedBridgingAngle,0
;   applyBridgingToPerimeters,0
;   filamentDiameters,1.75|1.75|1.75|1.75|1.75|1.75
;   filamentPricesPerKg,153|153|153|153|153|153
;   filamentDensities,1.06|1.06|1.06|1.06|1.06|1.06
;   useMinPrintHeight,0
;   minPrintHeight,0
;   useMaxPrintHeight,0
;   maxPrintHeight,148.6
;   useDiaphragm,0
;   diaphragmLayerInterval,20
;   robustSlicing,1
;   mergeAllIntoSolid,0
;   onlyRetractWhenCrossingOutline,1
;   retractBetweenLayers,1
;   useRetractionMinTravel,0
;   retractionMinTravel,3
;   retractWhileWiping,0
;   onlyWipeOutlines,1
;   avoidCrossingOutline,0
;   maxMovementDetourFactor,3
;   toolChangeRetractionDistance,12
;   toolChangeExtraRestartDistance,-0.5
;   toolChangeRetractionSpeed,12
;   externalThinWallType,0
;   internalThinWallType,2
;   thinWallAllowedOverlapPercentage,0
;   singleExtrusionMinLength,1
;   singleExtrusionMinPrintingWidthPercentage,50
;   singleExtrusionMaxPrintingWidthPercentage,200
;   singleExtrusionEndpointExtension,0.2
;   horizontalSizeCompensation,0
G90
M82
M106 S0
M140 S80
M190 S80
M104 S245 T0
M109 S245 T0
M80 ;
G28 ; home all axes
G29 L ;
G29 A ;
G92 E0
G1 E-1.4000 F3000
G1 Z0.200 F1200
; process Process1
; layer 1, Z = 0.200
T0
; tool H0.200 W0.420
; skirt
G1 X51.466 Y25.486 F3600
G1 E0.0000 F900
G92 E0
G1 X53.986 Y22.966 E0.1245 F1200
G1 X54.218 Y22.870 E0.1332
G1 X185.782 Y22.870 E4.7279
G1 X186.014 Y22.966 E4.7366
G1 X188.534 Y25.486 E4.8611
G1 X188.630 Y25.718 E4.8699
G1 X188.630 Y34.282 E5.1689
G1 X188.534 Y34.514 E5.1777
G1 X187.448 Y35.600 E5.2314
G1 X188.534 Y36.686 E5.2850
G1 X188.630 Y36.918 E5.2938
G1 X188.630 Y45.282 E5.5859
G1 X188.540 Y45.500 E5.5941
G1 X188.630 Y45.718 E5.6023
G1 X188.630 Y54.282 E5.9014
G1 X188.534 Y54.514 E5.9102
G1 X187.448 Y55.600 E5.9638
G1 X188.534 Y56.686 E6.0175
G1 X188.630 Y56.918 E6.0262
G1 X188.630 Y66.282 E6.3533
G1 X188.534 Y66.514 E6.3620
G1 X188.048 Y67.000 E6.3860
G1 X188.534 Y67.486 E6.4100
G1 X188.630 Y67.718 E6.4188
G1 X188.630 Y76.282 E6.7179
G1 X188.534 Y76.514 E6.7266
G1 X187.448 Y77.600 E6.7803
G1 X188.534 Y78.686 E6.8339
G1 X188.630 Y78.918 E6.8427
G1 X188.630 Y87.282 E7.1348
G1 X188.540 Y87.500 E7.1430
G1 X188.630 Y87.718 E7.1513
G1 X188.630 Y96.282 E7.4504
G1 X188.534 Y96.514 E7.4591
G1 X187.448 Y97.600 E7.5128
G1 X188.534 Y98.686 E7.5664
G1 X188.630 Y98.918 E7.5752
G1 X188.630 Y108.282 E7.9022
G1 X188.534 Y108.514 E7.9110
G1 X188.048 Y109.000 E7.9350
G1 X188.534 Y109.486 E7.9590
G1 X188.630 Y109.718 E7.9677
G1 X188.630 Y118.282 E8.2668
G1 X188.534 Y118.514 E8.2756
G1 X187.448 Y119.600 E8.3292
G1 X188.534 Y120.686 E8.3829
G1 X188.630 Y120.918 E8.3916
G1 X188.630 Y129.282 E8.6838
G1 X188.540 Y129.500 E8.6920
G1 X188.630 Y129.718 E8.7002
G1 X188.630 Y138.282 E8.9993
G1 X188.534 Y138.514 E9.0081
G1 X187.448 Y139.600 E9.0617
G1 X188.534 Y140.686 E9.1154
G1 X188.630 Y140.918 E9.1241
G1 X188.630 Y150.282 E9.4512
G1 X188.534 Y150.514 E9.4599
G1 X188.048 Y151.000 E9.4839
G1 X188.534 Y151.486 E9.5079
G1 X188.630 Y151.718 E9.5167
G1 X188.630 Y160.282 E9.8158
G1 X188.534 Y160.514 E9.8245
G1 X187.448 Y161.600 E9.8782
G1 X188.534 Y162.686 E9.9318
G1 X188.630 Y162.918 E9.9406
G1 X188.630 Y171.282 E10.2327
G1 X188.540 Y171.500 E10.2409
G1 X188.630 Y171.718 E10.2492
G1 X188.630 Y180.282 E10.5483
G1 X188.534 Y180.514 E10.5570
G1 X187.448 Y181.600 E10.6107
G1 X188.534 Y182.686 E10.6643
G1 X188.630 Y182.918 E10.6731
G1 X188.630 Y192.282 E11.0001
G1 X188.534 Y192.514 E11.0089
G1 X188.048 Y193.000 E11.0329
G1 X188.534 Y193.486 E11.0569
G1 X188.630 Y193.718 E11.0656
G1 X188.630 Y202.282 E11.3647
G1 X188.534 Y202.514 E11.3735
G1 X187.448 Y203.600 E11.4271
G1 X188.534 Y204.686 E11.4808
G1 X188.630 Y204.918 E11.4895
G1 X188.630 Y213.282 E11.7816
G1 X188.540 Y213.500 E11.7899
G1 X188.630 Y213.718 E11.7981
G1 X188.630 Y222.282 E12.0972
G1 X188.534 Y222.514 E12.1060
G1 X187.448 Y223.600 E12.1596
G1 X188.534 Y224.686 E12.2133
G1 X188.630 Y224.918 E12.2220
G1 X188.630 Y234.282 E12.5490
G1 X188.534 Y234.514 E12.5578
G1 X186.014 Y237.034 E12.6823
G1 X185.782 Y237.130 E12.6910
G1 X54.218 Y237.130 E17.2857
G1 X53.986 Y237.034 E17.2944
G1 X51.466 Y234.514 E17.4189
G1 X51.370 Y234.282 E17.4277
G1 X51.370 Y213.718 E18.1458
G1 X51.460 Y213.500 E18.1541
G1 X51.370 Y213.282 E18.1623
G1 X51.370 Y193.718 E18.8455
G1 X51.466 Y193.486 E18.8543
G1 X51.952 Y193.000 E18.8783
G1 X51.466 Y192.514 E18.9023
G1 X51.370 Y192.282 E18.9111
G1 X51.370 Y171.718 E19.6292
G1 X51.460 Y171.500 E19.6375
G1 X51.370 Y171.282 E19.6457
G1 X51.370 Y151.718 E20.3290
G1 X51.466 Y151.486 E20.3377
G1 X51.952 Y151.000 E20.3617
G1 X51.466 Y150.514 E20.3858
G1 X51.370 Y150.282 E20.3945
G1 X51.370 Y129.718 E21.1127
G1 X51.460 Y129.500 E21.1209
G1 X51.370 Y129.282 E21.1291
G1 X51.370 Y109.718 E21.8124
G1 X51.466 Y109.486 E21.8211
G1 X51.952 Y109.000 E21.8452
G1 X51.466 Y108.514 E21.8692
G1 X51.370 Y108.282 E21.8779
G1 X51.370 Y87.718 E22.5961
G1 X51.460 Y87.500 E22.6043
G1 X51.370 Y87.282 E22.6126
G1 X51.370 Y67.718 E23.2958
G1 X51.466 Y67.486 E23.3046
G1 X51.952 Y67.000 E23.3286
G1 X51.466 Y66.514 E23.3526
G1 X51.370 Y66.282 E23.3614
G1 X51.370 Y45.718 E24.0795
G1 X51.460 Y45.500 E24.0878
G1 X51.370 Y45.282 E24.0960
G1 X51.370 Y25.718 E24.7792
G1 X51.466 Y25.486 E24.7880
G1 X51.822 Y25.724 F3600
G92 E0
G1 X54.224 Y23.322 E0.1186 F1200
G1 X54.301 Y23.290 E0.1216
G1 X185.699 Y23.290 E4.7104
G1 X185.776 Y23.322 E4.7133
G1 X188.178 Y25.724 E4.8319
G1 X188.210 Y25.801 E4.8348
G1 X188.210 Y34.199 E5.1281
G1 X188.178 Y34.276 E5.1310
G1 X186.854 Y35.600 E5.1964
G1 X188.178 Y36.924 E5.2618
G1 X188.210 Y37.001 E5.2647
G1 X188.210 Y45.199 E5.5510
G1 X188.178 Y45.276 E5.5539
G1 X187.954 Y45.500 E5.5650
G1 X188.178 Y45.724 E5.5761
G1 X188.210 Y45.801 E5.5790
G1 X188.210 Y54.199 E5.8722
G1 X188.178 Y54.276 E5.8752
G1 X186.854 Y55.600 E5.9406
G1 X188.178 Y56.924 E6.0060
G1 X188.210 Y57.001 E6.0089
G1 X188.210 Y66.199 E6.3301
G1 X188.178 Y66.276 E6.3330
G1 X187.454 Y67.000 E6.3688
G1 X188.178 Y67.724 E6.4045
G1 X188.210 Y67.801 E6.4075
G1 X188.210 Y76.199 E6.7007
G1 X188.178 Y76.276 E6.7036
G1 X186.854 Y77.600 E6.7690
G1 X188.178 Y78.924 E6.8344
G1 X188.210 Y79.001 E6.8373
G1 X188.210 Y87.199 E7.1236
G1 X188.178 Y87.276 E7.1265
G1 X187.954 Y87.500 E7.1376
G1 X188.178 Y87.724 E7.1487
G1 X188.210 Y87.801 E7.1516
G1 X188.210 Y96.199 E7.4449
G1 X188.178 Y96.276 E7.4478
G1 X186.854 Y97.600 E7.5132
G1 X188.178 Y98.924 E7.5786
G1 X188.210 Y99.001 E7.5815
G1 X188.210 Y108.199 E7.9027
G1 X188.178 Y108.276 E7.9056
G1 X187.454 Y109.000 E7.9414
G1 X188.178 Y109.724 E7.9771
G1 X188.210 Y109.801 E7.9801
G1 X188.210 Y118.199 E8.2733
G1 X188.178 Y118.276 E8.2762
G1 X186.854 Y119.600 E8.3416
G1 X188.178 Y120.924 E8.4070
G1 X188.210 Y121.001 E8.4100
G1 X188.210 Y129.199 E8.6962
G1 X188.178 Y129.276 E8.6991
G1 X187.954 Y129.500 E8.7102
G1 X188.178 Y129.724 E8.7213
G1 X188.210 Y129.801 E8.7242
G1 X188.210 Y138.199 E9.0175
G1 X188.178 Y138.276 E9.0204
G1 X186.854 Y139.600 E9.0858
G1 X188.178 Y140.924 E9.1512
G1 X188.210 Y141.001 E9.1541
G1 X188.210 Y150.199 E9.4753
G1 X188.178 Y150.276 E9.4782
G1 X187.454 Y151.000 E9.5140
G1 X188.178 Y151.724 E9.5498
G1 X188.210 Y151.801 E9.5527
G1 X188.210 Y160.199 E9.8459
G1 X188.178 Y160.276 E9.8488
G1 X186.854 Y161.600 E9.9142
G1 X188.178 Y162.924 E9.9796
G1 X188.210 Y163.001 E9.9826
G1 X188.210 Y171.199 E10.2688
G1 X188.178 Y171.276 E10.2718
G1 X187.954 Y171.500 E10.2828
G1 X188.178 Y171.724 E10.2939
G1 X188.210 Y171.801 E10.2968
G1 X188.210 Y180.199 E10.5901
G1 X188.178 Y180.276 E10.5930
G1 X186.854 Y181.600 E10.6584
G1 X188.178 Y182.924 E10.7238
G1 X188.210 Y183.001 E10.7267
G1 X188.210 Y192.199 E11.0479
G1 X188.178 Y192.276 E11.0508
G1 X187.454 Y193.000 E11.0866
G1 X188.178 Y193.724 E11.1224
G1 X188.210 Y193.801 E11.1253
G1 X188.210 Y202.199 E11.4185
G1 X188.178 Y202.276 E11.4215
G1 X186.854 Y203.600 E11.4869
G1 X188.178 Y204.924 E11.5523
G1 X188.210 Y205.001 E11.5552
G1 X188.210 Y213.199 E11.8414
G1 X188.178 Y213.276 E11.8444
G1 X187.954 Y213.500 E11.8554
G1 X188.178 Y213.724 E11.8665
G1 X188.210 Y213.801 E11.8694
G1 X188.210 Y222.199 E12.1627
G1 X188.178 Y222.276 E12.1656
G1 X186.854 Y223.600 E12.2310
G1 X188.178 Y224.924 E12.2964
G1 X188.210 Y225.001 E12.2993
G1 X188.210 Y234.199 E12.6205
G1 X188.178 Y234.276 E12.6234
G1 X185.776 Y236.678 E12.7421
G1 X185.699 Y236.710 E12.7450
G1 X54.301 Y236.710 E17.3338
G1 X54.224 Y236.678 E17.3367
G1 X51.822 Y234.276 E17.4554
G1 X51.790 Y234.199 E17.4583
G1 X51.790 Y213.801 E18.1706
G1 X51.822 Y213.724 E18.1735
G1 X52.046 Y213.500 E18.1846
G1 X51.822 Y213.276 E18.1957
G1 X51.790 Y213.199 E18.1986
G1 X51.790 Y193.801 E18.8760
G1 X51.822 Y193.724 E18.8789
G1 X52.546 Y193.000 E18.9147
G1 X51.822 Y192.276 E18.9505
G1 X51.790 Y192.199 E18.9534
G1 X51.790 Y171.801 E19.6657
G1 X51.822 Y171.724 E19.6686
G1 X52.046 Y171.500 E19.6797
G1 X51.822 Y171.276 E19.6908
G1 X51.790 Y171.199 E19.6937
G1 X51.790 Y151.801 E20.3711
G1 X51.822 Y151.724 E20.3740
G1 X52.546 Y151.000 E20.4098
G1 X51.822 Y150.276 E20.4456
G1 X51.790 Y150.199 E20.4485
G1 X51.790 Y129.801 E21.1608
G1 X51.822 Y129.724 E21.1637
G1 X52.046 Y129.500 E21.1748
G1 X51.822 Y129.276 E21.1859
G1 X51.790 Y129.199 E21.1888
G1 X51.790 Y109.801 E21.8662
G1 X51.822 Y109.724 E21.8691
G1 X52.546 Y109.000 E21.9049
G1 X51.822 Y108.276 E21.9407
G1 X51.790 Y108.199 E21.9436
G1 X51.790 Y87.801 E22.6559
G1 X51.822 Y87.724 E22.6588
G1 X52.046 Y87.500 E22.6699
G1 X51.822 Y87.276 E22.6810
G1 X51.790 Y87.199 E22.6839
G1 X51.790 Y67.801 E23.3613
G1 X51.822 Y67.724 E23.3642
G1 X52.546 Y67.000 E23.4000
G1 X51.822 Y66.276 E23.4358
G1 X51.790 Y66.199 E23.4387
G1 X51.790 Y45.801 E24.1510
G1 X51.822 Y45.724 E24.1539
G1 X52.046 Y45.500 E24.1650
G1 X51.822 Y45.276 E24.1761
G1 X51.790 Y45.199 E24.1790
G1 X51.790 Y25.801 E24.8564
G1 X51.822 Y25.724 E24.8593
G92 E0
G1 E-1.4000 F3000
; inner perimeter
G1 X56.630 Y28.130 F3600
G1 E0.0000 F3000
G92 E0
G1 X183.370 Y28.130 E4.4262 F1080
G1 X183.370 Y31.870 E4.5568
G1 X157.770 Y31.870 E5.4508
G1 X157.770 Y39.330 E5.7113
G1 X183.370 Y39.330 E6.6054
G1 X183.370 Y42.870 E6.7290
G1 X56.630 Y42.870 E11.1551
G1 X56.630 Y28.130 E11.6699
; outer perimeter
G1 X56.210 Y27.710 F3600
G92 E0
G1 X183.790 Y27.710 E4.4555 F960
G1 X183.790 Y32.290 E4.6154
G1 X158.190 Y32.290 E5.5095
G1 X158.190 Y38.910 E5.7407
G1 X183.790 Y38.910 E6.6347
G1 X183.790 Y43.290 E6.7877
G1 X56.210 Y43.290 E11.2432
G1 X56.210 Y27.710 E11.7873
; solid layer
G1 X56.966 Y42.019 F3600
G92 E0
G1 X57.481 Y42.534 E0.0254 F960
G1 X58.075 Y42.534 E0.0462
G1 X56.966 Y41.425 E0.1009
G1 X56.966 Y40.831 E0.1217
G1 X58.669 Y42.534 E0.2058
G1 X59.263 Y42.534 E0.2265
G1 X56.966 Y40.237 E0.3399
G1 X56.966 Y39.643 E0.3607
G1 X59.857 Y42.534 E0.5034
G1 X60.451 Y42.534 E0.5242
G1 X56.966 Y39.049 E0.6963
G1 X56.966 Y38.455 E0.7170
G1 X61.045 Y42.534 E0.9185
G1 X61.639 Y42.534 E0.9392
G1 X56.966 Y37.861 E1.1700
G1 X56.966 Y37.268 E1.1907
G1 X62.232 Y42.534 E1.4508
G1 X62.826 Y42.534 E1.4716
G1 X56.966 Y36.674 E1.7610
G1 X56.966 Y36.080 E1.7818
G1 X63.420 Y42.534 E2.1005
G1 X64.014 Y42.534 E2.1213
G1 X56.966 Y35.486 E2.4694
G1 X56.966 Y34.892 E2.4901
G1 X64.608 Y42.534 E2.8676
G1 X65.202 Y42.534 E2.8883
G1 X56.966 Y34.298 E3.2951
G1 X56.966 Y33.704 E3.3158
G1 X65.796 Y42.534 E3.7520
G1 X66.390 Y42.534 E3.7727
G1 X56.966 Y33.110 E4.2382
G1 X56.966 Y32.516 E4.2589
G1 X66.984 Y42.534 E4.7537
G1 X67.578 Y42.534 E4.7744
G1 X56.966 Y31.922 E5.2986
G1 X56.966 Y31.328 E5.3193
