; G-Code generated by Simplify3D(R) Version 4.1.1
; Mar 29, 2019 at 10:28:43 AM
; Settings Summary
;   processName,Process1
;   applyToModels,DIY_PSU_Cover(2)(2)
;   profileName,XL PRUSA (modified)
;   profileVersion,2017-08-18 11:29:24
;   baseProfile,Default (modified)
;   printMaterial,ABS
;   printQuality,Medium
;   printExtruders,
;   extruderName,Primary Extruder
;   extruderToolheadNumber,0
;   extruderDiameter,0.4
;   extruderAutoWidth,0
;   extruderWidth,0.45
;   extrusionMultiplier,1
;   extruderUseRetract,1
;   extruderRetractionDistance,1.4
;   extruderExtraRestartDistance,0
;   extruderRetractionZLift,0
;   extruderRetractionSpeed,3000
;   extruderUseCoasting,0
;   extruderCoastingDistance,0.2
;   extruderUseWipe,0
;   extruderWipeDistance,5
;   primaryExtruder,0
;   layerHeight,0.2
;   topSolidLayers,3
;   bottomSolidLayers,3
;   perimeterOutlines,3
;   printPerimetersInsideOut,1
;   startPointOption,2
;   startPointOriginX,0
;   startPointOriginY,0
;   sequentialIslands,0
;   spiralVaseMode,0
;   firstLayerHeightPercentage,100
;   firstLayerWidthPercentage,100
;   firstLayerUnderspeed,0.6
;   useRaft,0
;   raftExtruder,0
;   raftTopLayers,3
;   raftBaseLayers,2
;   raftOffset,3
;   raftSeparationDistance,0.14
;   raftTopInfill,100
;   aboveRaftSpeedMultiplier,0.3
;   useSkirt,1
;   skirtExtruder,0
;   skirtLayers,1
;   skirtOutlines,2
;   skirtOffset,4
;   usePrimePillar,0
;   primePillarExtruder,999
;   primePillarWidth,12
;   primePillarLocation,7
;   primePillarSpeedMultiplier,1
;   useOozeShield,0
;   oozeShieldExtruder,999
;   oozeShieldOffset,2
;   oozeShieldOutlines,1
;   oozeShieldSidewallShape,1
;   oozeShieldSidewallAngle,30
;   oozeShieldSpeedMultiplier,1
;   infillExtruder,0
;   internalInfillPattern,Rectilinear
;   externalInfillPattern,Rectilinear
;   infillPercentage,30
;   outlineOverlapPercentage,15
;   infillExtrusionWidthPercentage,140
;   minInfillLength,6
;   infillLayerInterval,1
;   internalInfillAngles,45,-45
;   overlapInternalInfillAngles,0
;   externalInfillAngles,45,-45
;   generateSupport,0
;   supportExtruder,0
;   supportInfillPercentage,25
;   supportExtraInflation,0
;   supportBaseLayers,0
;   denseSupportExtruder,0
;   denseSupportLayers,0
;   denseSupportInfillPercentage,70
;   supportLayerInterval,1
;   supportHorizontalPartOffset,0.5
;   supportUpperSeparationLayers,1
;   supportLowerSeparationLayers,1
;   supportType,0
;   supportGridSpacing,3
;   maxOverhangAngle,45
;   supportAngles,0
;   temperatureName,Primary Extruder,Heat Bed
;   temperatureNumber,0,0
;   temperatureSetpointCount,1,1
;   temperatureSetpointLayers,1,1
;   temperatureSetpointTemperatures,245,90
;   temperatureStabilizeAtStartup,1,1
;   temperatureHeatedBed,0,1
;   fanLayers,1
;   fanSpeeds,0
;   blipFanToFullPower,0
;   adjustSpeedForCooling,1
;   minSpeedLayerTime,20
;   minCoolingSpeedSlowdown,40
;   increaseFanForCooling,0
;   minFanLayerTime,45
;   maxCoolingFanSpeed,100
;   increaseFanForBridging,0
;   bridgingFanSpeed,100
;   use5D,1
;   relativeEdistances,0
;   allowEaxisZeroing,1
;   independentExtruderAxes,0
;   includeM10123,0
;   stickySupport,1
;   applyToolheadOffsets,0
;   gcodeXoffset,0
;   gcodeYoffset,0
;   gcodeZoffset,0
;   overrideMachineDefinition,1
;   machineTypeOverride,0
;   strokeXoverride,240
;   strokeYoverride,260
;   strokeZoverride,200
;   originOffsetXoverride,0
;   originOffsetYoverride,0
;   originOffsetZoverride,0
;   homeXdirOverride,-1
;   homeYdirOverride,-1
;   homeZdirOverride,-1
;   flipXoverride,1
;   flipYoverride,-1
;   flipZoverride,1
;   toolheadOffsets,0,0|0,0|0,0|0,0|0,0|0,0
;   overrideFirmwareConfiguration,0
;   firmwareTypeOverride,RepRap (Marlin/Repetier/Sprinter)
;   GPXconfigOverride,r2
;   baudRateOverride,115200
;   overridePrinterModels,0
;   printerModelsOverride
;   startingGcode,M80 ;,G28 ; home all axes,G29 L1 ;,G29 A ;,,,
;   layerChangeGcode,
;   retractionGcode,
;   toolChangeGcode,
;   endingGcode,G91 ;,G1 Z5 ;,G28 X ;,M104 S0 ; turn off extruder,M140 S0 ; turn off bed,M84 ; disable motors,M81 ;,
;   exportFileFormat,gcode
;   celebration,0
;   celebrationSong,Random Song
;   postProcessing,
;   defaultSpeed,2700
;   outlineUnderspeed,0.75
;   solidInfillUnderspeed,0.75
;   supportUnderspeed,1
;   rapidXYspeed,4800
;   rapidZspeed,1200
;   minBridgingArea,5
;   bridgingExtraInflation,0
;   bridgingExtrusionMultiplier,1
;   bridgingSpeedMultiplier,0.6
;   useFixedBridgingAngle,1
;   fixedBridgingAngle,90
;   applyBridgingToPerimeters,1
;   filamentDiameters,1.75|1.69|1.69|1.69|1.69|1.69
;   filamentPricesPerKg,153|153|153|153|153|153
;   filamentDensities,1.06|1.06|1.06|1.06|1.06|1.06
;   useMinPrintHeight,0
;   minPrintHeight,0
;   useMaxPrintHeight,0
;   maxPrintHeight,0
;   useDiaphragm,0
;   diaphragmLayerInterval,20
;   robustSlicing,1
;   mergeAllIntoSolid,0
;   onlyRetractWhenCrossingOutline,1
;   retractBetweenLayers,1
;   useRetractionMinTravel,0
;   retractionMinTravel,3
;   retractWhileWiping,0
;   onlyWipeOutlines,1
;   avoidCrossingOutline,0
;   maxMovementDetourFactor,3
;   toolChangeRetractionDistance,12
;   toolChangeExtraRestartDistance,-0.5
;   toolChangeRetractionSpeed,12
;   externalThinWallType,1
;   internalThinWallType,2
;   thinWallAllowedOverlapPercentage,50
;   singleExtrusionMinLength,1
;   singleExtrusionMinPrintingWidthPercentage,50
;   singleExtrusionMaxPrintingWidthPercentage,200
;   singleExtrusionEndpointExtension,0.2
;   horizontalSizeCompensation,0
G90
M82
M106 S0
M140 S90
M190 S90
M104 S245 T0
M109 S245 T0
M80 ;
G28 ; home all axes
G29 L1 ;
G29 A ;
; process Process1
; layer 1, Z = 0.200
T0
G92 E0.0000
G1 E-1.4000 F3000
; feature skirt
; tool H0.200 W0.450
G1 Z0.200 F1200
G1 X95.123 Y83.586 F4800
G1 E0.0000 F3000
G92 E0.0000
G1 X97.866 Y80.825 E0.1456 F1620
G1 X150.133 Y80.825 E2.1013
G1 X152.875 Y83.583 E2.2469
G1 X152.732 Y107.752 E3.1512
G1 X152.867 Y129.086 E3.9495
G1 X152.867 Y129.109 E3.9504
G1 X152.862 Y130.264 E3.9936
G1 X152.811 Y130.743 E4.0116
G1 X152.622 Y131.630 E4.0456
G1 X152.463 Y132.113 E4.0646
G1 X144.734 Y149.107 E4.7631
G1 X137.236 Y165.909 E5.4516
G1 X129.509 Y183.549 E6.1722
G1 X128.226 Y184.812 E6.2395
G1 X127.471 Y185.128 E6.2702
G1 X126.831 Y185.592 E6.2997
G1 X125.482 Y186.045 E6.3530
G1 X124.694 Y186.063 E6.3825
G1 X124.615 Y186.064 E6.3854
G1 X114.675 Y185.951 E6.7574
G1 X100.304 Y186.067 E7.2951
G1 X99.262 Y185.834 E7.3351
G1 X97.956 Y185.209 E7.3893
G1 X97.184 Y184.617 E7.4257
G1 X95.713 Y182.902 E7.5102
G1 X95.131 Y181.314 E7.5735
G1 X95.268 Y161.484 E8.3155
G1 X95.268 Y104.516 E10.4471
G1 X95.123 Y83.586 E11.2303
G92 E0.0000
G1 E-1.4000 F3000
G1 X95.575 Y83.771 F4800
G1 E0.0000 F3000
G92 E0.0000
G1 X98.053 Y81.275 E0.1316 F1620
G1 X149.946 Y81.275 E2.0733
G1 X152.424 Y83.768 E2.2048
G1 X152.282 Y107.752 E3.1023
G1 X152.417 Y129.088 E3.9006
G1 X152.417 Y129.109 E3.9014
G1 X152.413 Y130.239 E3.9437
G1 X152.366 Y130.672 E3.9600
G1 X152.187 Y131.513 E3.9922
G1 X152.043 Y131.949 E4.0093
G1 X144.324 Y148.922 E4.7070
G1 X136.824 Y165.727 E5.3956
G1 X129.132 Y183.289 E6.1130
G1 X127.972 Y184.431 E6.1739
G1 X127.250 Y184.734 E6.2032
G1 X126.622 Y185.187 E6.2322
G1 X125.404 Y185.597 E6.2803
G1 X124.687 Y185.613 E6.3071
G1 X124.616 Y185.613 E6.3098
G1 X114.675 Y185.501 E6.6818
G1 X100.352 Y185.616 E7.2177
G1 X99.410 Y185.406 E7.2538
G1 X98.193 Y184.823 E7.3043
G1 X97.495 Y184.288 E7.3373
G1 X96.107 Y182.671 E7.4170
G1 X95.581 Y181.235 E7.4742
G1 X95.718 Y161.485 E8.2132
G1 X95.718 Y104.515 E10.3449
G1 X95.575 Y83.771 E11.1211
G92 E0.0000
G1 E-1.4000 F3000
; feature inner perimeter
G1 X100.944 Y86.625 F4800
G1 E0.0000 F3000
G92 E0.0000
G1 X147.057 Y86.625 E1.7254 F1418
G1 X146.932 Y107.753 E2.5160
G1 X147.067 Y129.104 E3.3149
G1 X147.064 Y129.885 E3.3441
G1 X147.028 Y130.054 E3.3506
G1 X139.446 Y146.724 E4.0359
G1 X131.932 Y163.563 E4.7258
G1 X124.745 Y179.983 E5.3965
G1 X124.613 Y180.038 E5.4018
G1 X124.306 Y180.260 E5.4160
G1 X114.685 Y180.151 E5.7760
G1 X101.081 Y180.260 E6.2851
G1 X100.939 Y180.103 E6.2930
G1 X101.068 Y161.503 E6.9889
G1 X101.068 Y104.497 E9.1220
G1 X100.944 Y86.625 E9.7907
G1 X100.491 Y86.175 F4800
G92 E0.0000
G1 X147.509 Y86.175 E1.7593 F1418
G1 X147.382 Y107.753 E2.5667
G1 X147.517 Y129.104 E3.3656
G1 X147.514 Y129.933 E3.3967
G1 X147.458 Y130.196 E3.4067
G1 X139.856 Y146.909 E4.0937
G1 X132.343 Y163.744 E4.7835
G1 X125.085 Y180.328 E5.4609
G1 X124.835 Y180.433 E5.4711
G1 X124.450 Y180.711 E5.4888
G1 X114.684 Y180.601 E5.8543
G1 X100.951 Y180.711 E6.3681
G1 X100.828 Y180.652 E6.3732
G1 X100.488 Y180.274 E6.3923
G1 X100.618 Y161.502 E7.0947
G1 X100.618 Y104.498 E9.2276
G1 X100.491 Y86.175 E9.9133
; feature outer perimeter
G1 X100.038 Y85.725 F4800
G92 E0.0000
G1 X147.962 Y85.725 E1.7932 F1215
G1 X147.832 Y107.753 E2.6174
G1 X147.967 Y129.104 E3.4164
G1 X147.963 Y129.981 E3.4492
G1 X147.888 Y130.337 E3.4628
G1 X140.266 Y147.094 E4.1516
G1 X132.755 Y163.926 E4.8413
G1 X125.425 Y180.673 E5.5253
G1 X125.056 Y180.828 E5.5403
G1 X124.593 Y181.163 E5.5617
G1 X114.683 Y181.051 E5.9325
G1 X100.850 Y181.162 E6.4501
G1 X100.552 Y181.019 E6.4625
G1 X100.062 Y180.472 E6.4900
G1 X100.037 Y180.434 E6.4917
G1 X100.168 Y161.500 E7.2002
G1 X100.168 Y104.500 E9.3330
G1 X100.038 Y85.725 E10.0355
; feature inner perimeter
G1 X108.852 Y91.683 F4800
G92 E0.0000
G1 X108.489 Y92.559 E0.0355 F1418
G1 X108.375 Y93.426 E0.0682
G1 X108.375 Y97.574 E0.2234
G1 X108.489 Y98.441 E0.2561
G1 X108.852 Y99.317 E0.2916
G1 X109.430 Y100.070 E0.3271
G1 X110.183 Y100.648 E0.3626
G1 X111.059 Y101.011 E0.3982
G1 X112.000 Y101.135 E0.4337
G1 X112.941 Y101.011 E0.4692
G1 X113.817 Y100.648 E0.5047
G1 X114.573 Y100.068 E0.5403
G1 X115.156 Y99.296 E0.5765
G1 X115.511 Y98.441 E0.6112
G1 X115.625 Y97.574 E0.6439
G1 X115.625 Y93.426 E0.7991
G1 X115.511 Y92.559 E0.8318
G1 X115.148 Y91.683 E0.8673
G1 X114.570 Y90.930 E0.9028
G1 X113.817 Y90.352 E0.9383
G1 X112.941 Y89.989 E0.9738
G1 X112.000 Y89.865 E1.0093
G1 X111.059 Y89.989 E1.0448
G1 X110.183 Y90.352 E1.0803
G1 X109.430 Y90.930 E1.1158
G1 X108.852 Y91.683 E1.1513
G1 X109.245 Y91.910 F4800
G92 E0.0000
G1 X108.928 Y92.677 E0.0311 F1418
G1 X108.825 Y93.456 E0.0605
G1 X108.825 Y97.544 E0.2135
G1 X108.928 Y98.323 E0.2429
G1 X109.245 Y99.090 E0.2739
G1 X109.751 Y99.749 E0.3050
G1 X110.410 Y100.255 E0.3361
G1 X111.177 Y100.572 E0.3671
G1 X112.000 Y100.681 E0.3982
G1 X112.823 Y100.572 E0.4293
G1 X113.590 Y100.255 E0.4603
G1 X114.251 Y99.748 E0.4915
G1 X114.763 Y99.071 E0.5233
G1 X115.072 Y98.323 E0.5535
G1 X115.175 Y97.544 E0.5829
G1 X115.175 Y93.456 E0.7359
G1 X115.072 Y92.677 E0.7653
G1 X114.755 Y91.910 E0.7964
G1 X114.249 Y91.251 E0.8275
G1 X113.590 Y90.745 E0.8585
G1 X112.823 Y90.428 E0.8896
G1 X112.000 Y90.319 E0.9207
G1 X111.177 Y90.428 E0.9517
G1 X110.410 Y90.745 E0.9828
G1 X109.751 Y91.251 E1.0139
G1 X109.245 Y91.910 E1.0449
; feature outer perimeter
G1 X109.638 Y92.137 F4800
G92 E0.0000
G1 X109.366 Y92.794 E0.0266 F1215
G1 X109.275 Y93.485 E0.0527
G1 X109.275 Y97.515 E0.2035
G1 X109.366 Y98.206 E0.2296
G1 X109.638 Y98.863 E0.2562
G1 X110.072 Y99.428 E0.2828
G1 X110.637 Y99.862 E0.3095
G1 X111.294 Y100.134 E0.3361
G1 X112.000 Y100.227 E0.3628
G1 X112.706 Y100.134 E0.3894
G1 X113.363 Y99.862 E0.4160
G1 X113.929 Y99.428 E0.4427
G1 X114.369 Y98.846 E0.4700
G1 X114.634 Y98.206 E0.4959
G1 X114.725 Y97.515 E0.5220
G1 X114.725 Y93.485 E0.6728
G1 X114.634 Y92.794 E0.6988
G1 X114.362 Y92.137 E0.7255
G1 X113.928 Y91.572 E0.7521
G1 X113.363 Y91.138 E0.7788
G1 X112.706 Y90.866 E0.8054
G1 X112.000 Y90.773 E0.8320
G1 X111.294 Y90.866 E0.8587
G1 X110.637 Y91.138 E0.8853
G1 X110.072 Y91.572 E0.9119
G1 X109.638 Y92.137 E0.9386
G92 E0.0000
G1 E-1.4000 F3000
; feature inner perimeter
G1 X133.375 Y93.426 F4800
G1 E0.0000 F3000
G92 E0.0000
G1 X133.375 Y97.574 E0.1552 F1418
G1 X133.489 Y98.441 E0.1879
G1 X133.852 Y99.317 E0.2234
G1 X134.430 Y100.070 E0.2589
G1 X135.183 Y100.648 E0.2944
G1 X136.059 Y101.011 E0.3299
G1 X137.000 Y101.135 E0.3654
G1 X137.941 Y101.011 E0.4009
G1 X138.817 Y100.648 E0.4364
G1 X139.570 Y100.070 E0.4719
G1 X140.148 Y99.317 E0.5074
G1 X140.511 Y98.441 E0.5429
G1 X140.625 Y97.574 E0.5757
G1 X140.625 Y93.426 E0.7309
G1 X140.511 Y92.559 E0.7636
G1 X140.148 Y91.683 E0.7991
G1 X139.570 Y90.930 E0.8346
G1 X138.817 Y90.352 E0.8701
G1 X137.941 Y89.989 E0.9056
G1 X137.000 Y89.865 E0.9411
G1 X136.059 Y89.989 E0.9766
G1 X135.183 Y90.352 E1.0121
G1 X134.430 Y90.930 E1.0476
G1 X133.850 Y91.686 E1.0833
G1 X133.486 Y92.582 E1.1194
G1 X133.375 Y93.426 E1.1513
G1 X133.825 Y93.456 F4800
G92 E0.0000
G1 X133.825 Y97.544 E0.1530 F1418
G1 X133.928 Y98.323 E0.1824
G1 X134.245 Y99.090 E0.2135
G1 X134.751 Y99.749 E0.2445
G1 X135.410 Y100.255 E0.2756
G1 X136.177 Y100.572 E0.3067
G1 X137.000 Y100.681 E0.3377
G1 X137.823 Y100.572 E0.3688
G1 X138.590 Y100.255 E0.3999
G1 X139.249 Y99.749 E0.4309
G1 X139.755 Y99.090 E0.4620
G1 X140.072 Y98.323 E0.4931
G1 X140.175 Y97.544 E0.5225
G1 X140.175 Y93.456 E0.6755
G1 X140.072 Y92.677 E0.7049
G1 X139.755 Y91.910 E0.7359
G1 X139.249 Y91.251 E0.7670
G1 X138.590 Y90.745 E0.7981
G1 X137.823 Y90.428 E0.8291
G1 X137.000 Y90.319 E0.8602
G1 X136.177 Y90.428 E0.8913
G1 X135.410 Y90.745 E0.9224
G1 X134.751 Y91.251 E0.9534
G1 X134.244 Y91.912 E0.9846
G1 X133.925 Y92.698 E1.0163
G1 X133.825 Y93.456 E1.0449
; feature outer perimeter
G1 X134.275 Y93.485 F4800
G92 E0.0000
G1 X134.275 Y97.515 E0.1508 F1215
G1 X134.366 Y98.206 E0.1769
G1 X134.638 Y98.863 E0.2035
G1 X135.072 Y99.428 E0.2301
G1 X135.637 Y99.862 E0.2568
G1 X136.294 Y100.134 E0.2834
G1 X137.000 Y100.227 E0.3100
G1 X137.706 Y100.134 E0.3367
G1 X138.363 Y99.862 E0.3633
G1 X138.928 Y99.428 E0.3899
G1 X139.362 Y98.863 E0.4166
G1 X139.634 Y98.206 E0.4432
G1 X139.725 Y97.515 E0.4693
G1 X139.725 Y93.485 E0.6201
G1 X139.634 Y92.794 E0.6462
G1 X139.362 Y92.137 E0.6728
G1 X138.928 Y91.572 E0.6994
G1 X138.363 Y91.138 E0.7261
G1 X137.706 Y90.866 E0.7527
G1 X137.000 Y90.773 E0.7793
G1 X136.294 Y90.866 E0.8060
G1 X135.637 Y91.138 E0.8326
G1 X135.072 Y91.572 E0.8592
G1 X134.638 Y92.137 E0.8859
G1 X134.363 Y92.813 E0.9132
G1 X134.275 Y93.485 E0.9386
G92 E0.0000
G1 E-1.4000 F3000
; feature solid layer
G1 X139.846 Y90.661 F4800
G1 E0.0000 F3000
G92 E0.0000
G1 X146.610 Y97.426 E0.3579 F1215
G1 X146.607 Y98.058 E0.3816
G1 X140.796 Y92.247 E0.6891
G1 X140.883 Y92.459 E0.6977
G1 X140.961 Y93.049 E0.7200
G1 X146.603 Y98.691 E1.0185
G1 X146.599 Y99.324 E1.0422
G1 X141.007 Y93.732 E1.3381
G1 X141.007 Y94.368 E1.3619
G1 X146.596 Y99.956 E1.6576
G1 X146.592 Y100.589 E1.6813
G1 X141.007 Y95.005 E1.9768
G1 X141.007 Y95.641 E2.0006
G1 X146.588 Y101.222 E2.2959
G1 X146.584 Y101.854 E2.3196
G1 X141.007 Y96.277 E2.6147
G1 X141.007 Y96.914 E2.6385
G1 X146.581 Y102.487 E2.9334
G1 X146.577 Y103.120 E2.9571
G1 X141.007 Y97.550 E3.2518
G1 X141.007 Y97.599 E3.2536
G1 X140.939 Y98.118 E3.2732
G1 X146.573 Y103.752 E3.5713
G1 X146.569 Y104.385 E3.5950
G1 X140.837 Y98.653 E3.8983
G1 X140.651 Y99.103 E3.9166
G1 X146.566 Y105.018 E4.2296
G1 X146.562 Y105.650 E4.2532
G1 X140.456 Y99.544 E4.5764
G1 X140.180 Y99.904 E4.5933
G1 X146.558 Y106.283 E4.9309
G1 X146.554 Y106.916 E4.9546
G1 X139.903 Y100.264 E5.3065
G1 X139.843 Y100.343 E5.3102
G1 X139.561 Y100.559 E5.3235
G1 X146.551 Y107.548 E5.6934
G1 X146.550 Y107.753 E5.7010
G1 X146.552 Y108.186 E5.7172
G1 X139.201 Y100.835 E6.1062
G1 X139.010 Y100.982 E6.1152
G1 X138.799 Y101.069 E6.1238
G1 X146.556 Y108.827 E6.5343
G1 X146.560 Y109.467 E6.5582
G1 X138.349 Y101.256 E6.9927
G1 X138.041 Y101.384 E7.0052
G1 X137.864 Y101.407 E7.0119
G1 X146.564 Y110.107 E7.4723
G1 X146.568 Y110.748 E7.4963
G1 X137.301 Y101.481 E7.9867
G1 X137.000 Y101.521 E7.9980
G1 X136.660 Y101.476 E8.0109
G1 X146.572 Y111.388 E8.5354
G1 X146.576 Y112.029 E8.5594
G1 X135.911 Y101.364 E9.1237
G92 E0.0000
G1 E-1.4000 F3000
G1 X146.375 Y87.007 F4800
G1 E0.0000 F3000
G92 E0.0000
G1 X146.670 Y87.303 E0.0156 F1215
G1 X146.666 Y87.936 E0.0393
G1 X145.738 Y87.007 E0.0884
G1 X145.102 Y87.007 E0.1122
G1 X146.663 Y88.568 E0.1948
G1 X146.659 Y89.201 E0.2185
G1 X144.465 Y87.007 E0.3346
