; G-Code generated by Simplify3D(R) Version 3.1.1
; Jun 23, 2017 at 2:29:24 PM
; Settings Summary
;   processName,Process1
;   applyToModels,Endstop X,Endstop Z,Endstop Y
;   profileName,XL PRUSA (modified)
;   profileVersion,2017-06-14 11:58:57
;   baseProfile,Default (modified)
;   printMaterial,ABS
;   printQuality,Medium
;   printExtruders,
;   extruderName,Primary Extruder
;   extruderToolheadNumber,0
;   extruderDiameter,0.4
;   extruderAutoWidth,0
;   extruderWidth,0.42
;   extrusionMultiplier,1
;   extruderUseRetract,1
;   extruderRetractionDistance,1.4
;   extruderExtraRestartDistance,0
;   extruderRetractionZLift,0
;   extruderRetractionSpeed,3000
;   extruderUseCoasting,0
;   extruderCoastingDistance,0.2
;   extruderUseWipe,0
;   extruderWipeDistance,5
;   primaryExtruder,0
;   layerHeight,0.2
;   topSolidLayers,3
;   bottomSolidLayers,3
;   perimeterOutlines,2
;   printPerimetersInsideOut,1
;   startPointOption,2
;   startPointOriginX,0
;   startPointOriginY,0
;   startPointOriginZ,300
;   sequentialIslands,0
;   spiralVaseMode,0
;   firstLayerHeightPercentage,100
;   firstLayerWidthPercentage,100
;   firstLayerUnderspeed,0.5
;   useRaft,0
;   raftExtruder,0
;   raftLayers,3
;   raftOffset,3
;   raftSeparationDistance,0.14
;   raftInfill,85
;   disableRaftBaseLayers,0
;   useSkirt,1
;   skirtExtruder,0
;   skirtLayers,1
;   skirtOutlines,2
;   skirtOffset,4
;   usePrimePillar,0
;   primePillarExtruder,999
;   primePillarWidth,12
;   primePillarLocation,7
;   primePillarSpeedMultiplier,1
;   useOozeShield,0
;   oozeShieldExtruder,999
;   oozeShieldOffset,2
;   oozeShieldOutlines,1
;   oozeShieldSidewallShape,1
;   oozeShieldSidewallAngle,30
;   oozeShieldSpeedMultiplier,1
;   infillExtruder,0
;   internalInfillPattern,Rectilinear
;   externalInfillPattern,Rectilinear
;   infillPercentage,30
;   outlineOverlapPercentage,20
;   infillExtrusionWidthPercentage,140
;   minInfillLength,6
;   infillLayerInterval,1
;   infillAngles,45,-45
;   overlapInfillAngles,0
;   generateSupport,0
;   supportExtruder,0
;   supportInfillPercentage,25
;   supportExtraInflation,0
;   denseSupportLayers,0
;   denseSupportInfillPercentage,70
;   supportLayerInterval,1
;   supportHorizontalPartOffset,0.5
;   supportUpperSeparationLayers,1
;   supportLowerSeparationLayers,1
;   supportType,0
;   supportGridSpacing,3
;   maxOverhangAngle,45
;   supportAngles,0
;   temperatureName,Primary Extruder,Heat Bed
;   temperatureNumber,0,0
;   temperatureSetpointCount,1,1
;   temperatureSetpointLayers,1,1
;   temperatureSetpointTemperatures,240,80
;   temperatureStabilizeAtStartup,1,1
;   temperatureHeatedBed,0,1
;   temperatureRelayBetweenLayers,0,0
;   temperatureRelayBetweenLoops,0,0
;   fanLayers,1
;   fanSpeeds,0
;   blipFanToFullPower,0
;   adjustSpeedForCooling,1
;   minSpeedLayerTime,30
;   minCoolingSpeedSlowdown,40
;   increaseFanForCooling,0
;   minFanLayerTime,45
;   maxCoolingFanSpeed,100
;   increaseFanForBridging,0
;   bridgingFanSpeed,100
;   use5D,1
;   relativeEdistances,0
;   allowEaxisZeroing,1
;   independentExtruderAxes,0
;   includeM10123,0
;   stickySupport,1
;   applyToolheadOffsets,0
;   gcodeXoffset,0
;   gcodeYoffset,0
;   gcodeZoffset,0
;   overrideMachineDefinition,1
;   machineTypeOverride,0
;   strokeXoverride,240
;   strokeYoverride,260
;   strokeZoverride,200
;   originOffsetXoverride,0
;   originOffsetYoverride,0
;   originOffsetZoverride,0
;   homeXdirOverride,-1
;   homeYdirOverride,-1
;   homeZdirOverride,-1
;   flipXoverride,1
;   flipYoverride,-1
;   flipZoverride,1
;   toolheadOffsets,0,0|0,0|0,0|0,0|0,0|0,0
;   overrideFirmwareConfiguration,0
;   firmwareTypeOverride,RepRap (Marlin/Repetier/Sprinter)
;   GPXconfigOverride,r2
;   baudRateOverride,115200
;   overridePrinterModels,0
;   printerModelsOverride
;   startingGcode,M80 ;,G28 ; home all axes,G29 L ;,G29 A ;,,,
;   layerChangeGcode,
;   retractionGcode,
;   toolChangeGcode,
;   endingGcode,G91 ;,G1 Z5 ;,G28 X ;,M104 S0 ; turn off extruder,M140 S0 ; turn off bed,M84 ; disable motors,M81 ;,
;   exportFileFormat,gcode
;   celebration,0
;   celebrationSong,Random Song
;   postProcessing,
;   defaultSpeed,1500
;   outlineUnderspeed,0.8
;   solidInfillUnderspeed,0.8
;   supportUnderspeed,1
;   rapidXYspeed,3600
;   rapidZspeed,1200
;   minBridgingArea,50
;   bridgingExtraInflation,0
;   bridgingExtrusionMultiplier,1
;   bridgingSpeedMultiplier,1
;   filamentDiameter,1.75
;   filamentPricePerKg,153
;   filamentDensity,1.06
;   useMinPrintHeight,0
;   minPrintHeight,0
;   useMaxPrintHeight,0
;   maxPrintHeight,148.6
;   useDiaphragm,0
;   diaphragmLayerInterval,20
;   robustSlicing,1
;   mergeAllIntoSolid,0
;   onlyRetractWhenCrossingOutline,1
;   retractBetweenLayers,1
;   useRetractionMinTravel,0
;   retractionMinTravel,3
;   retractWhileWiping,0
;   onlyWipeOutlines,1
;   avoidCrossingOutline,0
;   maxMovementDetourFactor,3
;   toolChangeRetractionDistance,12
;   toolChangeExtraRestartDistance,-0.5
;   toolChangeRetractionSpeed,12
;   allowThinWallGapFill,1
;   thinWallAllowedOverlapPercentage,0
;   horizontalSizeCompensation,0
G90
M82
M106 S0
M140 S80
M190 S80
M104 S240 T0
M109 S240 T0
M80 ;
G28 ; home all axes
G29 L ;
G29 A ;
G92 E0
G1 E-1.4000 F3000
G1 Z0.200 F1200
; layer 1, Z = 0.2
T0
; tool H0.200 W0.420
; skirt
G1 X86.415 Y94.076 F3600
G1 E0.0000 F900
G92 E0
G1 X86.432 Y94.061 E0.0008 F750
G1 X87.014 Y93.626 E0.0262
G1 X87.032 Y93.613 E0.0270
G1 X87.288 Y93.448 E0.0376
G1 X87.307 Y93.437 E0.0383
G1 X87.960 Y93.079 E0.0644
G1 X87.981 Y93.068 E0.0652
G1 X88.266 Y92.938 E0.0761
G1 X88.287 Y92.929 E0.0769
G1 X88.980 Y92.671 E0.1027
G1 X89.001 Y92.664 E0.1035
G1 X89.298 Y92.577 E0.1143
G1 X89.320 Y92.572 E0.1151
G1 X90.039 Y92.416 E0.1408
G1 X90.061 Y92.412 E0.1416
G1 X90.365 Y92.368 E0.1523
G1 X90.388 Y92.366 E0.1531
G1 X91.042 Y92.319 E0.1760
G1 X91.053 Y92.319 E0.1764
G1 X91.207 Y92.313 E0.1818
G1 X91.218 Y92.313 E0.1822
G1 X100.443 Y92.313 E0.5043
G1 X102.293 Y92.192 E0.5691
G1 X99.294 Y89.394 E0.7123
G1 X99.190 Y89.118 E0.7226
G1 X99.617 Y84.879 E0.8714
G1 X99.774 Y84.629 E0.8817
G1 X102.240 Y83.116 E0.9827
G1 X102.255 Y83.108 E0.9833
G1 X102.458 Y82.998 E0.9914
G1 X102.473 Y82.990 E0.9920
G1 X103.266 Y82.614 E1.0226
G1 X103.281 Y82.607 E1.0232
G1 X103.495 Y82.519 E1.0313
G1 X103.511 Y82.513 E1.0319
G1 X104.340 Y82.224 E1.0625
G1 X104.356 Y82.219 E1.0631
G1 X104.578 Y82.154 E1.0712
G1 X104.594 Y82.150 E1.0718
G1 X105.449 Y81.951 E1.1024
G1 X105.465 Y81.947 E1.1030
G1 X105.693 Y81.907 E1.1111
G1 X105.709 Y81.904 E1.1117
G1 X106.581 Y81.798 E1.1423
G1 X106.598 Y81.796 E1.1429
G1 X106.828 Y81.780 E1.1510
G1 X106.845 Y81.779 E1.1516
G1 X107.723 Y81.766 E1.1822
G1 X107.740 Y81.766 E1.1828
G1 X107.970 Y81.775 E1.1909
G1 X107.987 Y81.776 E1.1915
G1 X108.861 Y81.857 E1.2221
G1 X108.878 Y81.859 E1.2227
G1 X109.107 Y81.892 E1.2308
G1 X109.123 Y81.895 E1.2314
G1 X109.984 Y82.069 E1.2620
G1 X110.000 Y82.073 E1.2626
G1 X110.224 Y82.130 E1.2707
G1 X110.240 Y82.135 E1.2713
G1 X111.077 Y82.399 E1.3019
G1 X111.093 Y82.405 E1.3025
G1 X111.309 Y82.486 E1.3106
G1 X111.325 Y82.492 E1.3112
G1 X112.129 Y82.845 E1.3418
G1 X112.145 Y82.852 E1.3424
G1 X112.351 Y82.956 E1.3505
G1 X112.366 Y82.964 E1.3511
G1 X113.127 Y83.400 E1.3817
G1 X113.142 Y83.409 E1.3823
G1 X113.336 Y83.534 E1.3904
G1 X113.350 Y83.544 E1.3910
G1 X114.061 Y84.059 E1.4217
G1 X114.074 Y84.069 E1.4222
G1 X114.254 Y84.214 E1.4303
G1 X114.267 Y84.225 E1.4309
G1 X114.918 Y84.813 E1.4616
G1 X114.931 Y84.825 E1.4621
G1 X115.094 Y84.989 E1.4702
G1 X115.105 Y85.001 E1.4708
G1 X115.691 Y85.655 E1.5015
G1 X115.701 Y85.668 E1.5020
G1 X115.729 Y85.703 E1.5036
G1 X115.985 Y85.361 E1.5185
G1 X115.995 Y85.349 E1.5191
G1 X116.125 Y85.190 E1.5262
G1 X116.135 Y85.179 E1.5268
G1 X116.592 Y84.675 E1.5505
G1 X116.603 Y84.664 E1.5510
G1 X116.748 Y84.519 E1.5582
G1 X116.759 Y84.509 E1.5587
G1 X117.262 Y84.051 E1.5825
G1 X117.273 Y84.041 E1.5830
G1 X117.431 Y83.910 E1.5902
G1 X117.443 Y83.901 E1.5907
G1 X117.988 Y83.492 E1.6145
G1 X118.000 Y83.484 E1.6150
G1 X118.170 Y83.368 E1.6222
G1 X118.182 Y83.360 E1.6227
G1 X118.763 Y83.006 E1.6465
G1 X118.776 Y82.998 E1.6470
G1 X118.956 Y82.899 E1.6542
G1 X118.969 Y82.893 E1.6547
G1 X119.581 Y82.595 E1.6785
G1 X119.595 Y82.588 E1.6790
G1 X119.784 Y82.507 E1.6861
G1 X119.798 Y82.502 E1.6867
G1 X120.435 Y82.263 E1.7104
G1 X120.449 Y82.258 E1.7110
G1 X120.644 Y82.196 E1.7181
G1 X120.659 Y82.191 E1.7186
G1 X121.316 Y82.014 E1.7424
G1 X121.331 Y82.011 E1.7429
G1 X121.531 Y81.967 E1.7501
G1 X121.546 Y81.964 E1.7506
G1 X122.217 Y81.850 E1.7744
G1 X122.232 Y81.848 E1.7749
G1 X122.435 Y81.824 E1.7821
G1 X122.450 Y81.822 E1.7826
G1 X123.137 Y81.772 E1.8067
G1 X123.153 Y81.771 E1.8072
G1 X123.361 Y81.766 E1.8145
G1 X123.376 Y81.766 E1.8150
G1 X124.058 Y81.782 E1.8388
G1 X124.073 Y81.783 E1.8394
G1 X124.278 Y81.798 E1.8465
G1 X124.293 Y81.799 E1.8470
G1 X124.960 Y81.879 E1.8705
G1 X124.975 Y81.881 E1.8710
G1 X125.174 Y81.914 E1.8781
G1 X125.189 Y81.917 E1.8786
G1 X125.853 Y82.060 E1.9023
G1 X125.867 Y82.064 E1.9029
G1 X126.066 Y82.117 E1.9100
G1 X126.080 Y82.121 E1.9106
G1 X126.729 Y82.327 E1.9343
G1 X126.743 Y82.332 E1.9348
G1 X126.935 Y82.403 E1.9420
G1 X126.949 Y82.409 E1.9425
G1 X127.575 Y82.676 E1.9663
G1 X127.589 Y82.682 E1.9668
G1 X127.774 Y82.771 E1.9740
G1 X127.787 Y82.778 E1.9745
G1 X128.385 Y83.103 E1.9983
G1 X128.398 Y83.111 E1.9988
G1 X128.573 Y83.217 E2.0060
G1 X128.586 Y83.225 E2.0065
G1 X129.150 Y83.606 E2.0303
G1 X129.163 Y83.614 E2.0308
G1 X129.327 Y83.737 E2.0380
G1 X129.339 Y83.746 E2.0385
G1 X129.865 Y84.178 E2.0623
G1 X129.876 Y84.188 E2.0628
G1 X130.028 Y84.326 E2.0700
G1 X130.039 Y84.336 E2.0705
G1 X130.521 Y84.817 E2.0942
G1 X130.532 Y84.827 E2.0948
G1 X130.670 Y84.979 E2.1019
G1 X130.680 Y84.990 E2.1025
G1 X131.114 Y85.514 E2.1262
G1 X131.124 Y85.526 E2.1267
G1 X131.247 Y85.690 E2.1339
G1 X131.256 Y85.702 E2.1344
G1 X131.639 Y86.265 E2.1582
G1 X131.647 Y86.277 E2.1587
G1 X131.754 Y86.452 E2.1659
G1 X131.762 Y86.465 E2.1664
G1 X132.089 Y87.062 E2.1902
G1 X132.096 Y87.075 E2.1907
G1 X132.186 Y87.260 E2.1979
G1 X132.192 Y87.273 E2.1984
G1 X132.462 Y87.899 E2.2222
G1 X132.468 Y87.913 E2.2227
G1 X132.541 Y88.108 E2.2300
G1 X132.546 Y88.122 E2.2305
G1 X132.801 Y88.918 E2.2597
G1 X132.817 Y88.954 E2.2611
G1 X132.833 Y88.984 E2.2623
G1 X132.852 Y89.012 E2.2635
G1 X132.874 Y89.039 E2.2647
G1 X132.897 Y89.063 E2.2658
G1 X132.923 Y89.085 E2.2670
G1 X132.951 Y89.105 E2.2682
G1 X132.981 Y89.121 E2.2694
G1 X133.012 Y89.135 E2.2706
G1 X133.044 Y89.146 E2.2718
G1 X133.077 Y89.154 E2.2730
G1 X133.111 Y89.159 E2.2742
G1 X133.250 Y89.166 E2.2790
G1 X143.903 Y89.166 E2.6511
G1 X143.914 Y89.166 E2.6515
G1 X144.067 Y89.172 E2.6568
G1 X144.079 Y89.172 E2.6572
G1 X144.591 Y89.209 E2.6752
G1 X144.613 Y89.211 E2.6759
G1 X144.918 Y89.255 E2.6867
G1 X144.940 Y89.259 E2.6874
G1 X145.520 Y89.384 E2.7082
G1 X145.542 Y89.390 E2.7090
G1 X145.838 Y89.477 E2.7197
G1 X145.859 Y89.484 E2.7205
G1 X146.416 Y89.691 E2.7413
G1 X146.437 Y89.700 E2.7421
G1 X146.718 Y89.828 E2.7528
G1 X146.738 Y89.838 E2.7536
G1 X147.260 Y90.122 E2.7744
G1 X147.279 Y90.134 E2.7752
G1 X147.539 Y90.301 E2.7860
G1 X147.557 Y90.314 E2.7867
G1 X148.094 Y90.716 E2.8102
G1 X148.120 Y90.737 E2.8113
G1 X148.458 Y91.051 E2.8275
G1 X148.481 Y91.076 E2.8286
G1 X149.153 Y91.849 E2.8644
G1 X149.174 Y91.876 E2.8656
G1 X149.436 Y92.252 E2.8816
G1 X149.453 Y92.280 E2.8828
G1 X149.776 Y92.867 E2.9061
G1 X149.786 Y92.887 E2.9069
G1 X149.915 Y93.168 E2.9177
G1 X149.923 Y93.188 E2.9185
G1 X150.132 Y93.745 E2.9392
G1 X150.139 Y93.766 E2.9400
G1 X150.227 Y94.062 E2.9508
G1 X150.233 Y94.084 E2.9516
G1 X150.360 Y94.664 E2.9724
G1 X150.364 Y94.687 E2.9731
G1 X150.409 Y94.992 E2.9839
G1 X150.411 Y95.014 E2.9847
G1 X150.449 Y95.532 E3.0028
G1 X150.450 Y95.544 E3.0032
G1 X150.456 Y95.702 E3.0088
G1 X150.456 Y95.713 E3.0092
G1 X150.456 Y106.073 E3.3710
G1 X150.456 Y106.084 E3.3713
G1 X150.451 Y106.237 E3.3767
G1 X150.450 Y106.248 E3.3771
G1 X150.413 Y106.761 E3.3950
G1 X150.411 Y106.783 E3.3958
G1 X150.368 Y107.087 E3.4065
G1 X150.364 Y107.109 E3.4073
G1 X150.238 Y107.689 E3.4281
G1 X150.232 Y107.711 E3.4288
G1 X150.146 Y108.007 E3.4396
G1 X150.138 Y108.029 E3.4404
G1 X149.931 Y108.586 E3.4612
G1 X149.923 Y108.607 E3.4620
G1 X149.794 Y108.887 E3.4727
G1 X149.784 Y108.908 E3.4735
G1 X149.500 Y109.430 E3.4943
G1 X149.488 Y109.449 E3.4951
G1 X149.321 Y109.709 E3.5059
G1 X149.308 Y109.727 E3.5066
G1 X148.907 Y110.264 E3.5301
G1 X148.885 Y110.290 E3.5312
G1 X148.571 Y110.628 E3.5474
G1 X148.547 Y110.651 E3.5485
G1 X147.773 Y111.323 E3.5843
G1 X147.746 Y111.343 E3.5855
G1 X147.370 Y111.605 E3.6015
G1 X147.342 Y111.623 E3.6027
G1 X146.755 Y111.945 E3.6260
G1 X146.735 Y111.955 E3.6268
G1 X146.455 Y112.084 E3.6376
G1 X146.434 Y112.093 E3.6384
G1 X145.878 Y112.302 E3.6591
G1 X145.856 Y112.309 E3.6599
G1 X145.560 Y112.397 E3.6707
G1 X145.538 Y112.403 E3.6715
G1 X144.958 Y112.530 E3.6923
G1 X144.936 Y112.534 E3.6930
G1 X144.630 Y112.579 E3.7038
G1 X144.608 Y112.581 E3.7046
G1 X144.090 Y112.619 E3.7227
G1 X144.079 Y112.620 E3.7231
G1 X143.920 Y112.626 E3.7287
G1 X143.909 Y112.626 E3.7291
G1 X120.750 Y112.626 E4.5379
G1 X120.738 Y112.626 E4.5383
G1 X120.585 Y112.620 E4.5436
G1 X120.574 Y112.620 E4.5440
G1 X120.061 Y112.583 E4.5619
G1 X120.039 Y112.581 E4.5627
G1 X119.735 Y112.537 E4.5735
G1 X119.713 Y112.533 E4.5742
G1 X119.133 Y112.408 E4.5950
G1 X119.111 Y112.402 E4.5958
G1 X118.815 Y112.315 E4.6065
G1 X118.793 Y112.308 E4.6073
G1 X118.236 Y112.101 E4.6281
G1 X118.215 Y112.092 E4.6289
G1 X117.935 Y111.964 E4.6396
G1 X117.915 Y111.954 E4.6404
G1 X117.393 Y111.670 E4.6612
G1 X117.373 Y111.658 E4.6620
G1 X117.113 Y111.491 E4.6728
G1 X117.095 Y111.478 E4.6735
G1 X116.558 Y111.076 E4.6970
G1 X116.532 Y111.055 E4.6982
G1 X116.194 Y110.741 E4.7143
G1 X116.171 Y110.716 E4.7154
G1 X115.499 Y109.943 E4.7512
G1 X115.479 Y109.916 E4.7524
G1 X115.217 Y109.540 E4.7684
G1 X115.199 Y109.512 E4.7696
G1 X114.877 Y108.925 E4.7929
G1 X114.867 Y108.905 E4.7937
G1 X114.738 Y108.624 E4.8045
G1 X114.729 Y108.604 E4.8053
G1 X114.520 Y108.047 E4.8260
G1 X114.513 Y108.026 E4.8268
G1 X114.425 Y107.730 E4.8376
G1 X114.420 Y107.708 E4.8384
G1 X114.292 Y107.128 E4.8592
G1 X114.288 Y107.106 E4.8599
G1 X114.244 Y106.800 E4.8707
G1 X114.241 Y106.778 E4.8715
G1 X114.203 Y106.260 E4.8896
G1 X114.202 Y106.248 E4.8900
G1 X114.197 Y106.090 E4.8956
G1 X114.196 Y106.079 E4.8960
G1 X114.196 Y100.708 E5.0835
G1 X113.946 Y100.917 E5.0949
G1 X113.933 Y100.927 E5.0955
G1 X113.748 Y101.065 E5.1036
G1 X113.734 Y101.075 E5.1042
G1 X113.004 Y101.563 E5.1348
G1 X112.989 Y101.572 E5.1354
G1 X112.791 Y101.689 E5.1435
G1 X112.776 Y101.698 E5.1441
G1 X111.998 Y102.104 E5.1748
G1 X111.983 Y102.112 E5.1753
G1 X111.772 Y102.207 E5.1834
G1 X111.757 Y102.214 E5.1840
G1 X110.940 Y102.535 E5.2147
G1 X110.924 Y102.541 E5.2152
G1 X110.705 Y102.614 E5.2233
G1 X110.689 Y102.619 E5.2239
G1 X109.842 Y102.851 E5.2546
G1 X109.826 Y102.855 E5.2552
G1 X109.600 Y102.904 E5.2632
G1 X109.583 Y102.907 E5.2638
G1 X108.728 Y103.045 E5.2941
G1 X108.713 Y103.047 E5.2946
G1 X108.507 Y103.071 E5.3018
G1 X108.492 Y103.072 E5.3024
G1 X105.225 Y103.282 E5.4167
G1 X105.225 Y111.009 E5.6866
G1 X105.304 Y110.995 E5.6894
G1 X105.319 Y110.993 E5.6899
G1 X106.247 Y110.870 E5.7226
G1 X106.262 Y110.868 E5.7231
G1 X106.460 Y110.851 E5.7301
G1 X106.474 Y110.850 E5.7306
G1 X107.410 Y110.813 E5.7633
G1 X107.425 Y110.813 E5.7638
G1 X107.624 Y110.814 E5.7707
G1 X107.639 Y110.814 E5.7712
G1 X108.575 Y110.863 E5.8040
G1 X108.589 Y110.865 E5.8045
G1 X108.789 Y110.884 E5.8115
G1 X108.804 Y110.886 E5.8120
G1 X109.737 Y111.023 E5.8450
G1 X109.752 Y111.025 E5.8455
G1 X109.947 Y111.063 E5.8524
G1 X109.961 Y111.066 E5.8529
G1 X110.871 Y111.287 E5.8856
G1 X110.885 Y111.290 E5.8861
G1 X111.074 Y111.346 E5.8930
G1 X111.088 Y111.350 E5.8935
G1 X111.968 Y111.651 E5.9260
G1 X111.982 Y111.656 E5.9265
G1 X112.167 Y111.729 E5.9335
G1 X112.181 Y111.734 E5.9340
G1 X113.114 Y112.153 E5.9697
G1 X113.138 Y112.165 E5.9706
G1 X113.460 Y112.344 E5.9835
