; G-Code generated by Simplify3D(R) Version 4.0.0
; Aug 18, 2017 at 2:56:46 PM
; Settings Summary
;   processName,Process1
;   applyToModels,DIY_PSU_Cover(2)(2)
;   profileName,XL PRUSA
;   profileVersion,2017-08-18 11:29:24
;   baseProfile,Default (modified)
;   printMaterial,ABS
;   printQuality,Medium
;   printExtruders,
;   extruderName,Primary Extruder
;   extruderToolheadNumber,0
;   extruderDiameter,0.5
;   extruderAutoWidth,0
;   extruderWidth,0.54
;   extrusionMultiplier,1
;   extruderUseRetract,1
;   extruderRetractionDistance,1.4
;   extruderExtraRestartDistance,0
;   extruderRetractionZLift,0
;   extruderRetractionSpeed,3000
;   extruderUseCoasting,0
;   extruderCoastingDistance,0.2
;   extruderUseWipe,0
;   extruderWipeDistance,5
;   primaryExtruder,0
;   layerHeight,0.2
;   topSolidLayers,3
;   bottomSolidLayers,3
;   perimeterOutlines,3
;   printPerimetersInsideOut,1
;   startPointOption,2
;   startPointOriginX,0
;   startPointOriginY,0
;   sequentialIslands,0
;   spiralVaseMode,0
;   firstLayerHeightPercentage,100
;   firstLayerWidthPercentage,100
;   firstLayerUnderspeed,0.6
;   useRaft,0
;   raftExtruder,0
;   raftTopLayers,3
;   raftBaseLayers,2
;   raftOffset,3
;   raftSeparationDistance,0.14
;   raftTopInfill,100
;   aboveRaftSpeedMultiplier,0.3
;   useSkirt,1
;   skirtExtruder,0
;   skirtLayers,1
;   skirtOutlines,2
;   skirtOffset,4
;   usePrimePillar,0
;   primePillarExtruder,999
;   primePillarWidth,12
;   primePillarLocation,7
;   primePillarSpeedMultiplier,1
;   useOozeShield,0
;   oozeShieldExtruder,999
;   oozeShieldOffset,2
;   oozeShieldOutlines,1
;   oozeShieldSidewallShape,1
;   oozeShieldSidewallAngle,30
;   oozeShieldSpeedMultiplier,1
;   infillExtruder,0
;   internalInfillPattern,Rectilinear
;   externalInfillPattern,Rectilinear
;   infillPercentage,30
;   outlineOverlapPercentage,15
;   infillExtrusionWidthPercentage,140
;   minInfillLength,6
;   infillLayerInterval,1
;   internalInfillAngles,45,-45
;   overlapInternalInfillAngles,0
;   externalInfillAngles,45,-45
;   generateSupport,0
;   supportExtruder,0
;   supportInfillPercentage,25
;   supportExtraInflation,0
;   supportBaseLayers,0
;   denseSupportExtruder,0
;   denseSupportLayers,0
;   denseSupportInfillPercentage,70
;   supportLayerInterval,1
;   supportHorizontalPartOffset,0.5
;   supportUpperSeparationLayers,1
;   supportLowerSeparationLayers,1
;   supportType,0
;   supportGridSpacing,3
;   maxOverhangAngle,45
;   supportAngles,0
;   temperatureName,Primary Extruder,Heat Bed
;   temperatureNumber,0,0
;   temperatureSetpointCount,1,1
;   temperatureSetpointLayers,1,1
;   temperatureSetpointTemperatures,245,90
;   temperatureStabilizeAtStartup,1,1
;   temperatureHeatedBed,0,1
;   temperatureRelayBetweenLayers,0,0
;   temperatureRelayBetweenLoops,0,0
;   fanLayers,1
;   fanSpeeds,0
;   blipFanToFullPower,0
;   adjustSpeedForCooling,1
;   minSpeedLayerTime,20
;   minCoolingSpeedSlowdown,40
;   increaseFanForCooling,0
;   minFanLayerTime,45
;   maxCoolingFanSpeed,100
;   increaseFanForBridging,0
;   bridgingFanSpeed,100
;   use5D,1
;   relativeEdistances,0
;   allowEaxisZeroing,1
;   independentExtruderAxes,0
;   includeM10123,0
;   stickySupport,1
;   applyToolheadOffsets,0
;   gcodeXoffset,0
;   gcodeYoffset,0
;   gcodeZoffset,0
;   overrideMachineDefinition,1
;   machineTypeOverride,0
;   strokeXoverride,240
;   strokeYoverride,260
;   strokeZoverride,200
;   originOffsetXoverride,0
;   originOffsetYoverride,0
;   originOffsetZoverride,0
;   homeXdirOverride,-1
;   homeYdirOverride,-1
;   homeZdirOverride,-1
;   flipXoverride,1
;   flipYoverride,-1
;   flipZoverride,1
;   toolheadOffsets,0,0|0,0|0,0|0,0|0,0|0,0
;   overrideFirmwareConfiguration,0
;   firmwareTypeOverride,RepRap (Marlin/Repetier/Sprinter)
;   GPXconfigOverride,r2
;   baudRateOverride,115200
;   overridePrinterModels,0
;   printerModelsOverride
;   startingGcode,M80 ;,G28 ; home all axes,G29 L1 ;,G29 A ;,,,
;   layerChangeGcode,
;   retractionGcode,
;   toolChangeGcode,
;   endingGcode,G91 ;,G1 Z5 ;,G28 X ;,M104 S0 ; turn off extruder,M140 S0 ; turn off bed,M84 ; disable motors,M81 ;,
;   exportFileFormat,gcode
;   celebration,0
;   celebrationSong,Random Song
;   postProcessing,
;   defaultSpeed,2700
;   outlineUnderspeed,0.75
;   solidInfillUnderspeed,0.75
;   supportUnderspeed,1
;   rapidXYspeed,4800
;   rapidZspeed,1200
;   minBridgingArea,5
;   bridgingExtraInflation,0
;   bridgingExtrusionMultiplier,1
;   bridgingSpeedMultiplier,0.6
;   useFixedBridgingAngle,1
;   fixedBridgingAngle,90
;   applyBridgingToPerimeters,1
;   filamentDiameters,1.75|1.69|1.69|1.69|1.69|1.69
;   filamentPricesPerKg,153|153|153|153|153|153
;   filamentDensities,1.06|1.06|1.06|1.06|1.06|1.06
;   useMinPrintHeight,0
;   minPrintHeight,0
;   useMaxPrintHeight,0
;   maxPrintHeight,0
;   useDiaphragm,0
;   diaphragmLayerInterval,20
;   robustSlicing,1
;   mergeAllIntoSolid,0
;   onlyRetractWhenCrossingOutline,1
;   retractBetweenLayers,1
;   useRetractionMinTravel,0
;   retractionMinTravel,3
;   retractWhileWiping,0
;   onlyWipeOutlines,1
;   avoidCrossingOutline,0
;   maxMovementDetourFactor,3
;   toolChangeRetractionDistance,12
;   toolChangeExtraRestartDistance,-0.5
;   toolChangeRetractionSpeed,12
;   externalThinWallType,1
;   internalThinWallType,2
;   thinWallAllowedOverlapPercentage,50
;   singleExtrusionMinLength,1
;   singleExtrusionMinPrintingWidthPercentage,50
;   singleExtrusionMaxPrintingWidthPercentage,200
;   singleExtrusionEndpointExtension,0.2
;   horizontalSizeCompensation,0
G90
M82
M106 S0
M140 S90
M190 S90
M104 S245 T0
M109 S245 T0
M80 ;
G28 ; home all axes
G29 L1 ;
G29 A ;
G92 E0
G1 E-1.4000 F3000
G1 Z0.200 F1200
; process Process1
; layer 1, Z = 0.200
T0
; tool H0.200 W0.540
; skirt
G1 X95.111 Y83.407 F4800
G1 E0.0000 F900
G92 E0
G1 X97.686 Y80.814 E0.1641 F1620
G1 X97.985 Y80.690 E0.1786
G1 X150.014 Y80.690 E2.5148
G1 X150.313 Y80.814 E2.5293
G1 X152.887 Y83.403 E2.6932
G1 X153.009 Y83.703 E2.7077
G1 X152.867 Y107.752 E3.7876
G1 X153.002 Y129.084 E4.7455
G1 X153.002 Y129.086 E4.7455
G1 X153.002 Y129.108 E4.7465
G1 X153.002 Y129.110 E4.7466
G1 X152.998 Y130.250 E4.7978
G1 X152.995 Y130.292 E4.7997
G1 X152.947 Y130.744 E4.8201
G1 X152.940 Y130.785 E4.8220
G1 X152.757 Y131.644 E4.8614
G1 X152.746 Y131.687 E4.8634
G1 X152.596 Y132.141 E4.8849
G1 X152.580 Y132.182 E4.8868
G1 X144.857 Y149.162 E5.7244
G1 X137.360 Y165.962 E6.5504
G1 X129.654 Y183.555 E7.4129
G1 X129.566 Y183.682 E7.4198
G1 X128.358 Y184.871 E7.4959
G1 X128.230 Y184.957 E7.5028
G1 X127.538 Y185.247 E7.5365
G1 X126.913 Y185.699 E7.5712
G1 X126.797 Y185.758 E7.5770
G1 X125.448 Y186.186 E7.6405
G1 X125.320 Y186.205 E7.6463
G1 X114.675 Y186.086 E8.1244
G1 X100.336 Y186.201 E8.7682
G1 X100.244 Y186.192 E8.7724
G1 X99.263 Y185.973 E8.8175
G1 X99.176 Y185.943 E8.8216
G1 X97.923 Y185.343 E8.8840
G1 X97.852 Y185.299 E8.8878
G1 X97.124 Y184.741 E8.9290
G1 X97.063 Y184.683 E8.9327
G1 X95.642 Y183.028 E9.0307
G1 X95.569 Y182.902 E9.0372
G1 X95.021 Y181.406 E9.1087
G1 X94.996 Y181.263 E9.1152
G1 X95.133 Y161.484 E10.0034
G1 X95.133 Y104.516 E12.5613
G1 X94.989 Y83.706 E13.4957
G1 X95.111 Y83.407 E13.5102
G1 X95.571 Y83.711 F4800
G92 E0
G1 X97.993 Y81.271 E0.1544 F1620
G1 X98.093 Y81.230 E0.1592
G1 X149.906 Y81.230 E2.4857
G1 X150.006 Y81.271 E2.4905
G1 X152.428 Y83.708 E2.6448
G1 X152.468 Y83.808 E2.6496
G1 X152.327 Y107.753 E3.7248
G1 X152.462 Y129.087 E4.6828
G1 X152.462 Y129.108 E4.6837
G1 X152.458 Y130.234 E4.7342
G1 X152.457 Y130.248 E4.7348
G1 X152.411 Y130.673 E4.7540
G1 X152.409 Y130.686 E4.7546
G1 X152.232 Y131.517 E4.7928
G1 X152.228 Y131.532 E4.7934
G1 X152.088 Y131.958 E4.8136
G1 X152.082 Y131.972 E4.8143
G1 X144.365 Y148.941 E5.6513
G1 X136.866 Y165.743 E6.4775
G1 X129.180 Y183.291 E7.3377
G1 X129.151 Y183.334 E7.3400
G1 X128.016 Y184.450 E7.4114
G1 X127.973 Y184.479 E7.4138
G1 X127.272 Y184.773 E7.4479
G1 X126.631 Y185.237 E7.4834
G1 X126.593 Y185.256 E7.4854
G1 X125.326 Y185.658 E7.5450
G1 X125.283 Y185.665 E7.5470
G1 X114.676 Y185.546 E8.0233
G1 X100.362 Y185.661 E8.6660
G1 X100.332 Y185.658 E8.6674
G1 X99.410 Y185.453 E8.7098
G1 X99.381 Y185.442 E8.7112
G1 X98.182 Y184.868 E8.7709
G1 X98.158 Y184.853 E8.7721
G1 X97.475 Y184.329 E8.8108
G1 X97.454 Y184.310 E8.8120
G1 X96.084 Y182.713 E8.9066
G1 X96.059 Y182.671 E8.9087
G1 X95.545 Y181.266 E8.9759
G1 X95.537 Y181.218 E8.9781
G1 X95.673 Y161.487 E9.8641
G1 X95.673 Y104.513 E12.4223
G1 X95.530 Y83.811 E13.3518
G1 X95.571 Y83.711 E13.3567
G92 E0
G1 E-1.4000 F3000
; inner perimeter
G1 X101.163 Y86.850 F4800
G1 E0.0000 F3000
G92 E0
G1 X146.830 Y86.850 E2.0505 F1417
G1 X146.707 Y107.753 E2.9891
G1 X146.842 Y129.106 E3.9479
G1 X146.839 Y129.861 E3.9818
G1 X146.813 Y129.983 E3.9874
G1 X139.240 Y146.632 E4.8087
G1 X131.725 Y163.472 E5.6367
G1 X124.575 Y179.810 E6.4375
G1 X124.502 Y179.840 E6.4410
G1 X124.236 Y180.033 E6.4557
G1 X114.685 Y179.926 E6.8846
G1 X101.165 Y180.035 E7.4917
G1 X101.293 Y161.504 E8.3238
G1 X101.293 Y104.496 E10.8835
G1 X101.163 Y86.850 E11.6758
G1 X100.619 Y86.310 F4800
G92 E0
G1 X147.374 Y86.310 E2.0994 F1417
G1 X147.247 Y107.753 E3.0622
G1 X147.382 Y129.105 E4.0209
G1 X147.379 Y129.919 E4.0575
G1 X147.329 Y130.153 E4.0682
G1 X139.733 Y146.854 E4.8920
G1 X132.219 Y163.691 E5.7199
G1 X124.983 Y180.224 E6.5303
G1 X124.768 Y180.314 E6.5407
G1 X124.408 Y180.575 E6.5606
G1 X114.684 Y180.466 E6.9973
G1 X100.981 Y180.576 E7.6126
G1 X100.910 Y180.542 E7.6161
G1 X100.624 Y180.222 E7.6354
G1 X100.753 Y161.502 E8.4760
G1 X100.753 Y104.498 E11.0356
G1 X100.619 Y86.310 E11.8522
; outer perimeter
G1 X100.078 Y86.270 F4800
G92 E0
G1 X100.080 Y85.770 E0.0224 F1215
G1 X147.917 Y85.770 E2.1703
G1 X147.787 Y107.753 E3.1574
G1 X147.922 Y129.104 E4.1161
G1 X147.918 Y129.976 E4.1553
G1 X147.845 Y130.323 E4.1712
G1 X140.225 Y147.076 E4.9976
G1 X132.713 Y163.909 E5.8252
G1 X125.391 Y180.639 E6.6452
G1 X125.034 Y180.788 E6.6626
G1 X124.581 Y181.117 E6.6877
G1 X114.683 Y181.006 E7.1322
G1 X100.860 Y181.117 E7.7529
G1 X100.580 Y180.983 E7.7668
G1 X100.082 Y180.427 E7.8003
G1 X100.213 Y161.500 E8.6502
G1 X100.213 Y104.500 E11.2096
G1 X100.078 Y86.269 E12.0281
; inner perimeter
G1 X108.656 Y91.569 F4800
G92 E0
G1 X108.270 Y92.501 E0.0453 F1417
G1 X108.150 Y93.412 E0.0865
G1 X108.150 Y97.588 E0.2741
G1 X108.270 Y98.499 E0.3153
G1 X108.656 Y99.431 E0.3606
G1 X109.269 Y100.231 E0.4059
G1 X110.069 Y100.844 E0.4511
G1 X111.001 Y101.230 E0.4964
G1 X112.000 Y101.362 E0.5417
G1 X112.999 Y101.230 E0.5869
G1 X113.931 Y100.844 E0.6322
G1 X114.731 Y100.231 E0.6774
G1 X115.344 Y99.431 E0.7227
G1 X115.730 Y98.499 E0.7680
G1 X115.850 Y97.588 E0.8092
G1 X115.850 Y93.412 E0.9968
G1 X115.730 Y92.500 E1.0380
G1 X115.344 Y91.569 E1.0833
G1 X114.731 Y90.769 E1.1286
G1 X113.931 Y90.156 E1.1738
G1 X112.999 Y89.770 E1.2191
G1 X112.000 Y89.638 E1.2644
G1 X111.001 Y89.770 E1.3096
G1 X110.069 Y90.156 E1.3549
G1 X109.269 Y90.769 E1.4002
G1 X108.656 Y91.569 E1.4454
G1 X109.127 Y91.841 F4800
G92 E0
G1 X108.796 Y92.641 E0.0389 F1417
G1 X108.690 Y93.447 E0.0754
G1 X108.690 Y97.553 E0.2597
G1 X108.796 Y98.359 E0.2962
G1 X109.127 Y99.159 E0.3351
G1 X109.655 Y99.845 E0.3740
G1 X110.341 Y100.373 E0.4128
G1 X111.141 Y100.704 E0.4517
G1 X112.000 Y100.817 E0.4906
G1 X112.859 Y100.704 E0.5295
G1 X113.659 Y100.373 E0.5684
G1 X114.345 Y99.845 E0.6072
G1 X114.873 Y99.159 E0.6461
G1 X115.204 Y98.359 E0.6850
G1 X115.310 Y97.553 E0.7215
G1 X115.310 Y93.447 E0.9059
G1 X115.204 Y92.641 E0.9423
G1 X114.873 Y91.841 E0.9812
G1 X114.345 Y91.155 E1.0201
G1 X113.659 Y90.627 E1.0590
G1 X112.859 Y90.296 E1.0979
G1 X112.000 Y90.183 E1.1367
G1 X111.141 Y90.296 E1.1756
G1 X110.341 Y90.627 E1.2145
G1 X109.655 Y91.155 E1.2534
G1 X109.127 Y91.841 E1.2923
; outer perimeter
G1 X109.599 Y92.114 F4800
G92 E0
G1 X109.322 Y92.782 E0.0325 F1215
G1 X109.230 Y93.482 E0.0642
G1 X109.230 Y97.518 E0.2454
G1 X109.322 Y98.218 E0.2771
G1 X109.599 Y98.886 E0.3096
G1 X110.040 Y99.460 E0.3421
G1 X110.614 Y99.901 E0.3746
G1 X111.282 Y100.178 E0.4071
G1 X112.000 Y100.272 E0.4396
G1 X112.718 Y100.178 E0.4721
G1 X113.386 Y99.901 E0.5046
G1 X113.960 Y99.460 E0.5370
G1 X114.401 Y98.886 E0.5695
G1 X114.678 Y98.218 E0.6020
G1 X114.770 Y97.518 E0.6337
G1 X114.770 Y93.482 E0.8149
G1 X114.678 Y92.782 E0.8466
G1 X114.401 Y92.114 E0.8791
G1 X113.960 Y91.540 E0.9116
G1 X113.386 Y91.099 E0.9441
G1 X112.718 Y90.822 E0.9766
G1 X112.000 Y90.728 E1.0091
G1 X111.282 Y90.822 E1.0416
G1 X110.614 Y91.099 E1.0741
G1 X110.040 Y91.540 E1.1066
G1 X109.599 Y92.114 E1.1391
G92 E0
G1 E-1.4000 F3000
; inner perimeter
G1 X133.150 Y93.412 F4800
G1 E0.0000 F3000
G92 E0
G1 X133.150 Y97.588 E0.1875 F1417
G1 X133.270 Y98.499 E0.2288
G1 X133.656 Y99.431 E0.2741
G1 X134.269 Y100.231 E0.3193
G1 X135.069 Y100.844 E0.3646
G1 X136.001 Y101.230 E0.4099
G1 X137.000 Y101.362 E0.4551
G1 X137.999 Y101.230 E0.5004
G1 X138.931 Y100.844 E0.5457
G1 X139.731 Y100.231 E0.5909
G1 X140.344 Y99.431 E0.6362
G1 X140.730 Y98.499 E0.6815
G1 X140.850 Y97.589 E0.7227
G1 X140.850 Y93.411 E0.9103
G1 X140.730 Y92.501 E0.9515
G1 X140.344 Y91.569 E0.9968
G1 X139.731 Y90.769 E1.0420
G1 X138.931 Y90.156 E1.0873
G1 X137.999 Y89.770 E1.1326
G1 X137.000 Y89.638 E1.1778
G1 X136.000 Y89.770 E1.2231
G1 X135.069 Y90.156 E1.2684
G1 X134.269 Y90.769 E1.3136
G1 X133.656 Y91.569 E1.3589
G1 X133.270 Y92.501 E1.4042
G1 X133.150 Y93.412 E1.4454
G1 X133.690 Y93.447 F4800
G92 E0
G1 X133.690 Y97.553 E0.1844 F1417
G1 X133.796 Y98.359 E0.2208
G1 X134.127 Y99.158 E0.2597
G1 X134.655 Y99.845 E0.2986
G1 X135.341 Y100.373 E0.3375
G1 X136.141 Y100.704 E0.3764
G1 X137.000 Y100.817 E0.4152
G1 X137.858 Y100.704 E0.4541
G1 X138.659 Y100.373 E0.4930
G1 X139.345 Y99.845 E0.5319
G1 X139.873 Y99.159 E0.5708
G1 X140.204 Y98.358 E0.6097
G1 X140.310 Y97.553 E0.6461
G1 X140.310 Y93.447 E0.8305
G1 X140.204 Y92.642 E0.8670
G1 X139.873 Y91.841 E0.9059
G1 X139.345 Y91.155 E0.9447
G1 X138.659 Y90.627 E0.9836
G1 X137.859 Y90.296 E1.0225
G1 X137.000 Y90.183 E1.0614
G1 X136.141 Y90.296 E1.1003
G1 X135.341 Y90.627 E1.1391
G1 X134.655 Y91.155 E1.1780
G1 X134.127 Y91.842 E1.2169
G1 X133.796 Y92.641 E1.2558
G1 X133.690 Y93.447 E1.2923
; outer perimeter
G1 X134.230 Y93.482 F4800
G92 E0
G1 X134.230 Y97.518 E0.1812 F1215
G1 X134.322 Y98.218 E0.2129
G1 X134.599 Y98.886 E0.2454
G1 X135.040 Y99.460 E0.2779
G1 X135.614 Y99.901 E0.3104
G1 X136.282 Y100.178 E0.3429
G1 X137.000 Y100.272 E0.3754
G1 X137.718 Y100.178 E0.4079
G1 X138.386 Y99.901 E0.4404
G1 X138.960 Y99.460 E0.4729
G1 X139.401 Y98.886 E0.5054
G1 X139.678 Y98.217 E0.5378
G1 X139.770 Y97.518 E0.5695
G1 X139.770 Y93.482 E0.7507
G1 X139.678 Y92.782 E0.7824
G1 X139.401 Y92.114 E0.8149
G1 X138.960 Y91.540 E0.8474
G1 X138.386 Y91.099 E0.8799
G1 X137.718 Y90.822 E0.9124
G1 X137.000 Y90.728 E0.9449
G1 X136.282 Y90.822 E0.9774
G1 X135.614 Y91.099 E1.0099
G1 X135.040 Y91.540 E1.0424
G1 X134.599 Y92.114 E1.0749
G1 X134.322 Y92.782 E1.1074
G1 X134.230 Y93.482 E1.1391
G92 E0
G1 E-1.4000 F3000
; solid layer
G1 X140.220 Y90.654 F4800
G1 E0.0000 F3000
G92 E0
G1 X146.313 Y96.746 E0.3869 F1215
G1 X146.308 Y97.505 E0.4210
G1 X141.173 Y92.370 E0.7471
G1 X141.177 Y92.381 E0.7476
G1 X141.292 Y93.253 E0.7871
G1 X146.304 Y98.265 E1.1054
G1 X146.300 Y99.024 E1.1395
G1 X141.309 Y94.033 E1.4564
G1 X141.309 Y94.797 E1.4907
G1 X146.295 Y99.783 E1.8073
G1 X146.291 Y100.542 E1.8414
G1 X141.309 Y95.561 E2.1577
G1 X141.309 Y96.324 E2.1920
G1 X146.286 Y101.301 E2.5080
G1 X146.282 Y102.061 E2.5421
G1 X141.309 Y97.088 E2.8579
G1 X141.309 Y97.619 E2.8817
G1 X141.282 Y97.825 E2.8910
G1 X146.277 Y102.820 E3.2082
G1 X146.273 Y103.579 E3.2423
G1 X141.193 Y98.499 E3.5649
G1 X141.177 Y98.619 E3.5703
G1 X140.993 Y99.063 E3.5919
G1 X146.268 Y104.338 E3.9268
G1 X146.264 Y105.097 E3.9609
G1 X140.770 Y99.603 E4.3098
G1 X140.745 Y99.662 E4.3127
G1 X140.450 Y100.047 E4.3345
G1 X146.259 Y105.857 E4.7034
G1 X146.255 Y106.616 E4.7374
G1 X140.118 Y100.479 E5.1271
G1 X140.058 Y100.558 E5.1316
G1 X139.704 Y100.829 E5.1516
G1 X146.250 Y107.375 E5.5672
G1 X146.248 Y107.754 E5.5842
G1 X146.250 Y108.139 E5.6015
