; G-Code generated by Simplify3D(R) Version 4.0.0
; Oct 4, 2017 at 9:29:32 AM
; Settings Summary
;   processName,Process1
;   applyToModels,Birdnose,Birdnose(2),Birdnose(3),Birdnose(4),Birdnose(5),Birdnose(6),Birdnose(7),Birdnose(8),Birdnose(9)
;   profileName,XL PRUSA (modified)
;   profileVersion,2017-06-01 14:40:51
;   baseProfile,Default (modified)
;   printMaterial,ABS
;   printQuality,Medium
;   printExtruders,
;   extruderName,Primary Extruder
;   extruderToolheadNumber,0
;   extruderDiameter,0.7
;   extruderAutoWidth,0
;   extruderWidth,0.74
;   extrusionMultiplier,1
;   extruderUseRetract,1
;   extruderRetractionDistance,1.4
;   extruderExtraRestartDistance,0
;   extruderRetractionZLift,0
;   extruderRetractionSpeed,3000
;   extruderUseCoasting,0
;   extruderCoastingDistance,0.2
;   extruderUseWipe,0
;   extruderWipeDistance,5
;   primaryExtruder,0
;   layerHeight,0.2
;   topSolidLayers,3
;   bottomSolidLayers,3
;   perimeterOutlines,2
;   printPerimetersInsideOut,1
;   startPointOption,2
;   startPointOriginX,0
;   startPointOriginY,0
;   sequentialIslands,0
;   spiralVaseMode,0
;   firstLayerHeightPercentage,100
;   firstLayerWidthPercentage,100
;   firstLayerUnderspeed,0.6
;   useRaft,0
;   raftExtruder,0
;   raftTopLayers,3
;   raftBaseLayers,2
;   raftOffset,3
;   raftSeparationDistance,0.14
;   raftTopInfill,100
;   aboveRaftSpeedMultiplier,0.3
;   useSkirt,1
;   skirtExtruder,0
;   skirtLayers,1
;   skirtOutlines,2
;   skirtOffset,4
;   usePrimePillar,0
;   primePillarExtruder,999
;   primePillarWidth,12
;   primePillarLocation,7
;   primePillarSpeedMultiplier,1
;   useOozeShield,0
;   oozeShieldExtruder,999
;   oozeShieldOffset,2
;   oozeShieldOutlines,1
;   oozeShieldSidewallShape,1
;   oozeShieldSidewallAngle,30
;   oozeShieldSpeedMultiplier,1
;   infillExtruder,0
;   internalInfillPattern,Rectilinear
;   externalInfillPattern,Rectilinear
;   infillPercentage,25
;   outlineOverlapPercentage,15
;   infillExtrusionWidthPercentage,140
;   minInfillLength,6
;   infillLayerInterval,1
;   internalInfillAngles,45,-45
;   overlapInternalInfillAngles,0
;   externalInfillAngles,45,-45
;   generateSupport,0
;   supportExtruder,0
;   supportInfillPercentage,25
;   supportExtraInflation,0
;   supportBaseLayers,0
;   denseSupportExtruder,0
;   denseSupportLayers,0
;   denseSupportInfillPercentage,70
;   supportLayerInterval,1
;   supportHorizontalPartOffset,0.5
;   supportUpperSeparationLayers,1
;   supportLowerSeparationLayers,1
;   supportType,0
;   supportGridSpacing,3
;   maxOverhangAngle,45
;   supportAngles,0
;   temperatureName,Primary Extruder,Heat Bed
;   temperatureNumber,0,0
;   temperatureSetpointCount,2,1
;   temperatureSetpointLayers,1,85,1
;   temperatureSetpointTemperatures,245,230,80
;   temperatureStabilizeAtStartup,1,1
;   temperatureHeatedBed,0,1
;   temperatureRelayBetweenLayers,0,0
;   temperatureRelayBetweenLoops,0,0
;   fanLayers,1
;   fanSpeeds,0
;   blipFanToFullPower,0
;   adjustSpeedForCooling,1
;   minSpeedLayerTime,10
;   minCoolingSpeedSlowdown,35
;   increaseFanForCooling,0
;   minFanLayerTime,45
;   maxCoolingFanSpeed,100
;   increaseFanForBridging,0
;   bridgingFanSpeed,100
;   use5D,1
;   relativeEdistances,0
;   allowEaxisZeroing,1
;   independentExtruderAxes,0
;   includeM10123,0
;   stickySupport,1
;   applyToolheadOffsets,0
;   gcodeXoffset,0
;   gcodeYoffset,0
;   gcodeZoffset,0
;   overrideMachineDefinition,1
;   machineTypeOverride,0
;   strokeXoverride,240
;   strokeYoverride,260
;   strokeZoverride,200
;   originOffsetXoverride,0
;   originOffsetYoverride,0
;   originOffsetZoverride,0
;   homeXdirOverride,-1
;   homeYdirOverride,-1
;   homeZdirOverride,-1
;   flipXoverride,1
;   flipYoverride,-1
;   flipZoverride,1
;   toolheadOffsets,0,0|0,0|0,0|0,0|0,0|0,0
;   overrideFirmwareConfiguration,0
;   firmwareTypeOverride,RepRap (Marlin/Repetier/Sprinter)
;   GPXconfigOverride,r2
;   baudRateOverride,115200
;   overridePrinterModels,0
;   printerModelsOverride
;   startingGcode,M80 ;,G28 ; home all axes,G29 L1 ;,G29 A ;,,,
;   layerChangeGcode,
;   retractionGcode,
;   toolChangeGcode,
;   endingGcode,G91 ;,G1 Z5 ;,G28 X ;,M104 S0 ; turn off extruder,M140 S0 ; turn off bed,M84 ; disable motors,M81 ;,
;   exportFileFormat,gcode
;   celebration,0
;   celebrationSong,Random Song
;   postProcessing,
;   defaultSpeed,2100
;   outlineUnderspeed,0.75
;   solidInfillUnderspeed,0.75
;   supportUnderspeed,1
;   rapidXYspeed,4800
;   rapidZspeed,1200
;   minBridgingArea,50
;   bridgingExtraInflation,0
;   bridgingExtrusionMultiplier,1
;   bridgingSpeedMultiplier,1
;   useFixedBridgingAngle,0
;   fixedBridgingAngle,0
;   applyBridgingToPerimeters,0
;   filamentDiameters,1.75|1.69|1.69|1.69|1.69|1.69
;   filamentPricesPerKg,153|153|153|153|153|153
;   filamentDensities,1.06|1.06|1.06|1.06|1.06|1.06
;   useMinPrintHeight,0
;   minPrintHeight,0
;   useMaxPrintHeight,0
;   maxPrintHeight,0
;   useDiaphragm,0
;   diaphragmLayerInterval,20
;   robustSlicing,1
;   mergeAllIntoSolid,0
;   onlyRetractWhenCrossingOutline,1
;   retractBetweenLayers,1
;   useRetractionMinTravel,0
;   retractionMinTravel,3
;   retractWhileWiping,0
;   onlyWipeOutlines,1
;   avoidCrossingOutline,0
;   maxMovementDetourFactor,3
;   toolChangeRetractionDistance,12
;   toolChangeExtraRestartDistance,-0.5
;   toolChangeRetractionSpeed,12
;   externalThinWallType,0
;   internalThinWallType,2
;   thinWallAllowedOverlapPercentage,10
;   singleExtrusionMinLength,1
;   singleExtrusionMinPrintingWidthPercentage,50
;   singleExtrusionMaxPrintingWidthPercentage,200
;   singleExtrusionEndpointExtension,0.2
;   horizontalSizeCompensation,0
G90
M82
M106 S0
M140 S80
M190 S80
M104 S245 T0
M109 S245 T0
M80 ;
G28 ; home all axes
G29 L1 ;
G29 A ;
G92 E0
G1 E-1.4000 F3000
G1 Z0.200 F1200
; process Process1
; layer 1, Z = 0.200
T0
; tool H0.200 W0.740
; skirt
G1 X67.114 Y67.249 F4800
G1 E0.0000 F900
G92 E0
G1 X67.219 Y67.151 E0.0088 F1260
G1 X67.232 Y67.140 E0.0099
G1 X68.136 Y66.353 E0.0836
G1 X68.149 Y66.341 E0.0847
G1 X68.261 Y66.250 E0.0936
G1 X68.275 Y66.239 E0.0947
G1 X69.205 Y65.527 E0.1668
G1 X69.219 Y65.517 E0.1678
G1 X69.334 Y65.435 E0.1765
G1 X69.348 Y65.425 E0.1776
G1 X70.331 Y64.766 E0.2504
G1 X70.346 Y64.756 E0.2515
G1 X70.467 Y64.680 E0.2603
G1 X70.482 Y64.671 E0.2613
G1 X71.505 Y64.075 E0.3342
G1 X71.520 Y64.066 E0.3353
G1 X71.646 Y63.998 E0.3441
G1 X71.662 Y63.990 E0.3452
G1 X72.732 Y63.453 E0.4189
G1 X72.748 Y63.445 E0.4200
G1 X72.785 Y63.428 E0.4225
G1 X89.549 Y43.431 E2.0280
G1 X90.156 Y43.235 E2.0673
G1 X95.640 Y44.619 E2.4153
G1 X96.082 Y45.080 E2.4546
G1 X101.572 Y71.707 E4.1275
G1 X101.737 Y71.431 E4.1473
G1 X101.747 Y71.416 E4.1484
G1 X101.825 Y71.294 E4.1573
G1 X101.835 Y71.279 E4.1584
G1 X102.499 Y70.315 E4.2305
G1 X102.509 Y70.301 E4.2315
G1 X102.593 Y70.187 E4.2402
G1 X102.604 Y70.173 E4.2413
G1 X103.334 Y69.242 E4.3141
G1 X103.345 Y69.229 E4.3152
G1 X103.437 Y69.119 E4.3240
G1 X103.449 Y69.106 E4.3251
G1 X104.237 Y68.222 E4.3979
G1 X104.249 Y68.209 E4.3990
G1 X104.347 Y68.105 E4.4078
G1 X104.359 Y68.093 E4.4089
G1 X105.202 Y67.261 E4.4817
G1 X105.214 Y67.249 E4.4828
G1 X105.319 Y67.151 E4.4916
G1 X105.332 Y67.140 E4.4927
G1 X106.236 Y66.353 E4.5664
G1 X106.249 Y66.341 E4.5675
G1 X106.361 Y66.250 E4.5764
G1 X106.375 Y66.239 E4.5775
G1 X107.306 Y65.527 E4.6496
G1 X107.319 Y65.517 E4.6506
G1 X107.434 Y65.435 E4.6593
G1 X107.448 Y65.425 E4.6604
G1 X108.431 Y64.766 E4.7332
G1 X108.446 Y64.756 E4.7343
G1 X108.567 Y64.680 E4.7431
G1 X108.582 Y64.671 E4.7442
G1 X109.605 Y64.075 E4.8170
G1 X109.620 Y64.066 E4.8181
G1 X109.746 Y63.998 E4.8269
G1 X109.762 Y63.990 E4.8280
G1 X110.832 Y63.453 E4.9017
G1 X110.848 Y63.445 E4.9028
G1 X110.885 Y63.428 E4.9053
G1 X127.649 Y43.431 E6.5108
G1 X128.256 Y43.235 E6.5501
G1 X133.740 Y44.619 E6.8981
G1 X134.182 Y45.080 E6.9374
G1 X139.672 Y71.707 E8.6103
G1 X139.837 Y71.431 E8.6301
G1 X139.847 Y71.416 E8.6312
G1 X139.925 Y71.294 E8.6401
G1 X139.935 Y71.279 E8.6412
G1 X140.599 Y70.315 E8.7133
G1 X140.609 Y70.301 E8.7143
G1 X140.693 Y70.187 E8.7230
G1 X140.704 Y70.173 E8.7241
G1 X141.434 Y69.242 E8.7969
G1 X141.445 Y69.229 E8.7980
G1 X141.537 Y69.119 E8.8068
G1 X141.549 Y69.106 E8.8079
G1 X142.337 Y68.222 E8.8807
G1 X142.349 Y68.209 E8.8818
G1 X142.447 Y68.105 E8.8906
G1 X142.460 Y68.093 E8.8917
G1 X143.302 Y67.261 E8.9645
G1 X143.314 Y67.249 E8.9656
G1 X143.419 Y67.151 E8.9744
G1 X143.432 Y67.140 E8.9755
G1 X144.336 Y66.353 E9.0492
G1 X144.349 Y66.341 E9.0503
G1 X144.462 Y66.250 E9.0592
G1 X144.475 Y66.239 E9.0603
G1 X145.405 Y65.527 E9.1324
G1 X145.419 Y65.517 E9.1334
G1 X145.534 Y65.435 E9.1421
G1 X145.549 Y65.425 E9.1432
G1 X146.531 Y64.766 E9.2160
G1 X146.546 Y64.756 E9.2171
G1 X146.667 Y64.680 E9.2259
G1 X146.682 Y64.671 E9.2270
G1 X147.705 Y64.075 E9.2998
G1 X147.720 Y64.066 E9.3009
G1 X147.846 Y63.998 E9.3097
G1 X147.862 Y63.990 E9.3108
G1 X148.932 Y63.453 E9.3845
G1 X148.948 Y63.445 E9.3856
G1 X148.985 Y63.428 E9.3881
G1 X165.749 Y43.431 E10.9937
G1 X166.356 Y43.235 E11.0329
G1 X171.840 Y44.619 E11.3810
G1 X172.282 Y45.080 E11.4202
G1 X178.816 Y76.773 E13.4114
G1 X179.070 Y77.652 E13.4677
G1 X179.074 Y77.669 E13.4688
G1 X179.110 Y77.808 E13.4776
G1 X179.114 Y77.825 E13.4786
G1 X179.366 Y78.968 E13.5507
G1 X179.370 Y78.984 E13.5517
G1 X179.396 Y79.124 E13.5604
G1 X179.399 Y79.141 E13.5615
G1 X179.582 Y80.309 E13.6343
G1 X179.584 Y80.327 E13.6354
G1 X179.602 Y80.469 E13.6442
G1 X179.604 Y80.486 E13.6452
G1 X179.714 Y81.665 E13.7181
G1 X179.715 Y81.683 E13.7192
G1 X179.724 Y81.826 E13.7280
G1 X179.724 Y81.843 E13.7291
G1 X179.760 Y83.026 E13.8019
G1 X179.760 Y83.044 E13.8030
G1 X179.760 Y83.187 E13.8118
G1 X179.759 Y83.205 E13.8129
G1 X179.720 Y84.388 E13.8857
G1 X179.719 Y84.405 E13.8868
G1 X179.710 Y84.548 E13.8956
G1 X179.708 Y84.566 E13.8967
G1 X179.595 Y85.744 E13.9696
G1 X179.593 Y85.762 E13.9706
G1 X179.575 Y85.904 E13.9794
G1 X179.572 Y85.921 E13.9805
G1 X179.385 Y87.090 E14.0534
G1 X179.382 Y87.107 E14.0544
G1 X179.354 Y87.248 E14.0633
G1 X179.351 Y87.265 E14.0643
G1 X179.090 Y88.420 E14.1372
G1 X179.086 Y88.437 E14.1383
G1 X179.050 Y88.576 E14.1471
G1 X179.046 Y88.593 E14.1482
G1 X178.713 Y89.729 E14.2210
G1 X178.708 Y89.746 E14.2221
G1 X178.663 Y89.882 E14.2309
G1 X178.657 Y89.898 E14.2320
G1 X178.254 Y91.011 E14.3048
G1 X178.248 Y91.028 E14.3059
G1 X178.195 Y91.161 E14.3147
G1 X178.188 Y91.177 E14.3158
G1 X177.710 Y92.275 E14.3895
G1 X177.703 Y92.291 E14.3906
G1 X177.640 Y92.422 E14.3995
G1 X177.633 Y92.438 E14.4006
G1 X177.091 Y93.492 E14.4735
G1 X177.083 Y93.508 E14.4746
G1 X177.014 Y93.633 E14.4834
G1 X177.005 Y93.648 E14.4845
G1 X176.406 Y94.654 E14.5565
G1 X176.397 Y94.668 E14.5575
G1 X176.321 Y94.788 E14.5662
G1 X176.312 Y94.802 E14.5673
G1 X175.636 Y95.790 E14.6410
G1 X175.626 Y95.805 E14.6421
G1 X175.541 Y95.922 E14.6510
G1 X175.530 Y95.936 E14.6521
G1 X174.809 Y96.859 E14.7241
G1 X174.798 Y96.872 E14.7252
G1 X174.708 Y96.981 E14.7339
G1 X174.697 Y96.994 E14.7349
G1 X173.903 Y97.890 E14.8086
G1 X173.891 Y97.903 E14.8097
G1 X173.791 Y98.009 E14.8186
G1 X173.779 Y98.021 E14.8197
G1 X172.948 Y98.847 E14.8918
G1 X172.936 Y98.858 E14.8928
G1 X172.832 Y98.955 E14.9015
G1 X172.819 Y98.967 E14.9026
G1 X171.919 Y99.756 E14.9762
G1 X171.906 Y99.767 E14.9773
G1 X171.794 Y99.859 E14.9862
G1 X171.780 Y99.870 E14.9873
G1 X171.312 Y100.231 E15.0237
G1 X171.840 Y100.364 E15.0572
G1 X172.282 Y100.826 E15.0965
G1 X178.816 Y132.519 E17.0877
G1 X179.070 Y133.398 E17.1440
G1 X179.074 Y133.415 E17.1451
G1 X179.110 Y133.554 E17.1539
G1 X179.114 Y133.571 E17.1549
G1 X179.366 Y134.713 E17.2269
G1 X179.370 Y134.730 E17.2280
G1 X179.396 Y134.869 E17.2367
G1 X179.399 Y134.886 E17.2378
G1 X179.582 Y136.055 E17.3106
G1 X179.584 Y136.072 E17.3116
G1 X179.602 Y136.215 E17.3205
G1 X179.604 Y136.232 E17.3215
G1 X179.714 Y137.411 E17.3944
G1 X179.715 Y137.428 E17.3955
G1 X179.724 Y137.571 E17.4043
G1 X179.724 Y137.589 E17.4053
G1 X179.760 Y138.772 E17.4782
G1 X179.760 Y138.790 E17.4793
G1 X179.760 Y138.933 E17.4881
G1 X179.759 Y138.950 E17.4892
G1 X179.720 Y140.134 E17.5620
G1 X179.719 Y140.151 E17.5631
G1 X179.710 Y140.294 E17.5719
G1 X179.708 Y140.312 E17.5730
G1 X179.595 Y141.490 E17.6458
G1 X179.593 Y141.508 E17.6469
G1 X179.575 Y141.650 E17.6557
G1 X179.572 Y141.667 E17.6568
G1 X179.385 Y142.836 E17.7297
G1 X179.382 Y142.853 E17.7307
G1 X179.354 Y142.994 E17.7395
G1 X179.351 Y143.011 E17.7406
G1 X179.090 Y144.166 E17.8135
G1 X179.086 Y144.183 E17.8145
G1 X179.050 Y144.322 E17.8234
G1 X179.046 Y144.338 E17.8244
G1 X178.713 Y145.475 E17.8973
G1 X178.708 Y145.491 E17.8984
G1 X178.663 Y145.627 E17.9072
G1 X178.657 Y145.644 E17.9083
G1 X178.254 Y146.757 E17.9811
G1 X178.248 Y146.774 E17.9822
G1 X178.195 Y146.907 E17.9910
G1 X178.188 Y146.923 E17.9921
G1 X177.710 Y148.021 E18.0658
G1 X177.703 Y148.037 E18.0669
G1 X177.640 Y148.168 E18.0758
G1 X177.633 Y148.184 E18.0769
G1 X177.091 Y149.238 E18.1498
G1 X177.083 Y149.254 E18.1509
G1 X177.014 Y149.379 E18.1597
G1 X177.005 Y149.394 E18.1608
G1 X176.406 Y150.399 E18.2328
G1 X176.397 Y150.414 E18.2338
G1 X176.321 Y150.533 E18.2425
G1 X176.312 Y150.548 E18.2436
G1 X175.636 Y151.536 E18.3172
G1 X175.626 Y151.551 E18.3183
G1 X175.541 Y151.668 E18.3273
G1 X175.530 Y151.682 E18.3283
G1 X174.809 Y152.605 E18.4004
G1 X174.798 Y152.618 E18.4015
G1 X174.708 Y152.727 E18.4102
G1 X174.697 Y152.740 E18.4112
G1 X173.903 Y153.636 E18.4849
G1 X173.891 Y153.649 E18.4860
G1 X173.791 Y153.754 E18.4949
G1 X173.779 Y153.767 E18.4960
G1 X172.948 Y154.592 E18.5680
G1 X172.936 Y154.604 E18.5691
G1 X172.832 Y154.701 E18.5778
G1 X172.819 Y154.712 E18.5789
G1 X171.919 Y155.502 E18.6525
G1 X171.906 Y155.513 E18.6536
G1 X171.794 Y155.605 E18.6625
G1 X171.780 Y155.616 E18.6636
G1 X171.312 Y155.977 E18.7000
G1 X171.840 Y156.110 E18.7335
G1 X172.282 Y156.571 E18.7728
G1 X178.816 Y188.264 E20.7639
G1 X179.070 Y189.144 E20.8203
G1 X179.074 Y189.161 E20.8213
G1 X179.110 Y189.300 E20.8301
G1 X179.114 Y189.317 E20.8312
G1 X179.366 Y190.459 E20.9032
G1 X179.370 Y190.476 E20.9043
G1 X179.396 Y190.615 E20.9130
G1 X179.399 Y190.632 E20.9140
G1 X179.582 Y191.801 E20.9868
G1 X179.584 Y191.818 E20.9879
G1 X179.602 Y191.960 E20.9967
G1 X179.604 Y191.978 E20.9978
G1 X179.714 Y193.157 E21.0707
G1 X179.715 Y193.174 E21.0717
G1 X179.724 Y193.317 E21.0806
G1 X179.724 Y193.334 E21.0816
G1 X179.760 Y194.518 E21.1545
G1 X179.760 Y194.536 E21.1556
G1 X179.760 Y194.679 E21.1644
G1 X179.759 Y194.696 E21.1654
G1 X179.720 Y195.880 E21.2383
G1 X179.719 Y195.897 E21.2394
G1 X179.710 Y196.040 E21.2482
G1 X179.708 Y196.057 E21.2493
G1 X179.595 Y197.236 E21.3221
G1 X179.593 Y197.253 E21.3232
G1 X179.575 Y197.395 E21.3320
G1 X179.572 Y197.413 E21.3331
G1 X179.385 Y198.582 E21.4059
G1 X179.382 Y198.599 E21.4070
G1 X179.354 Y198.739 E21.4158
G1 X179.351 Y198.757 E21.4169
G1 X179.090 Y199.912 E21.4897
G1 X179.086 Y199.929 E21.4908
G1 X179.050 Y200.067 E21.4996
G1 X179.046 Y200.084 E21.5007
G1 X178.713 Y201.220 E21.5736
G1 X178.708 Y201.237 E21.5746
G1 X178.663 Y201.373 E21.5835
G1 X178.657 Y201.390 E21.5845
G1 X178.254 Y202.503 E21.6574
G1 X178.248 Y202.519 E21.6585
G1 X178.195 Y202.652 E21.6673
G1 X178.188 Y202.669 E21.6684
G1 X177.710 Y203.767 E21.7421
G1 X177.703 Y203.783 E21.7432
G1 X177.640 Y203.914 E21.7521
G1 X177.633 Y203.930 E21.7532
G1 X177.091 Y204.984 E21.8261
G1 X177.083 Y204.999 E21.8271
G1 X177.014 Y205.125 E21.8360
G1 X177.005 Y205.140 E21.8370
G1 X176.406 Y206.145 E21.9090
G1 X176.397 Y206.160 E21.9101
G1 X176.321 Y206.279 E21.9188
G1 X176.312 Y206.294 E21.9199
G1 X175.636 Y207.282 E21.9935
G1 X175.626 Y207.296 E21.9946
G1 X175.541 Y207.414 E22.0035
G1 X175.530 Y207.428 E22.0046
G1 X174.809 Y208.351 E22.0767
G1 X174.798 Y208.364 E22.0777
G1 X174.708 Y208.473 E22.0864
G1 X174.697 Y208.486 E22.0875
G1 X173.903 Y209.382 E22.1612
G1 X173.891 Y209.395 E22.1622
G1 X173.791 Y209.500 E22.1712
G1 X173.779 Y209.513 E22.1723
G1 X172.948 Y210.338 E22.2443
G1 X172.936 Y210.350 E22.2454
G1 X172.832 Y210.447 E22.2541
G1 X172.819 Y210.458 E22.2551
G1 X171.919 Y211.247 E22.3288
