; G-Code generated by Simplify3D(R) Version 3.1.1
; Jul 17, 2017 at 10:00:47 AM
; Settings Summary
;   processName,Base
;   applyToModels,DIY_PSU_Cover(2)(3)
;   profileName,Default (modified)
;   profileVersion,2016-11-21 09:46:11
;   baseProfile,Default (modified)
;   printMaterial,ABS
;   printQuality,High
;   printExtruders,
;   extruderName,Primary Extruder
;   extruderToolheadNumber,0
;   extruderDiameter,0.7
;   extruderAutoWidth,0
;   extruderWidth,0.78
;   extrusionMultiplier,1
;   extruderUseRetract,1
;   extruderRetractionDistance,1.2
;   extruderExtraRestartDistance,0
;   extruderRetractionZLift,0
;   extruderRetractionSpeed,3000
;   extruderUseCoasting,0
;   extruderCoastingDistance,0.2
;   extruderUseWipe,0
;   extruderWipeDistance,5
;   primaryExtruder,0
;   layerHeight,0.2
;   topSolidLayers,4
;   bottomSolidLayers,2
;   perimeterOutlines,2
;   printPerimetersInsideOut,1
;   startPointOption,2
;   startPointOriginX,0
;   startPointOriginY,0
;   startPointOriginZ,300
;   sequentialIslands,0
;   spiralVaseMode,0
;   firstLayerHeightPercentage,100
;   firstLayerWidthPercentage,100
;   firstLayerUnderspeed,0.6
;   useRaft,0
;   raftExtruder,0
;   raftLayers,3
;   raftOffset,3
;   raftSeparationDistance,0.14
;   raftInfill,85
;   disableRaftBaseLayers,0
;   useSkirt,1
;   skirtExtruder,0
;   skirtLayers,2
;   skirtOutlines,2
;   skirtOffset,4
;   usePrimePillar,0
;   primePillarExtruder,999
;   primePillarWidth,12
;   primePillarLocation,7
;   primePillarSpeedMultiplier,1
;   useOozeShield,0
;   oozeShieldExtruder,999
;   oozeShieldOffset,2
;   oozeShieldOutlines,1
;   oozeShieldSidewallShape,1
;   oozeShieldSidewallAngle,30
;   oozeShieldSpeedMultiplier,1
;   infillExtruder,0
;   internalInfillPattern,Rectilinear
;   externalInfillPattern,Rectilinear
;   infillPercentage,30
;   outlineOverlapPercentage,12
;   infillExtrusionWidthPercentage,101
;   minInfillLength,5
;   infillLayerInterval,1
;   infillAngles,45,-45
;   overlapInfillAngles,0
;   generateSupport,0
;   supportExtruder,0
;   supportInfillPercentage,40
;   supportExtraInflation,0
;   denseSupportLayers,0
;   denseSupportInfillPercentage,70
;   supportLayerInterval,1
;   supportHorizontalPartOffset,0.3
;   supportUpperSeparationLayers,1
;   supportLowerSeparationLayers,1
;   supportType,0
;   supportGridSpacing,4
;   maxOverhangAngle,45
;   supportAngles,0
;   temperatureName,Primary Extruder,Heat Bed
;   temperatureNumber,0,0
;   temperatureSetpointCount,1,1
;   temperatureSetpointLayers,1,1
;   temperatureSetpointTemperatures,245,90
;   temperatureStabilizeAtStartup,1,0
;   temperatureHeatedBed,0,1
;   temperatureRelayBetweenLayers,0,0
;   temperatureRelayBetweenLoops,0,0
;   fanLayers,1
;   fanSpeeds,0
;   blipFanToFullPower,0
;   adjustSpeedForCooling,0
;   minSpeedLayerTime,30
;   minCoolingSpeedSlowdown,50
;   increaseFanForCooling,1
;   minFanLayerTime,30
;   maxCoolingFanSpeed,100
;   increaseFanForBridging,0
;   bridgingFanSpeed,100
;   use5D,1
;   relativeEdistances,0
;   allowEaxisZeroing,1
;   independentExtruderAxes,0
;   includeM10123,0
;   stickySupport,1
;   applyToolheadOffsets,0
;   gcodeXoffset,0
;   gcodeYoffset,0
;   gcodeZoffset,0
;   overrideMachineDefinition,1
;   machineTypeOverride,0
;   strokeXoverride,250
;   strokeYoverride,270
;   strokeZoverride,200
;   originOffsetXoverride,0
;   originOffsetYoverride,0
;   originOffsetZoverride,0
;   homeXdirOverride,-1
;   homeYdirOverride,-1
;   homeZdirOverride,-1
;   flipXoverride,1
;   flipYoverride,-1
;   flipZoverride,1
;   toolheadOffsets,0,0|0,0|0,0|0,0|0,0|0,0
;   overrideFirmwareConfiguration,0
;   firmwareTypeOverride,RepRap (Marlin/Repetier/Sprinter)
;   GPXconfigOverride,r2
;   baudRateOverride,115200
;   overridePrinterModels,0
;   printerModelsOverride
;   startingGcode,M80 ;,G28 ; home all axes,G29 L ;,G29 A ;
;   layerChangeGcode,
;   retractionGcode,
;   toolChangeGcode,
;   endingGcode,G91 ;,G1 Z5 ;,G28 X ;,M104 S0 ; turn off extruder,M140 S0 ; turn off bed,M84 ; disable motors,
;   exportFileFormat,gcode
;   celebration,0
;   celebrationSong,Random Song
;   postProcessing,
;   defaultSpeed,2100
;   outlineUnderspeed,0.75
;   solidInfillUnderspeed,0.8
;   supportUnderspeed,0.8
;   rapidXYspeed,4800
;   rapidZspeed,1002
;   minBridgingArea,0.1
;   bridgingExtraInflation,0
;   bridgingExtrusionMultiplier,1
;   bridgingSpeedMultiplier,0.6
;   filamentDiameter,1.75
;   filamentPricePerKg,153
;   filamentDensity,1.06
;   useMinPrintHeight,1
;   minPrintHeight,0
;   useMaxPrintHeight,1
;   maxPrintHeight,5
;   useDiaphragm,0
;   diaphragmLayerInterval,20
;   robustSlicing,1
;   mergeAllIntoSolid,0
;   onlyRetractWhenCrossingOutline,1
;   retractBetweenLayers,1
;   useRetractionMinTravel,0
;   retractionMinTravel,3
;   retractWhileWiping,0
;   onlyWipeOutlines,1
;   avoidCrossingOutline,0
;   maxMovementDetourFactor,3
;   toolChangeRetractionDistance,12
;   toolChangeExtraRestartDistance,-0.5
;   toolChangeRetractionSpeed,12
;   allowThinWallGapFill,1
;   thinWallAllowedOverlapPercentage,10
;   horizontalSizeCompensation,0
G90
M82
M106 S0
M140 S90
M104 S245 T0
M109 S245 T0
M80 ;
G28 ; home all axes
G29 L ;
G29 A ;
G92 E0
G1 E-1.2000 F3000
G1 Z0.200 F1002
; layer 1, Z = 0.2
T0
; tool H0.200 W0.780
; skirt
G1 X94.169 Y83.166 F4800
G1 E0.0000 F900
G92 E0
G1 X96.839 Y80.507 E0.2444 F1260
G1 X97.268 Y80.330 E0.2745
G1 X150.732 Y80.330 E3.7420
G1 X151.162 Y80.507 E3.7721
G1 X153.832 Y83.168 E4.0166
G1 X154.011 Y83.596 E4.0467
G1 X154.052 Y95.045 E4.7893
G1 X154.052 Y95.065 E4.7905
G1 X154.014 Y107.753 E5.6135
G1 X154.052 Y120.441 E6.4364
G1 X154.052 Y120.460 E6.4376
G1 X154.017 Y130.261 E7.0733
G1 X154.013 Y130.321 E7.0772
G1 X153.963 Y130.791 E7.1079
G1 X153.954 Y130.851 E7.1118
G1 X153.712 Y131.984 E7.1869
G1 X153.697 Y132.042 E7.1908
G1 X153.552 Y132.491 E7.2214
G1 X153.530 Y132.547 E7.2253
G1 X150.237 Y140.014 E7.7546
G1 X150.236 Y140.016 E7.7547
G1 X150.229 Y140.033 E7.7559
G1 X150.228 Y140.035 E7.7561
G1 X145.908 Y149.621 E8.4380
G1 X138.403 Y166.437 E9.6323
G1 X134.194 Y175.966 E10.3080
G1 X134.193 Y175.968 E10.3081
G1 X134.185 Y175.985 E10.3093
G1 X134.184 Y175.987 E10.3095
G1 X130.850 Y183.371 E10.8350
G1 X130.824 Y183.423 E10.8387
G1 X130.598 Y183.815 E10.8681
G1 X130.566 Y183.863 E10.8718
G1 X129.904 Y184.788 E10.9455
G1 X129.849 Y184.854 E10.9511
G1 X129.377 Y185.341 E10.9951
G1 X129.313 Y185.399 E11.0007
G1 X128.185 Y186.263 E11.0929
G1 X128.063 Y186.335 E11.1021
G1 X127.042 Y186.781 E11.1743
G1 X126.906 Y186.822 E11.1835
G1 X125.358 Y187.088 E11.2854
G1 X125.311 Y187.094 E11.2885
G1 X124.940 Y187.127 E11.3127
G1 X124.892 Y187.129 E11.3157
G1 X119.100 Y187.173 E11.6915
G1 X119.096 Y187.173 E11.6917
G1 X119.065 Y187.173 E11.6937
G1 X119.061 Y187.173 E11.6940
G1 X114.679 Y187.148 E11.9782
G1 X108.584 Y187.173 E12.3735
G1 X108.581 Y187.173 E12.3737
G1 X108.559 Y187.173 E12.3751
G1 X108.556 Y187.173 E12.3753
G1 X100.605 Y187.130 E12.8910
G1 X100.562 Y187.128 E12.8938
G1 X100.229 Y187.102 E12.9154
G1 X100.187 Y187.097 E12.9182
G1 X99.128 Y186.936 E12.9877
G1 X99.024 Y186.910 E12.9946
G1 X98.230 Y186.634 E13.0491
G1 X98.132 Y186.590 E13.0561
G1 X96.476 Y185.649 E13.1796
G1 X96.372 Y185.573 E13.1880
G1 X95.624 Y184.895 E13.2535
G1 X95.539 Y184.799 E13.2618
G1 X94.958 Y183.976 E13.3271
G1 X94.910 Y183.896 E13.3332
G1 X94.587 Y183.235 E13.3809
G1 X94.553 Y183.148 E13.3870
G1 X94.108 Y181.682 E13.4863
G1 X94.090 Y181.599 E13.4918
G1 X93.990 Y180.940 E13.5350
G1 X93.984 Y180.855 E13.5405
G1 X93.948 Y172.353 E14.0920
G1 X93.948 Y172.351 E14.0921
G1 X93.948 Y172.331 E14.0934
G1 X93.986 Y161.493 E14.7964
G1 X93.986 Y104.507 E18.4923
G1 X93.948 Y93.669 E19.1952
G1 X93.948 Y93.649 E19.1965
G1 X93.948 Y93.647 E19.1967
G1 X93.990 Y83.594 E19.8487
G1 X94.169 Y83.166 E19.8788
G1 X94.829 Y83.609 F4800
G92 E0
G1 X97.280 Y81.169 E0.2243 F1260
G1 X97.423 Y81.110 E0.2343
G1 X150.578 Y81.110 E3.6818
G1 X150.721 Y81.169 E3.6918
G1 X153.172 Y83.611 E3.9163
G1 X153.231 Y83.754 E3.9263
G1 X153.272 Y95.047 E4.6588
G1 X153.272 Y95.063 E4.6597
G1 X153.234 Y107.753 E5.4828
G1 X153.272 Y120.443 E6.3058
G1 X153.272 Y120.458 E6.3068
G1 X153.237 Y130.238 E6.9411
G1 X153.236 Y130.258 E6.9424
G1 X153.190 Y130.688 E6.9705
G1 X153.186 Y130.708 E6.9718
G1 X152.953 Y131.802 E7.0443
G1 X152.948 Y131.822 E7.0456
G1 X152.816 Y132.232 E7.0736
G1 X152.808 Y132.251 E7.0749
G1 X149.524 Y139.698 E7.6028
G1 X149.517 Y139.715 E7.6039
G1 X145.196 Y149.303 E8.2860
G1 X137.690 Y166.121 E9.4805
G1 X133.480 Y175.650 E10.1561
G1 X133.473 Y175.666 E10.1572
G1 X130.147 Y183.033 E10.6814
G1 X130.138 Y183.050 E10.6826
G1 X129.931 Y183.409 E10.7095
G1 X129.921 Y183.425 E10.7107
G1 X129.287 Y184.310 E10.7813
G1 X129.269 Y184.332 E10.7832
G1 X128.837 Y184.778 E10.8235
G1 X128.815 Y184.797 E10.8253
G1 X127.748 Y185.615 E10.9126
G1 X127.707 Y185.639 E10.9156
G1 X126.773 Y186.048 E10.9818
G1 X126.728 Y186.061 E10.9848
G1 X125.242 Y186.316 E11.0826
G1 X125.226 Y186.318 E11.0836
G1 X124.886 Y186.349 E11.1058
G1 X124.871 Y186.349 E11.1068
G1 X119.095 Y186.393 E11.4814
G1 X119.066 Y186.393 E11.4832
G1 X114.680 Y186.368 E11.7675
G1 X108.582 Y186.393 E12.1631
G1 X108.561 Y186.393 E12.1644
G1 X100.623 Y186.350 E12.6791
G1 X100.609 Y186.349 E12.6801
G1 X100.304 Y186.325 E12.6999
G1 X100.290 Y186.324 E12.7008
G1 X99.281 Y186.170 E12.7670
G1 X99.246 Y186.161 E12.7693
G1 X98.519 Y185.909 E12.8192
G1 X98.487 Y185.894 E12.8216
G1 X96.899 Y184.992 E12.9400
G1 X96.864 Y184.967 E12.9428
G1 X96.179 Y184.346 E13.0027
G1 X96.151 Y184.314 E13.0055
G1 X95.613 Y183.552 E13.0660
G1 X95.597 Y183.525 E13.0680
G1 X95.302 Y182.920 E13.1117
G1 X95.290 Y182.891 E13.1137
G1 X94.863 Y181.483 E13.2092
G1 X94.857 Y181.455 E13.2110
G1 X94.766 Y180.852 E13.2506
G1 X94.764 Y180.824 E13.2524
G1 X94.728 Y172.351 E13.8019
G1 X94.728 Y172.333 E13.8031
G1 X94.766 Y161.493 E14.5062
G1 X94.766 Y104.507 E18.2021
G1 X94.728 Y93.667 E18.9052
G1 X94.728 Y93.649 E18.9063
G1 X94.770 Y83.752 E19.5482
G1 X94.829 Y83.609 E19.5583
G92 E0
G1 E-1.2000 F3000
; inner perimeter
G1 X100.990 Y86.670 F4800
G1 E0.0000 F3000
G92 E0
G1 X147.011 Y86.670 E2.9848 F1102
G1 X146.887 Y107.753 E4.3522
G1 X147.022 Y129.105 E5.7371
G1 X147.019 Y129.880 E5.7874
G1 X146.985 Y130.040 E5.7980
G1 X139.405 Y146.705 E6.9853
G1 X131.890 Y163.546 E8.1814
G1 X124.711 Y179.948 E9.3427
G1 X124.591 Y179.998 E9.3511
G1 X124.294 Y180.213 E9.3749
G1 X114.684 Y180.106 E9.9982
G1 X100.984 Y180.217 E10.8868
G1 X101.113 Y161.505 E12.1004
G1 X101.113 Y104.495 E15.7980
G1 X100.990 Y86.670 E16.9541
; outer perimeter
G1 X100.204 Y85.890 F4800
G92 E0
G1 X147.796 Y85.890 E3.0867 F945
G1 X147.667 Y107.753 E4.5047
G1 X147.802 Y129.104 E5.8895
G1 X147.798 Y129.964 E5.9452
G1 X147.730 Y130.285 E5.9665
G1 X140.116 Y147.026 E7.1593
G1 X132.604 Y163.860 E8.3549
G1 X125.300 Y180.547 E9.5363
G1 X124.975 Y180.683 E9.5592
G1 X124.542 Y180.996 E9.5938
G1 X114.683 Y180.886 E10.2333
G1 X100.890 Y180.998 E11.1279
G1 X100.653 Y180.885 E11.1449
G1 X100.202 Y180.382 E11.1887
G1 X100.333 Y161.501 E12.4133
G1 X100.333 Y104.499 E16.1103
G1 X100.204 Y85.890 E17.3173
; inner perimeter
G1 X108.813 Y91.660 F4800
G92 E0
G1 X108.445 Y92.548 E0.0623 F1102
G1 X108.330 Y93.423 E0.1196
G1 X108.330 Y97.577 E0.3890
G1 X108.445 Y98.452 E0.4463
G1 X108.813 Y99.340 E0.5086
G1 X109.398 Y100.102 E0.5709
G1 X110.160 Y100.687 E0.6332
G1 X111.048 Y101.055 E0.6955
G1 X112.000 Y101.180 E0.7578
G1 X112.952 Y101.055 E0.8201
G1 X113.840 Y100.687 E0.8824
G1 X114.602 Y100.102 E0.9447
G1 X115.187 Y99.340 E1.0070
G1 X115.555 Y98.452 E1.0694
G1 X115.670 Y97.577 E1.1266
G1 X115.670 Y93.423 E1.3960
G1 X115.555 Y92.547 E1.4533
G1 X115.187 Y91.660 E1.5156
G1 X114.602 Y90.898 E1.5779
G1 X113.840 Y90.313 E1.6402
G1 X112.952 Y89.945 E1.7025
G1 X112.000 Y89.820 E1.7649
G1 X111.048 Y89.945 E1.8272
G1 X110.160 Y90.313 E1.8895
G1 X109.398 Y90.898 E1.9518
G1 X108.813 Y91.660 E2.0141
; outer perimeter
G1 X109.494 Y92.053 F4800
G92 E0
G1 X109.205 Y92.751 E0.0490 F945
G1 X109.110 Y93.474 E0.0963
G1 X109.110 Y97.526 E0.3590
G1 X109.205 Y98.249 E0.4064
G1 X109.494 Y98.947 E0.4554
G1 X109.954 Y99.546 E0.5043
G1 X110.553 Y100.006 E0.5533
G1 X111.251 Y100.295 E0.6023
G1 X112.000 Y100.393 E0.6513
G1 X112.749 Y100.295 E0.7003
G1 X113.447 Y100.006 E0.7493
G1 X114.046 Y99.546 E0.7983
G1 X114.506 Y98.947 E0.8473
G1 X114.795 Y98.249 E0.8962
G1 X114.890 Y97.526 E0.9436
G1 X114.890 Y93.474 E1.2063
G1 X114.795 Y92.751 E1.2536
G1 X114.506 Y92.053 E1.3026
G1 X114.046 Y91.454 E1.3516
G1 X113.447 Y90.994 E1.4006
G1 X112.749 Y90.705 E1.4496
G1 X112.000 Y90.607 E1.4986
G1 X111.251 Y90.705 E1.5475
G1 X110.553 Y90.994 E1.5965
G1 X109.954 Y91.454 E1.6455
G1 X109.494 Y92.053 E1.6945
G92 E0
G1 E-1.2000 F3000
; inner perimeter
G1 X133.445 Y92.548 F4800
G1 E0.0000 F3000
G92 E0
G1 X133.330 Y93.423 E0.0573 F1102
G1 X133.330 Y97.577 E0.3267
G1 X133.445 Y98.452 E0.3840
G1 X133.813 Y99.340 E0.4463
G1 X134.398 Y100.102 E0.5086
G1 X135.160 Y100.687 E0.5709
G1 X136.048 Y101.055 E0.6332
G1 X137.000 Y101.180 E0.6955
G1 X137.952 Y101.055 E0.7578
G1 X138.840 Y100.687 E0.8201
G1 X139.602 Y100.102 E0.8824
G1 X140.187 Y99.340 E0.9447
G1 X140.555 Y98.452 E1.0070
G1 X140.670 Y97.577 E1.0643
G1 X140.670 Y93.423 E1.3337
G1 X140.555 Y92.547 E1.3910
G1 X140.187 Y91.660 E1.4533
G1 X139.602 Y90.898 E1.5156
G1 X138.840 Y90.313 E1.5779
G1 X137.952 Y89.945 E1.6402
G1 X137.000 Y89.820 E1.7025
G1 X136.048 Y89.945 E1.7648
G1 X135.160 Y90.313 E1.8272
G1 X134.398 Y90.898 E1.8895
G1 X133.813 Y91.660 E1.9518
G1 X133.445 Y92.548 E2.0141
; outer perimeter
G1 X134.205 Y92.751 F4800
G92 E0
G1 X134.110 Y93.474 E0.0473 F945
G1 X134.110 Y97.526 E0.3101
G1 X134.205 Y98.249 E0.3574
G1 X134.494 Y98.947 E0.4064
G1 X134.954 Y99.546 E0.4554
G1 X135.553 Y100.006 E0.5043
G1 X136.251 Y100.295 E0.5533
G1 X137.000 Y100.393 E0.6023
G1 X137.749 Y100.295 E0.6513
G1 X138.447 Y100.006 E0.7003
G1 X139.046 Y99.546 E0.7493
G1 X139.506 Y98.947 E0.7983
G1 X139.795 Y98.249 E0.8473
G1 X139.890 Y97.526 E0.8946
G1 X139.890 Y93.474 E1.1573
G1 X139.795 Y92.751 E1.2046
G1 X139.506 Y92.053 E1.2536
G1 X139.046 Y91.454 E1.3026
G1 X138.447 Y90.994 E1.3516
G1 X137.749 Y90.705 E1.4006
G1 X137.000 Y90.607 E1.4496
G1 X136.251 Y90.705 E1.4986
G1 X135.553 Y90.994 E1.5475
G1 X134.954 Y91.454 E1.5965
G1 X134.494 Y92.053 E1.6455
G1 X134.205 Y92.751 E1.6945
G92 E0
G1 E-1.2000 F3000
; solid layer
G1 X140.477 Y90.910 F4800
G1 E0.0000 F3000
G92 E0
G1 X146.266 Y96.699 E0.5310 F1008
G1 X146.259 Y97.796 E0.6021
G1 X141.283 Y92.819 E1.0585
G1 X141.356 Y93.378 E1.0951
G1 X141.356 Y93.996 E1.1352
G1 X146.253 Y98.892 E1.5843
G1 X146.246 Y99.989 E1.6554
G1 X141.356 Y95.099 E2.1039
G1 X141.356 Y96.202 E2.1755
G1 X146.240 Y101.086 E2.6234
G1 X146.233 Y102.182 E2.6945
G1 X141.356 Y97.305 E3.1419
G1 X141.356 Y97.622 E3.1624
G1 X141.265 Y98.317 E3.2079
G1 X146.227 Y103.279 E3.6630
G1 X146.221 Y104.375 E3.7341
G1 X141.005 Y99.160 E4.2125
G1 X140.787 Y99.686 E4.2495
G1 X140.631 Y99.889 E4.2661
G1 X146.214 Y105.472 E4.7782
G1 X146.208 Y106.569 E4.8493
G1 X140.152 Y100.513 E5.4047
G1 X140.092 Y100.592 E5.4111
G1 X139.546 Y101.010 E5.4557
G1 X146.201 Y107.665 E6.0661
G1 X146.201 Y107.753 E6.0718
G1 X146.207 Y108.774 E6.1381
G1 X138.856 Y101.423 E6.8123
G1 X138.132 Y101.723 E6.8632
G1 X138.062 Y101.733 E6.8677
G1 X146.214 Y109.884 E7.6154
G1 X146.221 Y110.994 E7.6874
G1 X137.087 Y101.861 E8.5252
G92 E0
G1 E-1.2000 F3000
G1 X145.748 Y87.356 F4800
G1 E0.0000 F3000
G92 E0
G1 X146.318 Y87.926 E0.0523 F1008
G1 X146.311 Y89.023 E0.1234
G1 X144.645 Y87.356 E0.2762
G1 X143.542 Y87.356 E0.3478
G1 X146.305 Y90.119 E0.6012
G1 X146.298 Y91.216 E0.6723
G1 X142.439 Y87.356 E1.0264
G1 X141.335 Y87.356 E1.0979
G1 X146.292 Y92.313 E1.5525
G1 X146.285 Y93.409 E1.6236
G1 X140.232 Y87.356 E2.1788
G1 X139.129 Y87.356 E2.2504
G1 X146.279 Y94.506 E2.9061
G1 X146.272 Y95.603 E2.9773
G1 X138.026 Y87.356 E3.7336
G1 X136.923 Y87.356 E3.8052
G1 X139.590 Y90.023 E4.0497
G1 X139.186 Y89.713 E4.0827
G1 X138.132 Y89.277 E4.1567
G1 X137.681 Y89.217 E4.1862
G1 X135.820 Y87.356 E4.3569
G1 X134.717 Y87.356 E4.4284
