; G-Code generated by Simplify3D(R) Version 4.0.0
; Feb 5, 2018 at 8:47:18 AM
; Settings Summary
;   processName,Process1
;   applyToModels,Charlstruder Gears(3)
;   profileName,XL PRUSA (modified)
;   profileVersion,2017-06-01 14:40:51
;   baseProfile,Default (modified)
;   printMaterial,ABS
;   printQuality,Medium
;   printExtruders,
;   extruderName,Primary Extruder
;   extruderToolheadNumber,0
;   extruderDiameter,0.5
;   extruderAutoWidth,0
;   extruderWidth,0.52
;   extrusionMultiplier,1
;   extruderUseRetract,1
;   extruderRetractionDistance,1.4
;   extruderExtraRestartDistance,0
;   extruderRetractionZLift,0
;   extruderRetractionSpeed,3000
;   extruderUseCoasting,0
;   extruderCoastingDistance,0.2
;   extruderUseWipe,0
;   extruderWipeDistance,5
;   primaryExtruder,0
;   layerHeight,0.2
;   topSolidLayers,3
;   bottomSolidLayers,3
;   perimeterOutlines,3
;   printPerimetersInsideOut,1
;   startPointOption,2
;   startPointOriginX,0
;   startPointOriginY,0
;   sequentialIslands,0
;   spiralVaseMode,0
;   firstLayerHeightPercentage,100
;   firstLayerWidthPercentage,100
;   firstLayerUnderspeed,0.6
;   useRaft,0
;   raftExtruder,0
;   raftTopLayers,3
;   raftBaseLayers,2
;   raftOffset,3
;   raftSeparationDistance,0.14
;   raftTopInfill,100
;   aboveRaftSpeedMultiplier,0.3
;   useSkirt,1
;   skirtExtruder,0
;   skirtLayers,1
;   skirtOutlines,2
;   skirtOffset,4
;   usePrimePillar,0
;   primePillarExtruder,999
;   primePillarWidth,12
;   primePillarLocation,7
;   primePillarSpeedMultiplier,1
;   useOozeShield,0
;   oozeShieldExtruder,999
;   oozeShieldOffset,2
;   oozeShieldOutlines,1
;   oozeShieldSidewallShape,1
;   oozeShieldSidewallAngle,30
;   oozeShieldSpeedMultiplier,1
;   infillExtruder,0
;   internalInfillPattern,Rectilinear
;   externalInfillPattern,Rectilinear
;   infillPercentage,30
;   outlineOverlapPercentage,15
;   infillExtrusionWidthPercentage,140
;   minInfillLength,6
;   infillLayerInterval,1
;   internalInfillAngles,45,-45
;   overlapInternalInfillAngles,0
;   externalInfillAngles,45,-45
;   generateSupport,0
;   supportExtruder,0
;   supportInfillPercentage,25
;   supportExtraInflation,0
;   supportBaseLayers,0
;   denseSupportExtruder,0
;   denseSupportLayers,0
;   denseSupportInfillPercentage,70
;   supportLayerInterval,1
;   supportHorizontalPartOffset,0.5
;   supportUpperSeparationLayers,1
;   supportLowerSeparationLayers,1
;   supportType,0
;   supportGridSpacing,3
;   maxOverhangAngle,45
;   supportAngles,0
;   temperatureName,Primary Extruder,Heat Bed
;   temperatureNumber,0,0
;   temperatureSetpointCount,2,1
;   temperatureSetpointLayers,1,85,1
;   temperatureSetpointTemperatures,245,230,80
;   temperatureStabilizeAtStartup,1,1
;   temperatureHeatedBed,0,1
;   temperatureRelayBetweenLayers,0,0
;   temperatureRelayBetweenLoops,0,0
;   fanLayers,1
;   fanSpeeds,0
;   blipFanToFullPower,0
;   adjustSpeedForCooling,1
;   minSpeedLayerTime,10
;   minCoolingSpeedSlowdown,35
;   increaseFanForCooling,0
;   minFanLayerTime,45
;   maxCoolingFanSpeed,100
;   increaseFanForBridging,0
;   bridgingFanSpeed,100
;   use5D,1
;   relativeEdistances,0
;   allowEaxisZeroing,1
;   independentExtruderAxes,0
;   includeM10123,0
;   stickySupport,1
;   applyToolheadOffsets,0
;   gcodeXoffset,0
;   gcodeYoffset,0
;   gcodeZoffset,0
;   overrideMachineDefinition,1
;   machineTypeOverride,0
;   strokeXoverride,240
;   strokeYoverride,260
;   strokeZoverride,200
;   originOffsetXoverride,0
;   originOffsetYoverride,0
;   originOffsetZoverride,0
;   homeXdirOverride,-1
;   homeYdirOverride,-1
;   homeZdirOverride,-1
;   flipXoverride,1
;   flipYoverride,-1
;   flipZoverride,1
;   toolheadOffsets,0,0|0,0|0,0|0,0|0,0|0,0
;   overrideFirmwareConfiguration,0
;   firmwareTypeOverride,RepRap (Marlin/Repetier/Sprinter)
;   GPXconfigOverride,r2
;   baudRateOverride,115200
;   overridePrinterModels,0
;   printerModelsOverride
;   startingGcode,M80 ;,G28 ; home all axes,G29 L1 ;,G29 A ;,,,
;   layerChangeGcode,
;   retractionGcode,
;   toolChangeGcode,
;   endingGcode,G91 ;,G1 Z5 ;,G28 X ;,M104 S0 ; turn off extruder,M140 S0 ; turn off bed,M84 ; disable motors,M81 ;,
;   exportFileFormat,gcode
;   celebration,0
;   celebrationSong,Random Song
;   postProcessing,
;   defaultSpeed,2100
;   outlineUnderspeed,0.75
;   solidInfillUnderspeed,0.75
;   supportUnderspeed,1
;   rapidXYspeed,4800
;   rapidZspeed,1200
;   minBridgingArea,50
;   bridgingExtraInflation,0
;   bridgingExtrusionMultiplier,1
;   bridgingSpeedMultiplier,1
;   useFixedBridgingAngle,0
;   fixedBridgingAngle,0
;   applyBridgingToPerimeters,0
;   filamentDiameters,1.75|1.69|1.69|1.69|1.69|1.69
;   filamentPricesPerKg,153|153|153|153|153|153
;   filamentDensities,1.06|1.06|1.06|1.06|1.06|1.06
;   useMinPrintHeight,0
;   minPrintHeight,0
;   useMaxPrintHeight,0
;   maxPrintHeight,0
;   useDiaphragm,0
;   diaphragmLayerInterval,20
;   robustSlicing,1
;   mergeAllIntoSolid,0
;   onlyRetractWhenCrossingOutline,1
;   retractBetweenLayers,1
;   useRetractionMinTravel,0
;   retractionMinTravel,3
;   retractWhileWiping,0
;   onlyWipeOutlines,1
;   avoidCrossingOutline,0
;   maxMovementDetourFactor,3
;   toolChangeRetractionDistance,12
;   toolChangeExtraRestartDistance,-0.5
;   toolChangeRetractionSpeed,12
;   externalThinWallType,1
;   internalThinWallType,1
;   thinWallAllowedOverlapPercentage,10
;   singleExtrusionMinLength,1
;   singleExtrusionMinPrintingWidthPercentage,50
;   singleExtrusionMaxPrintingWidthPercentage,200
;   singleExtrusionEndpointExtension,0.2
;   horizontalSizeCompensation,0
G90
M82
M106 S0
M140 S80
M190 S80
M104 S245 T0
M109 S245 T0
M80 ;
G28 ; home all axes
G29 L1 ;
G29 A ;
G92 E0
G1 E-1.4000 F3000
G1 Z0.200 F1200
; process Process1
; layer 1, Z = 0.200
T0
; tool H0.200 W0.520
; skirt
G1 X93.956 Y104.170 F4800
G1 E0.0000 F900
G92 E0
G1 X96.121 Y102.157 E0.1278 F1260
G1 X96.306 Y102.060 E0.1368
G1 X97.037 Y101.899 E0.1692
G1 X97.341 Y101.215 E0.2016
G1 X97.472 Y101.053 E0.2106
G1 X99.876 Y99.333 E0.3384
G1 X100.072 Y99.260 E0.3474
G1 X100.819 Y99.193 E0.3799
G1 X101.209 Y98.552 E0.4123
G1 X101.361 Y98.408 E0.4213
G1 X103.965 Y97.011 E0.5491
G1 X104.168 Y96.964 E0.5581
G1 X104.916 Y96.993 E0.5905
G1 X105.385 Y96.406 E0.6230
G1 X105.554 Y96.283 E0.6320
G1 X108.316 Y95.232 E0.7598
G1 X108.523 Y95.211 E0.7688
G1 X109.262 Y95.336 E0.8012
G1 X109.799 Y94.817 E0.8335
G1 X109.981 Y94.717 E0.8425
G1 X112.853 Y94.022 E0.9702
G1 X113.061 Y94.028 E0.9793
G1 X113.782 Y94.247 E1.0118
G1 X114.383 Y93.800 E1.0442
G1 X114.577 Y93.724 E1.0532
G1 X117.513 Y93.404 E1.1809
G1 X117.719 Y93.437 E1.1900
G1 X118.405 Y93.745 E1.2225
G1 X119.055 Y93.380 E1.2547
G1 X119.257 Y93.329 E1.2637
G1 X122.140 Y93.383 E1.3884
G1 X122.333 Y93.437 E1.3971
G1 X123.035 Y93.848 E1.4323
G1 X123.748 Y93.560 E1.4655
G1 X123.955 Y93.535 E1.4745
G1 X126.876 Y93.970 E1.6022
G1 X127.067 Y94.054 E1.6112
G1 X127.654 Y94.527 E1.6438
G1 X128.378 Y94.338 E1.6761
G1 X128.586 Y94.340 E1.6852
G1 X131.430 Y95.146 E1.8130
G1 X131.609 Y95.254 E1.8220
G1 X132.128 Y95.797 E1.8545
G1 X132.711 Y95.711 E1.8800
G1 X132.911 Y95.733 E1.8887
G1 X135.619 Y96.773 E2.0141
G1 X135.787 Y96.895 E2.0231
G1 X136.375 Y97.629 E2.0637
G1 X137.151 Y97.630 E2.0973
G1 X137.353 Y97.685 E2.1063
G1 X139.898 Y99.186 E2.2341
G1 X140.043 Y99.335 E2.2431
G1 X140.407 Y99.992 E2.2756
G1 X141.151 Y100.089 E2.3080
G1 X141.344 Y100.170 E2.3171
G1 X143.675 Y101.985 E2.4448
G1 X143.800 Y102.151 E2.4538
G1 X144.077 Y102.848 E2.4862
G1 X144.799 Y103.037 E2.5185
G1 X144.980 Y103.142 E2.5275
G1 X147.062 Y105.239 E2.6553
G1 X147.165 Y105.420 E2.6643
G1 X147.352 Y106.149 E2.6969
G1 X148.045 Y106.431 E2.7292
G1 X148.211 Y106.557 E2.7383
G1 X150.008 Y108.904 E2.8661
G1 X150.086 Y109.097 E2.8751
G1 X150.178 Y109.843 E2.9076
G1 X150.831 Y110.213 E2.9400
G1 X150.980 Y110.359 E2.9491
G1 X152.459 Y112.918 E3.0769
G1 X152.513 Y113.120 E3.0859
G1 X152.508 Y113.867 E3.1182
G1 X153.109 Y114.317 E3.1507
G1 X153.238 Y114.482 E3.1597
G1 X154.378 Y117.209 E3.2875
G1 X154.405 Y117.416 E3.2965
G1 X154.304 Y118.158 E3.3289
G1 X154.840 Y118.677 E3.3612
G1 X154.946 Y118.856 E3.3702
G1 X155.732 Y121.707 E3.4980
G1 X155.732 Y121.915 E3.5070
G1 X155.537 Y122.642 E3.5396
G1 X156.003 Y123.227 E3.5719
G1 X156.086 Y123.419 E3.5810
G1 X156.499 Y126.345 E3.7087
G1 X156.472 Y126.552 E3.7177
G1 X156.186 Y127.246 E3.7502
G1 X156.575 Y127.888 E3.7826
G1 X156.632 Y128.089 E3.7917
G1 X156.666 Y131.045 E3.9195
G1 X156.614 Y131.247 E3.9285
G1 X156.242 Y131.896 E3.9609
G1 X156.544 Y132.579 E3.9932
G1 X156.575 Y132.786 E4.0022
G1 X156.233 Y135.722 E4.1300
G1 X156.156 Y135.916 E4.1390
G1 X155.702 Y136.516 E4.1715
G1 X155.914 Y137.231 E4.2038
G1 X155.918 Y137.440 E4.2128
G1 X155.204 Y140.308 E4.3406
G1 X155.102 Y140.490 E4.3497
G1 X154.576 Y141.027 E4.3822
G1 X154.695 Y141.768 E4.4146
G1 X154.672 Y141.976 E4.4237
G1 X153.595 Y144.728 E4.5514
G1 X153.471 Y144.895 E4.5605
G1 X152.882 Y145.359 E4.5929
G1 X152.905 Y146.110 E4.6254
G1 X152.856 Y146.313 E4.6344
G1 X151.435 Y148.904 E4.7622
G1 X151.290 Y149.054 E4.7712
G1 X150.648 Y149.437 E4.8035
G1 X150.575 Y150.182 E4.8359
G1 X150.501 Y150.377 E4.8449
G1 X148.763 Y152.766 E4.9727
G1 X148.600 Y152.896 E4.9817
G1 X147.911 Y153.196 E5.0142
G1 X147.743 Y153.927 E5.0466
G1 X147.645 Y154.111 E5.0556
G1 X145.614 Y156.258 E5.1834
G1 X145.436 Y156.366 E5.1924
G1 X144.716 Y156.575 E5.2248
G1 X144.455 Y157.281 E5.2573
G1 X144.334 Y157.451 E5.2664
G1 X142.044 Y159.319 E5.3942
G1 X141.853 Y159.404 E5.4032
G1 X141.115 Y159.518 E5.4355
G1 X140.768 Y160.182 E5.4679
G1 X140.625 Y160.335 E5.4769
G1 X138.115 Y161.897 E5.6048
G1 X137.916 Y161.957 E5.6138
G1 X137.167 Y161.976 E5.6462
G1 X136.735 Y162.592 E5.6787
G1 X136.574 Y162.726 E5.6877
G1 X133.887 Y163.951 E5.8154
G1 X133.682 Y163.985 E5.8244
G1 X132.938 Y163.908 E5.8568
G1 X132.434 Y164.461 E5.8891
G1 X132.258 Y164.573 E5.8981
G1 X129.438 Y165.449 E6.0259
G1 X129.229 Y165.456 E6.0349
G1 X128.496 Y165.284 E6.0674
G1 X127.922 Y165.771 E6.1000
G1 X127.733 Y165.859 E6.1090
G1 X124.823 Y166.364 E6.2367
G1 X124.615 Y166.345 E6.2457
G1 X123.913 Y166.081 E6.2781
G1 X123.283 Y166.490 E6.3107
G1 X123.084 Y166.554 E6.3197
G1 X120.132 Y166.681 E6.4474
G1 X119.929 Y166.635 E6.4564
G1 X119.268 Y166.285 E6.4888
G1 X118.595 Y166.609 E6.5211
G1 X118.390 Y166.646 E6.5301
G1 X115.445 Y166.400 E6.6579
G1 X115.248 Y166.329 E6.6669
G1 X114.634 Y165.894 E6.6995
G1 X113.924 Y166.129 E6.7318
G1 X113.715 Y166.140 E6.7408
G1 X110.826 Y165.518 E6.8686
G1 X110.641 Y165.422 E6.8776
G1 X110.088 Y164.913 E6.9101
G1 X109.352 Y165.055 E6.9425
G1 X109.144 Y165.040 E6.9515
G1 X106.358 Y164.052 E7.0794
G1 X106.187 Y163.933 E7.0884
G1 X105.706 Y163.359 E7.1207
G1 X104.958 Y163.406 E7.1531
G1 X104.753 Y163.364 E7.1622
G1 X102.117 Y162.029 E7.2900
G1 X101.962 Y161.889 E7.2990
G1 X101.557 Y161.257 E7.3314
G1 X100.807 Y161.208 E7.3639
G1 X100.610 Y161.140 E7.3730
G1 X98.167 Y159.477 E7.5007
G1 X98.032 Y159.319 E7.5097
G1 X97.712 Y158.642 E7.5421
G1 X96.974 Y158.497 E7.5746
G1 X96.787 Y158.404 E7.5836
G1 X94.578 Y156.442 E7.7114
G1 X94.464 Y156.268 E7.7204
G1 X94.233 Y155.556 E7.7527
G1 X93.522 Y155.319 E7.7851
G1 X93.348 Y155.204 E7.7942
G1 X91.406 Y152.977 E7.9219
G1 X91.315 Y152.790 E7.9309
G1 X91.176 Y152.051 E7.9634
G1 X90.505 Y151.728 E7.9956
G1 X90.348 Y151.591 E8.0046
G1 X88.703 Y149.137 E8.1324
G1 X88.637 Y148.939 E8.1414
G1 X88.593 Y148.185 E8.1741
G1 X87.965 Y147.775 E8.2065
G1 X87.826 Y147.619 E8.2155
G1 X86.513 Y144.972 E8.3433
G1 X86.472 Y144.768 E8.3523
G1 X86.525 Y144.019 E8.3847
G1 X85.956 Y143.534 E8.4170
G1 X85.839 Y143.362 E8.4261
G1 X84.873 Y140.568 E8.5539
G1 X84.859 Y140.360 E8.5629
G1 X85.007 Y139.623 E8.5954
G1 X84.507 Y139.072 E8.6276
G1 X84.412 Y138.886 E8.6366
G1 X83.810 Y135.993 E8.7644
G1 X83.823 Y135.784 E8.7734
G1 X84.065 Y135.070 E8.8060
G1 X83.635 Y134.451 E8.8386
G1 X83.565 Y134.254 E8.8476
G1 X83.343 Y131.307 E8.9754
G1 X83.383 Y131.103 E8.9844
G1 X83.711 Y130.433 E9.0167
G1 X83.365 Y129.767 E9.0491
G1 X83.320 Y129.563 E9.0582
G1 X83.476 Y126.611 E9.1860
G1 X83.542 Y126.413 E9.1950
G1 X83.954 Y125.789 E9.2274
G1 X83.696 Y125.086 E9.2597
G1 X83.678 Y124.878 E9.2688
G1 X84.208 Y121.971 E9.3965
G1 X84.298 Y121.783 E9.4055
G1 X84.789 Y121.214 E9.4380
G1 X84.622 Y120.478 E9.4706
G1 X84.632 Y120.269 E9.4797
G1 X85.533 Y117.456 E9.6074
G1 X85.646 Y117.281 E9.6164
G1 X86.202 Y116.784 E9.6487
G1 X86.131 Y116.037 E9.6811
G1 X86.166 Y115.831 E9.6901
G1 X87.417 Y113.155 E9.8179
G1 X87.552 Y112.996 E9.8269
G1 X88.170 Y112.570 E9.8593
G1 X88.195 Y111.824 E9.8916
G1 X88.256 Y111.624 E9.9006
G1 X89.836 Y109.128 E10.0284
G1 X89.990 Y108.987 E10.0374
G1 X90.660 Y108.643 E10.0700
G1 X90.780 Y107.905 E10.1023
G1 X90.866 Y107.715 E10.1113
G1 X92.753 Y105.441 E10.2391
G1 X92.924 Y105.321 E10.2481
G1 X93.632 Y105.066 E10.2806
G1 X93.846 Y104.347 E10.3131
G1 X93.956 Y104.170 E10.3221
G1 X94.361 Y104.503 F4800
G92 E0
G1 X96.424 Y102.585 E0.1218 F1260
G1 X96.486 Y102.553 E0.1248
G1 X97.406 Y102.350 E0.1656
G1 X97.788 Y101.489 E0.2062
G1 X97.832 Y101.435 E0.2093
G1 X100.123 Y99.796 E0.3311
G1 X100.188 Y99.772 E0.3341
G1 X101.127 Y99.688 E0.3748
G1 X101.617 Y98.881 E0.4156
G1 X101.668 Y98.834 E0.4186
G1 X104.149 Y97.502 E0.5404
G1 X104.217 Y97.487 E0.5434
G1 X105.158 Y97.523 E0.5841
G1 X105.748 Y96.786 E0.6250
G1 X105.804 Y96.744 E0.6280
G1 X108.436 Y95.742 E0.7498
G1 X108.505 Y95.736 E0.7528
G1 X109.435 Y95.892 E0.7935
G1 X110.110 Y95.239 E0.8341
G1 X110.171 Y95.206 E0.8371
G1 X112.907 Y94.544 E0.9589
G1 X112.977 Y94.546 E0.9619
G1 X113.882 Y94.821 E1.0028
G1 X114.638 Y94.258 E1.0435
G1 X114.702 Y94.233 E1.0465
G1 X117.501 Y93.928 E1.1682
G1 X117.569 Y93.939 E1.1712
G1 X118.431 Y94.327 E1.2121
G1 X119.249 Y93.867 E1.2527
G1 X119.317 Y93.850 E1.2557
G1 X122.064 Y93.902 E1.3745
G1 X122.128 Y93.920 E1.3774
G1 X122.993 Y94.426 E1.4207
G1 X123.879 Y94.068 E1.4620
G1 X123.948 Y94.060 E1.4650
G1 X126.731 Y94.474 E1.5867
G1 X126.795 Y94.502 E1.5897
G1 X127.531 Y95.096 E1.6306
G1 X128.442 Y94.858 E1.6713
G1 X128.511 Y94.859 E1.6743
G1 X131.222 Y95.628 E1.7961
G1 X131.281 Y95.663 E1.7991
G1 X131.938 Y96.351 E1.8402
G1 X132.721 Y96.235 E1.8744
G1 X132.787 Y96.242 E1.8773
G1 X135.368 Y97.233 E1.9969
G1 X135.424 Y97.274 E1.9999
G1 X136.125 Y98.149 E2.0483
G1 X137.081 Y98.150 E2.0897
G1 X137.148 Y98.168 E2.0927
G1 X139.573 Y99.599 E2.2144
G1 X139.622 Y99.648 E2.2174
G1 X140.080 Y100.474 E2.2583
G1 X141.015 Y100.596 E2.2990
G1 X141.079 Y100.623 E2.3020
G1 X143.301 Y102.352 E2.4238
G1 X143.343 Y102.408 E2.4268
G1 X143.691 Y103.284 E2.4676
G1 X144.600 Y103.523 E2.5082
G1 X144.660 Y103.557 E2.5112
G1 X146.644 Y105.556 E2.6330
G1 X146.678 Y105.616 E2.6360
G1 X146.913 Y106.532 E2.6769
G1 X147.785 Y106.886 E2.7176
G1 X147.841 Y106.929 E2.7206
G1 X149.552 Y109.165 E2.8424
G1 X149.579 Y109.229 E2.8454
G1 X149.693 Y110.167 E2.8862
G1 X150.515 Y110.631 E2.9270
G1 X150.565 Y110.680 E2.9300
G1 X151.975 Y113.118 E3.0518
G1 X151.992 Y113.186 E3.0548
G1 X151.986 Y114.126 E3.0955
G1 X152.742 Y114.692 E3.1363
G1 X152.785 Y114.747 E3.1393
G1 X153.872 Y117.346 E3.2611
G1 X153.881 Y117.415 E3.2641
G1 X153.754 Y118.348 E3.3048
G1 X154.428 Y119.002 E3.3455
G1 X154.464 Y119.062 E3.3485
G1 X155.212 Y121.778 E3.4703
G1 X155.212 Y121.847 E3.4733
G1 X154.967 Y122.760 E3.5142
G1 X155.553 Y123.497 E3.5549
G1 X155.580 Y123.561 E3.5579
G1 X155.974 Y126.349 E3.6796
G1 X155.965 Y126.418 E3.6827
G1 X155.606 Y127.290 E3.7234
G1 X156.094 Y128.097 E3.7642
G1 X156.113 Y128.164 E3.7672
G1 X156.145 Y130.982 E3.8891
G1 X156.128 Y131.049 E3.8921
G1 X155.660 Y131.866 E3.9328
G1 X156.040 Y132.726 E3.9734
G1 X156.051 Y132.795 E3.9764
G1 X155.725 Y135.593 E4.0982
G1 X155.699 Y135.657 E4.1012
G1 X155.129 Y136.411 E4.1421
G1 X155.395 Y137.312 E4.1827
G1 X155.397 Y137.382 E4.1858
G1 X154.716 Y140.115 E4.3075
G1 X154.683 Y140.176 E4.3106
G1 X154.021 Y140.851 E4.3514
G1 X154.170 Y141.782 E4.3922
G1 X154.163 Y141.851 E4.3952
G1 X153.136 Y144.474 E4.5170
G1 X153.095 Y144.529 E4.5200
G1 X152.354 Y145.112 E4.5608
G1 X152.383 Y146.056 E4.6016
G1 X152.366 Y146.124 E4.6046
