; G-Code generated by Simplify3D(R) Version 4.0.0
; Feb 5, 2018 at 8:49:09 AM
; Settings Summary
;   processName,Process1
;   applyToModels,Charlstruder Gears(3)
;   profileName,XL PRUSA (modified)
;   profileVersion,2017-06-01 14:40:51
;   baseProfile,Default (modified)
;   printMaterial,ABS
;   printQuality,Medium
;   printExtruders,
;   extruderName,Primary Extruder
;   extruderToolheadNumber,0
;   extruderDiameter,0.4
;   extruderAutoWidth,0
;   extruderWidth,0.42
;   extrusionMultiplier,1
;   extruderUseRetract,1
;   extruderRetractionDistance,1.4
;   extruderExtraRestartDistance,0
;   extruderRetractionZLift,0
;   extruderRetractionSpeed,3000
;   extruderUseCoasting,0
;   extruderCoastingDistance,0.2
;   extruderUseWipe,0
;   extruderWipeDistance,5
;   primaryExtruder,0
;   layerHeight,0.2
;   topSolidLayers,3
;   bottomSolidLayers,3
;   perimeterOutlines,3
;   printPerimetersInsideOut,1
;   startPointOption,2
;   startPointOriginX,0
;   startPointOriginY,0
;   sequentialIslands,0
;   spiralVaseMode,0
;   firstLayerHeightPercentage,100
;   firstLayerWidthPercentage,100
;   firstLayerUnderspeed,0.6
;   useRaft,0
;   raftExtruder,0
;   raftTopLayers,3
;   raftBaseLayers,2
;   raftOffset,3
;   raftSeparationDistance,0.14
;   raftTopInfill,100
;   aboveRaftSpeedMultiplier,0.3
;   useSkirt,1
;   skirtExtruder,0
;   skirtLayers,1
;   skirtOutlines,2
;   skirtOffset,4
;   usePrimePillar,0
;   primePillarExtruder,999
;   primePillarWidth,12
;   primePillarLocation,7
;   primePillarSpeedMultiplier,1
;   useOozeShield,0
;   oozeShieldExtruder,999
;   oozeShieldOffset,2
;   oozeShieldOutlines,1
;   oozeShieldSidewallShape,1
;   oozeShieldSidewallAngle,30
;   oozeShieldSpeedMultiplier,1
;   infillExtruder,0
;   internalInfillPattern,Rectilinear
;   externalInfillPattern,Rectilinear
;   infillPercentage,30
;   outlineOverlapPercentage,15
;   infillExtrusionWidthPercentage,140
;   minInfillLength,6
;   infillLayerInterval,1
;   internalInfillAngles,45,-45
;   overlapInternalInfillAngles,0
;   externalInfillAngles,45,-45
;   generateSupport,0
;   supportExtruder,0
;   supportInfillPercentage,25
;   supportExtraInflation,0
;   supportBaseLayers,0
;   denseSupportExtruder,0
;   denseSupportLayers,0
;   denseSupportInfillPercentage,70
;   supportLayerInterval,1
;   supportHorizontalPartOffset,0.5
;   supportUpperSeparationLayers,1
;   supportLowerSeparationLayers,1
;   supportType,0
;   supportGridSpacing,3
;   maxOverhangAngle,45
;   supportAngles,0
;   temperatureName,Primary Extruder,Heat Bed
;   temperatureNumber,0,0
;   temperatureSetpointCount,2,1
;   temperatureSetpointLayers,1,85,1
;   temperatureSetpointTemperatures,245,230,80
;   temperatureStabilizeAtStartup,1,1
;   temperatureHeatedBed,0,1
;   temperatureRelayBetweenLayers,0,0
;   temperatureRelayBetweenLoops,0,0
;   fanLayers,1
;   fanSpeeds,0
;   blipFanToFullPower,0
;   adjustSpeedForCooling,1
;   minSpeedLayerTime,10
;   minCoolingSpeedSlowdown,35
;   increaseFanForCooling,0
;   minFanLayerTime,45
;   maxCoolingFanSpeed,100
;   increaseFanForBridging,0
;   bridgingFanSpeed,100
;   use5D,1
;   relativeEdistances,0
;   allowEaxisZeroing,1
;   independentExtruderAxes,0
;   includeM10123,0
;   stickySupport,1
;   applyToolheadOffsets,0
;   gcodeXoffset,0
;   gcodeYoffset,0
;   gcodeZoffset,0
;   overrideMachineDefinition,1
;   machineTypeOverride,0
;   strokeXoverride,240
;   strokeYoverride,260
;   strokeZoverride,200
;   originOffsetXoverride,0
;   originOffsetYoverride,0
;   originOffsetZoverride,0
;   homeXdirOverride,-1
;   homeYdirOverride,-1
;   homeZdirOverride,-1
;   flipXoverride,1
;   flipYoverride,-1
;   flipZoverride,1
;   toolheadOffsets,0,0|0,0|0,0|0,0|0,0|0,0
;   overrideFirmwareConfiguration,0
;   firmwareTypeOverride,RepRap (Marlin/Repetier/Sprinter)
;   GPXconfigOverride,r2
;   baudRateOverride,115200
;   overridePrinterModels,0
;   printerModelsOverride
;   startingGcode,M80 ;,G28 ; home all axes,G29 L1 ;,G29 A ;,,,
;   layerChangeGcode,
;   retractionGcode,
;   toolChangeGcode,
;   endingGcode,G91 ;,G1 Z5 ;,G28 X ;,M104 S0 ; turn off extruder,M140 S0 ; turn off bed,M84 ; disable motors,M81 ;,
;   exportFileFormat,gcode
;   celebration,0
;   celebrationSong,Random Song
;   postProcessing,
;   defaultSpeed,2100
;   outlineUnderspeed,0.75
;   solidInfillUnderspeed,0.75
;   supportUnderspeed,1
;   rapidXYspeed,4800
;   rapidZspeed,1200
;   minBridgingArea,50
;   bridgingExtraInflation,0
;   bridgingExtrusionMultiplier,1
;   bridgingSpeedMultiplier,1
;   useFixedBridgingAngle,0
;   fixedBridgingAngle,0
;   applyBridgingToPerimeters,0
;   filamentDiameters,1.75|1.69|1.69|1.69|1.69|1.69
;   filamentPricesPerKg,153|153|153|153|153|153
;   filamentDensities,1.06|1.06|1.06|1.06|1.06|1.06
;   useMinPrintHeight,0
;   minPrintHeight,0
;   useMaxPrintHeight,0
;   maxPrintHeight,0
;   useDiaphragm,0
;   diaphragmLayerInterval,20
;   robustSlicing,1
;   mergeAllIntoSolid,0
;   onlyRetractWhenCrossingOutline,1
;   retractBetweenLayers,1
;   useRetractionMinTravel,0
;   retractionMinTravel,3
;   retractWhileWiping,0
;   onlyWipeOutlines,1
;   avoidCrossingOutline,0
;   maxMovementDetourFactor,3
;   toolChangeRetractionDistance,12
;   toolChangeExtraRestartDistance,-0.5
;   toolChangeRetractionSpeed,12
;   externalThinWallType,1
;   internalThinWallType,1
;   thinWallAllowedOverlapPercentage,10
;   singleExtrusionMinLength,1
;   singleExtrusionMinPrintingWidthPercentage,50
;   singleExtrusionMaxPrintingWidthPercentage,200
;   singleExtrusionEndpointExtension,0.2
;   horizontalSizeCompensation,0
G90
M82
M106 S0
M140 S80
M190 S80
M104 S245 T0
M109 S245 T0
M80 ;
G28 ; home all axes
G29 L1 ;
G29 A ;
G92 E0
G1 E-1.4000 F3000
G1 Z0.200 F1200
; process Process1
; layer 1, Z = 0.200
T0
; tool H0.200 W0.420
; skirt
G1 X94.073 Y104.266 F4800
G1 E0.0000 F900
G92 E0
G1 X96.208 Y102.281 E0.1018 F1260
G1 X96.358 Y102.202 E0.1077
G1 X97.144 Y102.029 E0.1358
G1 X97.470 Y101.294 E0.1639
G1 X97.576 Y101.163 E0.1698
G1 X99.947 Y99.467 E0.2716
G1 X100.105 Y99.408 E0.2775
G1 X100.908 Y99.336 E0.3056
G1 X101.327 Y98.647 E0.3338
G1 X101.449 Y98.531 E0.3397
G1 X104.018 Y97.153 E0.4415
G1 X104.182 Y97.115 E0.4474
G1 X104.986 Y97.146 E0.4755
G1 X105.490 Y96.516 E0.5036
G1 X105.626 Y96.416 E0.5095
G1 X108.351 Y95.379 E0.6114
G1 X108.518 Y95.363 E0.6172
G1 X109.312 Y95.496 E0.6453
G1 X109.888 Y94.939 E0.6734
G1 X110.036 Y94.858 E0.6792
G1 X112.869 Y94.173 E0.7810
G1 X113.037 Y94.178 E0.7869
G1 X113.811 Y94.413 E0.8151
G1 X114.456 Y93.932 E0.8432
G1 X114.613 Y93.870 E0.8491
G1 X117.510 Y93.555 E0.9509
G1 X117.676 Y93.582 E0.9568
G1 X118.413 Y93.913 E0.9850
G1 X119.111 Y93.521 E1.0129
G1 X119.274 Y93.480 E1.0188
G1 X122.118 Y93.533 E1.1182
G1 X122.274 Y93.576 E1.1238
G1 X123.023 Y94.014 E1.1541
G1 X123.786 Y93.707 E1.1829
G1 X123.953 Y93.687 E1.1887
G1 X126.834 Y94.115 E1.2905
G1 X126.989 Y94.183 E1.2963
G1 X127.619 Y94.691 E1.3246
G1 X128.396 Y94.488 E1.3527
G1 X128.565 Y94.490 E1.3586
G1 X131.370 Y95.285 E1.4604
G1 X131.514 Y95.372 E1.4663
G1 X132.073 Y95.957 E1.4945
G1 X132.714 Y95.862 E1.5171
G1 X132.875 Y95.880 E1.5228
G1 X135.547 Y96.906 E1.6228
G1 X135.682 Y97.004 E1.6286
G1 X136.303 Y97.779 E1.6633
G1 X137.131 Y97.780 E1.6922
G1 X137.294 Y97.824 E1.6981
G1 X139.804 Y99.305 E1.7999
G1 X139.922 Y99.426 E1.8058
G1 X140.313 Y100.131 E1.8339
G1 X141.112 Y100.235 E1.8621
G1 X141.268 Y100.300 E1.8680
G1 X143.567 Y102.091 E1.9698
G1 X143.668 Y102.225 E1.9756
G1 X143.966 Y102.974 E2.0038
G1 X144.742 Y103.177 E2.0318
G1 X144.888 Y103.262 E2.0377
G1 X146.941 Y105.330 E2.1395
G1 X147.025 Y105.477 E2.1453
G1 X147.225 Y106.260 E2.1736
G1 X147.970 Y106.562 E2.2017
G1 X148.104 Y106.664 E2.2076
G1 X149.876 Y108.980 E2.3094
G1 X149.940 Y109.135 E2.3152
G1 X150.038 Y109.937 E2.3434
G1 X150.740 Y110.333 E2.3716
G1 X150.860 Y110.452 E2.3775
G1 X152.320 Y112.976 E2.4793
G1 X152.363 Y113.139 E2.4852
G1 X152.357 Y113.942 E2.5133
G1 X153.003 Y114.425 E2.5414
G1 X153.107 Y114.558 E2.5473
G1 X154.232 Y117.249 E2.6492
G1 X154.254 Y117.416 E2.6550
G1 X154.146 Y118.212 E2.6831
G1 X154.721 Y118.771 E2.7111
G1 X154.807 Y118.916 E2.7170
G1 X155.582 Y121.727 E2.8189
G1 X155.582 Y121.896 E2.8247
G1 X155.372 Y122.676 E2.8530
G1 X155.873 Y123.305 E2.8810
G1 X155.940 Y123.460 E2.8869
G1 X156.347 Y126.346 E2.9887
G1 X156.326 Y126.513 E2.9946
G1 X156.019 Y127.258 E3.0228
G1 X156.436 Y127.948 E3.0509
G1 X156.482 Y128.111 E3.0568
G1 X156.516 Y131.027 E3.1587
G1 X156.473 Y131.190 E3.1645
G1 X156.074 Y131.887 E3.1926
G1 X156.399 Y132.622 E3.2206
G1 X156.424 Y132.788 E3.2265
G1 X156.087 Y135.685 E3.3284
G1 X156.024 Y135.841 E3.3343
G1 X155.536 Y136.486 E3.3625
G1 X155.764 Y137.255 E3.3905
G1 X155.768 Y137.423 E3.3964
G1 X155.064 Y140.252 E3.4982
G1 X154.981 Y140.400 E3.5041
G1 X154.416 Y140.976 E3.5323
G1 X154.543 Y141.772 E3.5604
G1 X154.525 Y141.940 E3.5663
G1 X153.463 Y144.654 E3.6681
G1 X153.363 Y144.790 E3.6740
G1 X152.729 Y145.288 E3.7021
G1 X152.754 Y146.094 E3.7303
G1 X152.715 Y146.258 E3.7362
G1 X151.313 Y148.814 E3.8380
G1 X151.196 Y148.935 E3.8439
G1 X150.506 Y149.347 E3.8720
G1 X150.428 Y150.147 E3.9001
G1 X150.368 Y150.305 E3.9059
G1 X148.653 Y152.661 E4.0077
G1 X148.522 Y152.767 E4.0136
G1 X147.782 Y153.089 E4.0418
G1 X147.602 Y153.874 E4.0699
G1 X147.522 Y154.023 E4.0758
G1 X145.519 Y156.140 E4.1776
G1 X145.375 Y156.228 E4.1835
G1 X144.602 Y156.452 E4.2116
G1 X144.321 Y157.210 E4.2398
G1 X144.223 Y157.347 E4.2457
G1 X141.964 Y159.190 E4.3475
G1 X141.811 Y159.258 E4.3534
G1 X141.017 Y159.381 E4.3815
G1 X140.644 Y160.095 E4.4096
G1 X140.529 Y160.218 E4.4155
G1 X138.053 Y161.759 E4.5173
G1 X137.892 Y161.807 E4.5232
G1 X137.087 Y161.827 E4.5513
G1 X136.624 Y162.490 E4.5795
G1 X136.494 Y162.597 E4.5854
G1 X133.843 Y163.806 E4.6872
G1 X133.677 Y163.833 E4.6930
G1 X132.878 Y163.751 E4.7211
G1 X132.337 Y164.345 E4.7492
G1 X132.195 Y164.436 E4.7551
G1 X129.412 Y165.299 E4.8568
G1 X129.244 Y165.305 E4.8627
G1 X128.456 Y165.121 E4.8910
G1 X127.840 Y165.643 E4.9192
G1 X127.688 Y165.715 E4.9250
G1 X124.817 Y166.213 E5.0268
G1 X124.649 Y166.197 E5.0327
G1 X123.895 Y165.914 E5.0608
G1 X123.218 Y166.353 E5.0890
G1 X123.057 Y166.405 E5.0949
G1 X120.146 Y166.530 E5.1967
G1 X119.982 Y166.493 E5.2026
G1 X119.272 Y166.117 E5.2306
G1 X118.548 Y166.465 E5.2587
G1 X118.382 Y166.495 E5.2645
G1 X115.477 Y166.252 E5.3664
G1 X115.319 Y166.195 E5.3722
G1 X114.658 Y165.728 E5.4005
G1 X113.895 Y165.980 E5.4286
G1 X113.727 Y165.989 E5.4344
G1 X110.878 Y165.375 E5.5362
G1 X110.728 Y165.298 E5.5421
G1 X110.134 Y164.751 E5.5703
G1 X109.344 Y164.904 E5.5984
G1 X109.175 Y164.892 E5.6043
G1 X106.427 Y163.917 E5.7061
G1 X106.289 Y163.821 E5.7120
G1 X105.772 Y163.205 E5.7401
G1 X104.968 Y163.256 E5.7682
G1 X104.803 Y163.222 E5.7741
G1 X102.202 Y161.904 E5.8760
G1 X102.077 Y161.791 E5.8818
G1 X101.642 Y161.113 E5.9100
G1 X100.837 Y161.060 E5.9382
G1 X100.677 Y161.005 E5.9441
G1 X98.268 Y159.364 E6.0458
G1 X98.159 Y159.236 E6.0517
G1 X97.815 Y158.509 E6.0798
G1 X97.022 Y158.353 E6.1080
G1 X96.871 Y158.279 E6.1139
G1 X94.692 Y156.343 E6.2157
G1 X94.600 Y156.203 E6.2216
G1 X94.352 Y155.438 E6.2496
G1 X93.588 Y155.183 E6.2778
G1 X93.448 Y155.090 E6.2836
G1 X91.532 Y152.894 E6.3854
G1 X91.459 Y152.742 E6.3913
G1 X91.310 Y151.949 E6.4195
G1 X90.588 Y151.601 E6.4475
G1 X90.461 Y151.491 E6.4533
G1 X88.839 Y149.070 E6.5551
G1 X88.785 Y148.910 E6.5610
G1 X88.738 Y148.100 E6.5893
G1 X88.064 Y147.660 E6.6175
G1 X87.952 Y147.534 E6.6233
G1 X86.656 Y144.924 E6.7251
G1 X86.623 Y144.758 E6.7310
G1 X86.680 Y143.954 E6.7591
G1 X86.069 Y143.433 E6.7872
G1 X85.974 Y143.294 E6.7931
G1 X85.021 Y140.538 E6.8949
G1 X85.010 Y140.370 E6.9008
G1 X85.169 Y139.579 E6.9290
G1 X84.632 Y138.986 E6.9569
G1 X84.555 Y138.836 E6.9628
G1 X83.961 Y135.982 E7.0646
G1 X83.971 Y135.814 E7.0705
G1 X84.231 Y135.046 E7.0988
G1 X83.769 Y134.382 E7.1271
G1 X83.713 Y134.223 E7.1330
G1 X83.494 Y131.316 E7.2348
G1 X83.526 Y131.151 E7.2406
G1 X83.879 Y130.431 E7.2686
G1 X83.507 Y129.716 E7.2968
G1 X83.471 Y129.551 E7.3027
G1 X83.625 Y126.639 E7.4045
G1 X83.678 Y126.479 E7.4104
G1 X84.121 Y125.808 E7.4385
G1 X83.844 Y125.053 E7.4666
G1 X83.829 Y124.885 E7.4725
G1 X84.352 Y122.018 E7.5742
G1 X84.425 Y121.866 E7.5801
G1 X84.952 Y121.255 E7.6083
G1 X84.773 Y120.465 E7.6366
G1 X84.781 Y120.296 E7.6425
G1 X85.670 Y117.521 E7.7443
G1 X85.761 Y117.380 E7.7501
G1 X86.359 Y116.845 E7.7781
G1 X86.282 Y116.043 E7.8063
G1 X86.311 Y115.876 E7.8122
G1 X87.545 Y113.236 E7.9140
G1 X87.653 Y113.108 E7.9198
G1 X88.317 Y112.651 E7.9480
G1 X88.344 Y111.849 E7.9760
G1 X88.393 Y111.688 E7.9819
G1 X89.952 Y109.225 E8.0837
G1 X90.077 Y109.111 E8.0896
G1 X90.796 Y108.742 E8.1178
G1 X90.925 Y107.949 E8.1459
G1 X90.994 Y107.796 E8.1517
G1 X92.856 Y105.553 E8.2535
G1 X92.993 Y105.456 E8.2594
G1 X93.754 Y105.181 E8.2876
G1 X93.984 Y104.409 E8.3158
G1 X94.073 Y104.266 E8.3217
G1 X94.400 Y104.535 F4800
G92 E0
G1 X96.453 Y102.626 E0.0979 F1260
G1 X96.503 Y102.600 E0.0999
G1 X97.442 Y102.393 E0.1334
G1 X97.831 Y101.516 E0.1669
G1 X97.866 Y101.472 E0.1689
G1 X100.146 Y99.841 E0.2668
G1 X100.199 Y99.821 E0.2688
G1 X101.157 Y99.735 E0.3024
G1 X101.656 Y98.913 E0.3360
G1 X101.697 Y98.874 E0.3379
G1 X104.167 Y97.549 E0.4358
G1 X104.222 Y97.537 E0.4378
G1 X105.182 Y97.574 E0.4713
G1 X105.783 Y96.822 E0.5049
G1 X105.828 Y96.789 E0.5069
G1 X108.448 Y95.792 E0.6048
G1 X108.504 Y95.786 E0.6068
G1 X109.451 Y95.946 E0.6403
G1 X110.140 Y95.280 E0.6738
G1 X110.189 Y95.253 E0.6757
G1 X112.913 Y94.594 E0.7736
G1 X112.969 Y94.596 E0.7756
G1 X113.892 Y94.876 E0.8092
G1 X114.662 Y94.302 E0.8428
G1 X114.714 Y94.282 E0.8447
G1 X117.499 Y93.979 E0.9426
G1 X117.555 Y93.988 E0.9445
G1 X118.434 Y94.383 E0.9782
G1 X119.268 Y93.914 E1.0116
G1 X119.322 Y93.900 E1.0136
G1 X122.056 Y93.952 E1.1091
G1 X122.108 Y93.966 E1.1110
G1 X122.989 Y94.481 E1.1466
G1 X123.891 Y94.117 E1.1806
G1 X123.947 Y94.110 E1.1825
G1 X126.717 Y94.522 E1.2803
G1 X126.769 Y94.545 E1.2823
G1 X127.520 Y95.151 E1.3160
G1 X128.448 Y94.909 E1.3495
G1 X128.504 Y94.909 E1.3515
G1 X131.201 Y95.674 E1.4494
G1 X131.250 Y95.703 E1.4514
G1 X131.920 Y96.404 E1.4852
G1 X132.721 Y96.285 E1.5135
G1 X132.775 Y96.291 E1.5154
G1 X135.344 Y97.278 E1.6115
G1 X135.389 Y97.311 E1.6135
G1 X136.101 Y98.199 E1.6532
G1 X137.075 Y98.200 E1.6872
G1 X137.129 Y98.214 E1.6892
G1 X139.542 Y99.638 E1.7871
G1 X139.581 Y99.679 E1.7890
G1 X140.048 Y100.520 E1.8226
G1 X141.002 Y100.644 E1.8562
G1 X141.054 Y100.666 E1.8582
G1 X143.265 Y102.388 E1.9560
G1 X143.299 Y102.433 E1.9580
G1 X143.654 Y103.326 E1.9916
G1 X144.580 Y103.569 E2.0250
G1 X144.629 Y103.597 E2.0270
G1 X146.604 Y105.586 E2.1249
G1 X146.632 Y105.635 E2.1268
G1 X146.871 Y106.569 E2.1605
G1 X147.760 Y106.930 E2.1941
G1 X147.805 Y106.964 E2.1960
G1 X149.509 Y109.190 E2.2939
G1 X149.530 Y109.242 E2.2959
G1 X149.647 Y110.198 E2.3295
G1 X150.485 Y110.671 E2.3631
G1 X150.525 Y110.711 E2.3651
G1 X151.928 Y113.138 E2.4630
G1 X151.942 Y113.192 E2.4649
G1 X151.936 Y114.151 E2.4984
G1 X152.707 Y114.728 E2.5321
G1 X152.741 Y114.772 E2.5340
G1 X153.823 Y117.359 E2.6319
G1 X153.830 Y117.415 E2.6339
G1 X153.701 Y118.366 E2.6674
G1 X154.389 Y119.033 E2.7009
G1 X154.417 Y119.081 E2.7029
G1 X155.162 Y121.785 E2.8008
G1 X155.162 Y121.841 E2.8027
G1 X154.912 Y122.772 E2.8364
G1 X155.510 Y123.523 E2.8699
G1 X155.532 Y123.574 E2.8719
G1 X155.924 Y126.349 E2.9698
G1 X155.917 Y126.405 E2.9717
G1 X155.550 Y127.294 E3.0053
G1 X156.047 Y128.118 E3.0389
G1 X156.063 Y128.172 E3.0409
G1 X156.095 Y130.975 E3.1388
G1 X156.081 Y131.030 E3.1408
G1 X155.604 Y131.863 E3.1743
G1 X155.992 Y132.740 E3.2078
G1 X156.000 Y132.796 E3.2097
G1 X155.676 Y135.580 E3.3076
G1 X155.655 Y135.632 E3.3096
G1 X155.074 Y136.401 E3.3433
G1 X155.346 Y137.320 E3.3767
G1 X155.347 Y137.376 E3.3787
G1 X154.670 Y140.096 E3.4766
G1 X154.642 Y140.146 E3.4786
G1 X153.967 Y140.834 E3.5122
G1 X154.120 Y141.783 E3.5458
G1 X154.114 Y141.839 E3.5478
G1 X153.092 Y144.449 E3.6457
G1 X153.059 Y144.494 E3.6476
G1 X152.303 Y145.089 E3.6812
G1 X152.332 Y146.051 E3.7148
G1 X152.319 Y146.106 E3.7168
