; G-Code generated by Simplify3D(R) Version 4.0.0
; Dec 28, 2017 at 9:24:16 AM
; Settings Summary
;   processName,Process1
;   applyToModels,LCD Bracket Graphical,LCD Bracket Graphical(3),LCD Bracket Graphical(4),LCD Bracket Graphical(5),LCD Bracket Graphical(5)(2)
;   profileName,XL PRUSA (modified)
;   profileVersion,2017-06-14 11:58:57
;   baseProfile,Default (modified)
;   printMaterial,ABS
;   printQuality,Medium
;   printExtruders,
;   extruderName,Primary Extruder
;   extruderToolheadNumber,0
;   extruderDiameter,0.5
;   extruderAutoWidth,0
;   extruderWidth,0.54
;   extrusionMultiplier,1
;   extruderUseRetract,1
;   extruderRetractionDistance,1.4
;   extruderExtraRestartDistance,0
;   extruderRetractionZLift,0
;   extruderRetractionSpeed,3000
;   extruderUseCoasting,0
;   extruderCoastingDistance,0.2
;   extruderUseWipe,0
;   extruderWipeDistance,5
;   primaryExtruder,0
;   layerHeight,0.2
;   topSolidLayers,3
;   bottomSolidLayers,3
;   perimeterOutlines,2
;   printPerimetersInsideOut,1
;   startPointOption,2
;   startPointOriginX,0
;   startPointOriginY,0
;   sequentialIslands,0
;   spiralVaseMode,0
;   firstLayerHeightPercentage,100
;   firstLayerWidthPercentage,100
;   firstLayerUnderspeed,0.5
;   useRaft,0
;   raftExtruder,0
;   raftTopLayers,3
;   raftBaseLayers,2
;   raftOffset,3
;   raftSeparationDistance,0.14
;   raftTopInfill,100
;   aboveRaftSpeedMultiplier,0.3
;   useSkirt,1
;   skirtExtruder,0
;   skirtLayers,1
;   skirtOutlines,2
;   skirtOffset,4
;   usePrimePillar,0
;   primePillarExtruder,999
;   primePillarWidth,12
;   primePillarLocation,7
;   primePillarSpeedMultiplier,1
;   useOozeShield,0
;   oozeShieldExtruder,999
;   oozeShieldOffset,2
;   oozeShieldOutlines,1
;   oozeShieldSidewallShape,1
;   oozeShieldSidewallAngle,30
;   oozeShieldSpeedMultiplier,1
;   infillExtruder,0
;   internalInfillPattern,Rectilinear
;   externalInfillPattern,Rectilinear
;   infillPercentage,30
;   outlineOverlapPercentage,20
;   infillExtrusionWidthPercentage,140
;   minInfillLength,6
;   infillLayerInterval,1
;   internalInfillAngles,45,-45
;   overlapInternalInfillAngles,0
;   externalInfillAngles,45,-45
;   generateSupport,0
;   supportExtruder,0
;   supportInfillPercentage,25
;   supportExtraInflation,0
;   supportBaseLayers,0
;   denseSupportExtruder,0
;   denseSupportLayers,0
;   denseSupportInfillPercentage,70
;   supportLayerInterval,1
;   supportHorizontalPartOffset,0.5
;   supportUpperSeparationLayers,1
;   supportLowerSeparationLayers,1
;   supportType,0
;   supportGridSpacing,3
;   maxOverhangAngle,45
;   supportAngles,0
;   temperatureName,Primary Extruder,Heat Bed
;   temperatureNumber,0,0
;   temperatureSetpointCount,1,1
;   temperatureSetpointLayers,1,1
;   temperatureSetpointTemperatures,245,80
;   temperatureStabilizeAtStartup,1,1
;   temperatureHeatedBed,0,1
;   temperatureRelayBetweenLayers,0,0
;   temperatureRelayBetweenLoops,0,0
;   fanLayers,1
;   fanSpeeds,0
;   blipFanToFullPower,0
;   adjustSpeedForCooling,1
;   minSpeedLayerTime,30
;   minCoolingSpeedSlowdown,40
;   increaseFanForCooling,0
;   minFanLayerTime,45
;   maxCoolingFanSpeed,100
;   increaseFanForBridging,0
;   bridgingFanSpeed,100
;   use5D,1
;   relativeEdistances,0
;   allowEaxisZeroing,1
;   independentExtruderAxes,0
;   includeM10123,0
;   stickySupport,1
;   applyToolheadOffsets,0
;   gcodeXoffset,0
;   gcodeYoffset,0
;   gcodeZoffset,0
;   overrideMachineDefinition,1
;   machineTypeOverride,0
;   strokeXoverride,240
;   strokeYoverride,260
;   strokeZoverride,200
;   originOffsetXoverride,0
;   originOffsetYoverride,0
;   originOffsetZoverride,0
;   homeXdirOverride,-1
;   homeYdirOverride,-1
;   homeZdirOverride,-1
;   flipXoverride,1
;   flipYoverride,-1
;   flipZoverride,1
;   toolheadOffsets,0,0|0,0|0,0|0,0|0,0|0,0
;   overrideFirmwareConfiguration,0
;   firmwareTypeOverride,RepRap (Marlin/Repetier/Sprinter)
;   GPXconfigOverride,r2
;   baudRateOverride,115200
;   overridePrinterModels,0
;   printerModelsOverride
;   startingGcode,M80 ;,G28 ; home all axes,G29 L ;,G29 A ;,,,
;   layerChangeGcode,
;   retractionGcode,
;   toolChangeGcode,
;   endingGcode,G91 ;,G1 Z5 ;,G28 X ;,M104 S0 ; turn off extruder,M140 S0 ; turn off bed,M84 ; disable motors,M81 ;,
;   exportFileFormat,gcode
;   celebration,0
;   celebrationSong,Random Song
;   postProcessing,
;   defaultSpeed,2400
;   outlineUnderspeed,0.8
;   solidInfillUnderspeed,0.8
;   supportUnderspeed,1
;   rapidXYspeed,3600
;   rapidZspeed,1200
;   minBridgingArea,50
;   bridgingExtraInflation,0
;   bridgingExtrusionMultiplier,1
;   bridgingSpeedMultiplier,1
;   useFixedBridgingAngle,0
;   fixedBridgingAngle,0
;   applyBridgingToPerimeters,0
;   filamentDiameters,1.75|1.75|1.75|1.75|1.75|1.75
;   filamentPricesPerKg,153|153|153|153|153|153
;   filamentDensities,1.06|1.06|1.06|1.06|1.06|1.06
;   useMinPrintHeight,0
;   minPrintHeight,0
;   useMaxPrintHeight,0
;   maxPrintHeight,148.6
;   useDiaphragm,0
;   diaphragmLayerInterval,20
;   robustSlicing,1
;   mergeAllIntoSolid,0
;   onlyRetractWhenCrossingOutline,1
;   retractBetweenLayers,1
;   useRetractionMinTravel,0
;   retractionMinTravel,3
;   retractWhileWiping,0
;   onlyWipeOutlines,1
;   avoidCrossingOutline,0
;   maxMovementDetourFactor,3
;   toolChangeRetractionDistance,12
;   toolChangeExtraRestartDistance,-0.5
;   toolChangeRetractionSpeed,12
;   externalThinWallType,1
;   internalThinWallType,1
;   thinWallAllowedOverlapPercentage,50
;   singleExtrusionMinLength,1
;   singleExtrusionMinPrintingWidthPercentage,50
;   singleExtrusionMaxPrintingWidthPercentage,200
;   singleExtrusionEndpointExtension,0.2
;   horizontalSizeCompensation,0
G90
M82
M106 S0
M140 S80
M190 S80
M104 S245 T0
M109 S245 T0
M80 ;
G28 ; home all axes
G29 L ;
G29 A ;
G92 E0
G1 E-1.4000 F3000
G1 Z0.200 F1200
; process Process1
; layer 1, Z = 0.200
T0
; tool H0.200 W0.540
; skirt
G1 X51.313 Y25.384 F3600
G1 E0.0000 F900
G92 E0
G1 X53.884 Y22.813 E0.1633 F1200
G1 X54.182 Y22.690 E0.1777
G1 X185.818 Y22.690 E6.0883
G1 X186.116 Y22.813 E6.1028
G1 X188.687 Y25.384 E6.2661
G1 X188.810 Y25.682 E6.2805
G1 X188.810 Y34.318 E6.6683
G1 X188.687 Y34.616 E6.6828
G1 X187.702 Y35.600 E6.7453
G1 X188.687 Y36.584 E6.8078
G1 X188.810 Y36.882 E6.8222
G1 X188.810 Y45.318 E7.2010
G1 X188.735 Y45.500 E7.2099
G1 X188.810 Y45.682 E7.2187
G1 X188.810 Y54.318 E7.6065
G1 X188.687 Y54.616 E7.6210
G1 X187.702 Y55.600 E7.6835
G1 X188.687 Y56.584 E7.7460
G1 X188.810 Y56.882 E7.7604
G1 X188.810 Y66.318 E8.1841
G1 X188.687 Y66.616 E8.1986
G1 X188.302 Y67.000 E8.2230
G1 X188.687 Y67.384 E8.2474
G1 X188.810 Y67.682 E8.2619
G1 X188.810 Y76.318 E8.6496
G1 X188.687 Y76.616 E8.6641
G1 X187.702 Y77.600 E8.7266
G1 X188.687 Y78.584 E8.7891
G1 X188.810 Y78.882 E8.8036
G1 X188.810 Y87.318 E9.1824
G1 X188.735 Y87.500 E9.1912
G1 X188.810 Y87.682 E9.2000
G1 X188.810 Y96.318 E9.5878
G1 X188.687 Y96.616 E9.6023
G1 X187.702 Y97.600 E9.6648
G1 X188.687 Y98.584 E9.7273
G1 X188.810 Y98.882 E9.7418
G1 X188.810 Y108.318 E10.1654
G1 X188.687 Y108.616 E10.1799
G1 X188.302 Y109.000 E10.2043
G1 X188.687 Y109.384 E10.2287
G1 X188.810 Y109.682 E10.2432
G1 X188.810 Y118.318 E10.6310
G1 X188.687 Y118.616 E10.6454
G1 X187.702 Y119.600 E10.7079
G1 X188.687 Y120.584 E10.7704
G1 X188.810 Y120.882 E10.7849
G1 X188.810 Y129.318 E11.1637
G1 X188.735 Y129.500 E11.1725
G1 X188.810 Y129.682 E11.1814
G1 X188.810 Y138.318 E11.5691
G1 X188.687 Y138.616 E11.5836
G1 X187.702 Y139.600 E11.6461
G1 X188.687 Y140.584 E11.7086
G1 X188.810 Y140.882 E11.7231
G1 X188.810 Y150.318 E12.1468
G1 X188.687 Y150.616 E12.1612
G1 X188.302 Y151.000 E12.1856
G1 X188.687 Y151.384 E12.2100
G1 X188.810 Y151.682 E12.2245
G1 X188.810 Y160.318 E12.6123
G1 X188.687 Y160.616 E12.6267
G1 X187.702 Y161.600 E12.6893
G1 X188.687 Y162.584 E12.7518
G1 X188.810 Y162.882 E12.7662
G1 X188.810 Y171.318 E13.1450
G1 X188.735 Y171.500 E13.1539
G1 X188.810 Y171.682 E13.1627
G1 X188.810 Y180.318 E13.5505
G1 X188.687 Y180.616 E13.5649
G1 X187.702 Y181.600 E13.6274
G1 X188.687 Y182.584 E13.6899
G1 X188.810 Y182.882 E13.7044
G1 X188.810 Y192.318 E14.1281
G1 X188.687 Y192.616 E14.1426
G1 X188.302 Y193.000 E14.1670
G1 X188.687 Y193.384 E14.1914
G1 X188.810 Y193.682 E14.2058
G1 X188.810 Y202.318 E14.5936
G1 X188.687 Y202.616 E14.6081
G1 X187.702 Y203.600 E14.6706
G1 X188.687 Y204.584 E14.7331
G1 X188.810 Y204.882 E14.7476
G1 X188.810 Y213.318 E15.1263
G1 X188.735 Y213.500 E15.1352
G1 X188.810 Y213.682 E15.1440
G1 X188.810 Y222.318 E15.5318
G1 X188.687 Y222.616 E15.5463
G1 X187.702 Y223.600 E15.6088
G1 X188.687 Y224.584 E15.6713
G1 X188.810 Y224.882 E15.6857
G1 X188.810 Y234.318 E16.1094
G1 X188.687 Y234.616 E16.1239
G1 X186.116 Y237.187 E16.2872
G1 X185.818 Y237.310 E16.3016
G1 X54.182 Y237.310 E22.2122
G1 X53.884 Y237.187 E22.2267
G1 X51.313 Y234.616 E22.3900
G1 X51.190 Y234.318 E22.4044
G1 X51.190 Y213.682 E23.3310
G1 X51.265 Y213.500 E23.3399
G1 X51.190 Y213.318 E23.3487
G1 X51.190 Y193.682 E24.2304
G1 X51.313 Y193.384 E24.2448
G1 X51.698 Y193.000 E24.2693
G1 X51.313 Y192.616 E24.2937
G1 X51.190 Y192.318 E24.3081
G1 X51.190 Y171.682 E25.2347
G1 X51.265 Y171.500 E25.2435
G1 X51.190 Y171.318 E25.2524
G1 X51.190 Y151.682 E26.1341
G1 X51.313 Y151.384 E26.1485
G1 X51.698 Y151.000 E26.1729
G1 X51.313 Y150.616 E26.1974
G1 X51.190 Y150.318 E26.2118
G1 X51.190 Y129.682 E27.1384
G1 X51.265 Y129.500 E27.1472
G1 X51.190 Y129.318 E27.1561
G1 X51.190 Y109.682 E28.0378
G1 X51.313 Y109.384 E28.0522
G1 X51.698 Y109.000 E28.0766
G1 X51.313 Y108.616 E28.1010
G1 X51.190 Y108.318 E28.1155
G1 X51.190 Y87.682 E29.0421
G1 X51.265 Y87.500 E29.0509
G1 X51.190 Y87.318 E29.0598
G1 X51.190 Y67.682 E29.9415
G1 X51.313 Y67.384 E29.9559
G1 X51.698 Y67.000 E29.9803
G1 X51.313 Y66.616 E30.0047
G1 X51.190 Y66.318 E30.0192
G1 X51.190 Y45.682 E30.9458
G1 X51.265 Y45.500 E30.9546
G1 X51.190 Y45.318 E30.9635
G1 X51.190 Y25.682 E31.8452
G1 X51.313 Y25.384 E31.8596
G1 X51.771 Y25.690 F3600
G92 E0
G1 X54.190 Y23.271 E0.1536 F1200
G1 X54.289 Y23.230 E0.1584
G1 X185.711 Y23.230 E6.0594
G1 X185.810 Y23.271 E6.0642
G1 X188.229 Y25.690 E6.2178
G1 X188.270 Y25.789 E6.2227
G1 X188.270 Y34.211 E6.6008
G1 X188.229 Y34.310 E6.6056
G1 X186.939 Y35.600 E6.6875
G1 X188.229 Y36.890 E6.7695
G1 X188.270 Y36.989 E6.7743
G1 X188.270 Y45.211 E7.1434
G1 X188.229 Y45.310 E7.1482
G1 X188.039 Y45.500 E7.1603
G1 X188.229 Y45.690 E7.1724
G1 X188.270 Y45.789 E7.1772
G1 X188.270 Y54.211 E7.5553
G1 X188.229 Y54.310 E7.5602
G1 X186.939 Y55.600 E7.6421
G1 X188.229 Y56.890 E7.7240
G1 X188.270 Y56.989 E7.7288
G1 X188.270 Y66.211 E8.1429
G1 X188.229 Y66.310 E8.1477
G1 X187.539 Y67.000 E8.1915
G1 X188.229 Y67.690 E8.2354
G1 X188.270 Y67.789 E8.2402
G1 X188.270 Y76.211 E8.6183
G1 X188.229 Y76.310 E8.6231
G1 X186.939 Y77.600 E8.7050
G1 X188.229 Y78.890 E8.7870
G1 X188.270 Y78.989 E8.7918
G1 X188.270 Y87.211 E9.1609
G1 X188.229 Y87.310 E9.1658
G1 X188.039 Y87.500 E9.1778
G1 X188.229 Y87.690 E9.1899
G1 X188.270 Y87.789 E9.1947
G1 X188.270 Y96.211 E9.5729
G1 X188.229 Y96.310 E9.5777
G1 X186.939 Y97.600 E9.6596
G1 X188.229 Y98.890 E9.7415
G1 X188.270 Y98.989 E9.7464
G1 X188.270 Y108.211 E10.1604
G1 X188.229 Y108.310 E10.1652
G1 X187.539 Y109.000 E10.2090
G1 X188.229 Y109.690 E10.2529
G1 X188.270 Y109.789 E10.2577
G1 X188.270 Y118.211 E10.6358
G1 X188.229 Y118.310 E10.6406
G1 X186.939 Y119.600 E10.7226
G1 X188.229 Y120.890 E10.8045
G1 X188.270 Y120.989 E10.8093
G1 X188.270 Y129.211 E11.1785
G1 X188.229 Y129.310 E11.1833
G1 X188.039 Y129.500 E11.1954
G1 X188.229 Y129.690 E11.2074
G1 X188.270 Y129.789 E11.2123
G1 X188.270 Y138.211 E11.5904
G1 X188.229 Y138.310 E11.5952
G1 X186.939 Y139.600 E11.6771
G1 X188.229 Y140.890 E11.7591
G1 X188.270 Y140.989 E11.7639
G1 X188.270 Y150.211 E12.1779
G1 X188.229 Y150.310 E12.1827
G1 X187.539 Y151.000 E12.2266
G1 X188.229 Y151.690 E12.2704
G1 X188.270 Y151.789 E12.2752
G1 X188.270 Y160.211 E12.6533
G1 X188.229 Y160.310 E12.6582
G1 X186.939 Y161.600 E12.7401
G1 X188.229 Y162.890 E12.8220
G1 X188.270 Y162.989 E12.8268
G1 X188.270 Y171.211 E13.1960
G1 X188.229 Y171.310 E13.2008
G1 X188.039 Y171.500 E13.2129
G1 X188.229 Y171.690 E13.2250
G1 X188.270 Y171.789 E13.2298
G1 X188.270 Y180.211 E13.6079
G1 X188.229 Y180.310 E13.6127
G1 X186.939 Y181.600 E13.6946
G1 X188.229 Y182.890 E13.7766
G1 X188.270 Y182.989 E13.7814
G1 X188.270 Y192.211 E14.1954
G1 X188.229 Y192.310 E14.2003
G1 X187.539 Y193.000 E14.2441
G1 X188.229 Y193.690 E14.2879
G1 X188.270 Y193.789 E14.2927
G1 X188.270 Y202.211 E14.6709
G1 X188.229 Y202.310 E14.6757
G1 X186.939 Y203.600 E14.7576
G1 X188.229 Y204.890 E14.8395
G1 X188.270 Y204.989 E14.8444
G1 X188.270 Y213.211 E15.2135
G1 X188.229 Y213.310 E15.2183
G1 X188.039 Y213.500 E15.2304
G1 X188.229 Y213.690 E15.2425
G1 X188.270 Y213.789 E15.2473
G1 X188.270 Y222.211 E15.6254
G1 X188.229 Y222.310 E15.6302
G1 X186.939 Y223.600 E15.7122
G1 X188.229 Y224.890 E15.7941
G1 X188.270 Y224.989 E15.7989
G1 X188.270 Y234.211 E16.2130
G1 X188.229 Y234.310 E16.2178
G1 X185.810 Y236.729 E16.3714
G1 X185.711 Y236.770 E16.3762
G1 X54.289 Y236.770 E22.2772
G1 X54.190 Y236.729 E22.2820
G1 X51.771 Y234.310 E22.4356
G1 X51.730 Y234.211 E22.4404
G1 X51.730 Y213.789 E23.3574
G1 X51.771 Y213.690 E23.3622
G1 X51.961 Y213.500 E23.3743
G1 X51.771 Y213.310 E23.3863
G1 X51.730 Y213.211 E23.3912
G1 X51.730 Y193.789 E24.2632
G1 X51.771 Y193.690 E24.2680
G1 X52.461 Y193.000 E24.3118
G1 X51.771 Y192.310 E24.3557
G1 X51.730 Y192.211 E24.3605
G1 X51.730 Y171.789 E25.2774
G1 X51.771 Y171.690 E25.2823
G1 X51.961 Y171.500 E25.2943
G1 X51.771 Y171.310 E25.3064
G1 X51.730 Y171.211 E25.3112
G1 X51.730 Y151.789 E26.1833
G1 X51.771 Y151.690 E26.1881
G1 X52.461 Y151.000 E26.2319
G1 X51.771 Y150.310 E26.2757
G1 X51.730 Y150.211 E26.2806
G1 X51.730 Y129.789 E27.1975
G1 X51.771 Y129.690 E27.2023
G1 X51.961 Y129.500 E27.2144
G1 X51.771 Y129.310 E27.2265
G1 X51.730 Y129.211 E27.2313
G1 X51.730 Y109.789 E28.1033
G1 X51.771 Y109.690 E28.1082
G1 X52.461 Y109.000 E28.1520
G1 X51.771 Y108.310 E28.1958
G1 X51.730 Y108.211 E28.2006
G1 X51.730 Y87.789 E29.1176
G1 X51.771 Y87.690 E29.1224
G1 X51.961 Y87.500 E29.1345
G1 X51.771 Y87.310 E29.1465
G1 X51.730 Y87.211 E29.1514
G1 X51.730 Y67.789 E30.0234
G1 X51.771 Y67.690 E30.0282
G1 X52.461 Y67.000 E30.0720
G1 X51.771 Y66.310 E30.1159
G1 X51.730 Y66.211 E30.1207
G1 X51.730 Y45.789 E31.0376
G1 X51.771 Y45.690 E31.0425
G1 X51.961 Y45.500 E31.0545
G1 X51.771 Y45.310 E31.0666
G1 X51.730 Y45.211 E31.0714
G1 X51.730 Y25.789 E31.9435
G1 X51.771 Y25.690 E31.9483
G92 E0
G1 E-1.4000 F3000
; inner perimeter
G1 X56.810 Y28.310 F3600
G1 E0.0000 F3000
G92 E0
G1 X183.190 Y28.310 E5.6746 F1080
G1 X183.190 Y31.690 E5.8264
G1 X157.590 Y31.690 E6.9758
G1 X157.590 Y39.510 E7.3270
G1 X183.190 Y39.510 E8.4764
G1 X183.190 Y42.690 E8.6192
G1 X56.810 Y42.690 E14.2938
G1 X56.810 Y28.310 E14.9395
; outer perimeter
G1 X56.270 Y27.770 F3600
G92 E0
G1 X183.730 Y27.770 E5.7231 F960
G1 X183.730 Y32.230 E5.9234
G1 X158.130 Y32.230 E7.0728
G1 X158.130 Y38.970 E7.3755
G1 X183.730 Y38.970 E8.5249
G1 X183.730 Y43.230 E8.7162
G1 X56.270 Y43.230 E14.4393
G1 X56.270 Y27.770 E15.1335
; solid layer
G1 X57.242 Y42.041 F3600
G92 E0
G1 X57.459 Y42.258 E0.0138 F960
G1 X58.223 Y42.258 E0.0481
G1 X57.242 Y41.277 E0.1104
G1 X57.242 Y40.513 E0.1447
G1 X58.987 Y42.258 E0.2555
G1 X59.750 Y42.258 E0.2897
G1 X57.242 Y39.750 E0.4490
G1 X57.242 Y38.986 E0.4833
G1 X60.514 Y42.258 E0.6911
G1 X61.278 Y42.258 E0.7254
G1 X57.242 Y38.222 E0.9816
G1 X57.242 Y37.459 E1.0159
G1 X62.041 Y42.258 E1.3207
G1 X62.805 Y42.258 E1.3550
G1 X57.242 Y36.695 E1.7082
G1 X57.242 Y35.931 E1.7425
G1 X63.569 Y42.258 E2.1443
G1 X64.332 Y42.258 E2.1786
G1 X57.242 Y35.168 E2.6288
G1 X57.242 Y34.404 E2.6631
G1 X65.096 Y42.258 E3.1618
G1 X65.860 Y42.258 E3.1961
G1 X57.242 Y33.640 E3.7433
G1 X57.242 Y32.877 E3.7776
G1 X66.623 Y42.258 E4.3733
G1 X67.387 Y42.258 E4.4076
G1 X57.242 Y32.113 E5.0518
G1 X57.242 Y31.349 E5.0861
G1 X68.151 Y42.258 E5.7788
G1 X68.914 Y42.258 E5.8131
G1 X57.242 Y30.586 E6.5543
G1 X57.242 Y29.822 E6.5886
G1 X69.678 Y42.258 E7.3783
