; G-Code generated by Simplify3D(R) Version 3.1.1
; Jun 28, 2017 at 1:02:22 PM
; Settings Summary
;   processName,Process1
;   applyToModels,Ramps Fan Mount 60mm,Ramps Fan Mount 60mm(2),Ramps Fan Mount 60mm(3),Ramps Fan Mount 60mm(4),Ramps Fan Mount 60mm(5),Ramps Fan Mount 60mm(2)(2),Ramps Fan Mount 60mm(3)(2),Ramps Fan Mount 60mm(4)(2),Ramps Fan Mount 60mm(6),Ramps Fan Mount 60mm(2)(3),Ramps Fan Mount 60mm(3)(3),Ramps Fan Mount 60mm(4)(3),Ramps Fan Mount 60mm(5)(2),Ramps Fan Mount 60mm(2)(2)(2),Ramps Fan Mount 60mm(3)(2)(2),Ramps Fan Mount 60mm(4)(2)(2)
;   profileName,XL PRUSA (modified)
;   profileVersion,2017-06-23 14:23:57
;   baseProfile,Default (modified)
;   printMaterial,ABS
;   printQuality,Medium
;   printExtruders,
;   extruderName,Primary Extruder
;   extruderToolheadNumber,0
;   extruderDiameter,0.5
;   extruderAutoWidth,0
;   extruderWidth,0.54
;   extrusionMultiplier,1
;   extruderUseRetract,1
;   extruderRetractionDistance,1.4
;   extruderExtraRestartDistance,0
;   extruderRetractionZLift,0
;   extruderRetractionSpeed,3000
;   extruderUseCoasting,0
;   extruderCoastingDistance,0.2
;   extruderUseWipe,0
;   extruderWipeDistance,5
;   primaryExtruder,0
;   layerHeight,0.2
;   topSolidLayers,3
;   bottomSolidLayers,3
;   perimeterOutlines,2
;   printPerimetersInsideOut,1
;   startPointOption,2
;   startPointOriginX,0
;   startPointOriginY,0
;   startPointOriginZ,300
;   sequentialIslands,0
;   spiralVaseMode,0
;   firstLayerHeightPercentage,100
;   firstLayerWidthPercentage,100
;   firstLayerUnderspeed,0.5
;   useRaft,0
;   raftExtruder,0
;   raftLayers,3
;   raftOffset,3
;   raftSeparationDistance,0.14
;   raftInfill,85
;   disableRaftBaseLayers,0
;   useSkirt,1
;   skirtExtruder,0
;   skirtLayers,1
;   skirtOutlines,2
;   skirtOffset,4
;   usePrimePillar,0
;   primePillarExtruder,999
;   primePillarWidth,12
;   primePillarLocation,7
;   primePillarSpeedMultiplier,1
;   useOozeShield,0
;   oozeShieldExtruder,999
;   oozeShieldOffset,2
;   oozeShieldOutlines,1
;   oozeShieldSidewallShape,1
;   oozeShieldSidewallAngle,30
;   oozeShieldSpeedMultiplier,1
;   infillExtruder,0
;   internalInfillPattern,Rectilinear
;   externalInfillPattern,Rectilinear
;   infillPercentage,30
;   outlineOverlapPercentage,20
;   infillExtrusionWidthPercentage,140
;   minInfillLength,6
;   infillLayerInterval,1
;   infillAngles,45,-45
;   overlapInfillAngles,0
;   generateSupport,0
;   supportExtruder,0
;   supportInfillPercentage,25
;   supportExtraInflation,0
;   denseSupportLayers,0
;   denseSupportInfillPercentage,70
;   supportLayerInterval,1
;   supportHorizontalPartOffset,0.5
;   supportUpperSeparationLayers,1
;   supportLowerSeparationLayers,1
;   supportType,0
;   supportGridSpacing,3
;   maxOverhangAngle,45
;   supportAngles,0
;   temperatureName,Primary Extruder,Heat Bed
;   temperatureNumber,0,0
;   temperatureSetpointCount,1,1
;   temperatureSetpointLayers,1,1
;   temperatureSetpointTemperatures,245,90
;   temperatureStabilizeAtStartup,1,1
;   temperatureHeatedBed,0,1
;   temperatureRelayBetweenLayers,0,0
;   temperatureRelayBetweenLoops,0,0
;   fanLayers,1
;   fanSpeeds,0
;   blipFanToFullPower,0
;   adjustSpeedForCooling,1
;   minSpeedLayerTime,30
;   minCoolingSpeedSlowdown,40
;   increaseFanForCooling,0
;   minFanLayerTime,45
;   maxCoolingFanSpeed,100
;   increaseFanForBridging,0
;   bridgingFanSpeed,100
;   use5D,1
;   relativeEdistances,0
;   allowEaxisZeroing,1
;   independentExtruderAxes,0
;   includeM10123,0
;   stickySupport,1
;   applyToolheadOffsets,0
;   gcodeXoffset,0
;   gcodeYoffset,0
;   gcodeZoffset,0
;   overrideMachineDefinition,1
;   machineTypeOverride,0
;   strokeXoverride,240
;   strokeYoverride,260
;   strokeZoverride,200
;   originOffsetXoverride,0
;   originOffsetYoverride,0
;   originOffsetZoverride,0
;   homeXdirOverride,-1
;   homeYdirOverride,-1
;   homeZdirOverride,-1
;   flipXoverride,1
;   flipYoverride,-1
;   flipZoverride,1
;   toolheadOffsets,0,0|0,0|0,0|0,0|0,0|0,0
;   overrideFirmwareConfiguration,0
;   firmwareTypeOverride,RepRap (Marlin/Repetier/Sprinter)
;   GPXconfigOverride,r2
;   baudRateOverride,115200
;   overridePrinterModels,0
;   printerModelsOverride
;   startingGcode,M80 ;,G28 ; home all axes,G29 L ;,G29 A ;,,,
;   layerChangeGcode,
;   retractionGcode,
;   toolChangeGcode,
;   endingGcode,G91 ;,G1 Z5 ;,G28 X ;,M104 S0 ; turn off extruder,M140 S0 ; turn off bed,M84 ; disable motors,M81 ;,
;   exportFileFormat,gcode
;   celebration,0
;   celebrationSong,Random Song
;   postProcessing,
;   defaultSpeed,1800
;   outlineUnderspeed,0.8
;   solidInfillUnderspeed,0.8
;   supportUnderspeed,1
;   rapidXYspeed,3600
;   rapidZspeed,1200
;   minBridgingArea,50
;   bridgingExtraInflation,0
;   bridgingExtrusionMultiplier,1
;   bridgingSpeedMultiplier,1
;   filamentDiameter,1.75
;   filamentPricePerKg,153
;   filamentDensity,1.06
;   useMinPrintHeight,0
;   minPrintHeight,0
;   useMaxPrintHeight,0
;   maxPrintHeight,148.6
;   useDiaphragm,0
;   diaphragmLayerInterval,20
;   robustSlicing,1
;   mergeAllIntoSolid,0
;   onlyRetractWhenCrossingOutline,1
;   retractBetweenLayers,1
;   useRetractionMinTravel,0
;   retractionMinTravel,3
;   retractWhileWiping,0
;   onlyWipeOutlines,1
;   avoidCrossingOutline,0
;   maxMovementDetourFactor,3
;   toolChangeRetractionDistance,12
;   toolChangeExtraRestartDistance,-0.5
;   toolChangeRetractionSpeed,12
;   allowThinWallGapFill,1
;   thinWallAllowedOverlapPercentage,0
;   horizontalSizeCompensation,0
G90
M82
M106 S0
M140 S90
M190 S90
M104 S245 T0
M109 S245 T0
M80 ;
G28 ; home all axes
G29 L ;
G29 A ;
G92 E0
G1 E-1.4000 F3000
G1 Z0.200 F1200
; layer 1, Z = 0.2
T0
; tool H0.200 W0.540
; skirt
G1 X48.563 Y37.075 F3600
G1 E0.0000 F900
G92 E0
G1 X51.134 Y34.504 E0.1633 F900
G1 X51.432 Y34.380 E0.1777
G1 X117.068 Y34.380 E3.1249
G1 X117.366 Y34.504 E3.1393
G1 X119.743 Y36.880 E3.2903
G1 X122.119 Y34.504 E3.4412
G1 X122.417 Y34.380 E3.4557
G1 X188.053 Y34.380 E6.4028
G1 X188.351 Y34.504 E6.4173
G1 X190.922 Y37.075 E6.5805
G1 X191.045 Y37.372 E6.5950
G1 X191.045 Y66.569 E7.9060
G1 X192.005 Y67.529 E7.9669
G1 X192.094 Y67.662 E7.9741
G1 X192.764 Y69.280 E8.0527
G1 X192.795 Y69.436 E8.0599
G1 X192.795 Y76.194 E8.3633
G1 X192.764 Y76.351 E8.3705
G1 X192.094 Y77.968 E8.4491
G1 X192.005 Y78.101 E8.4563
G1 X189.396 Y80.710 E8.6220
G1 X189.263 Y80.799 E8.6291
G1 X187.646 Y81.469 E8.7077
G1 X187.489 Y81.500 E8.7149
G1 X183.638 Y81.500 E8.8879
G1 X183.638 Y85.190 E9.0535
G1 X188.004 Y85.190 E9.2496
G1 X188.161 Y85.221 E9.2568
G1 X189.778 Y85.891 E9.3354
G1 X189.911 Y85.980 E9.3425
G1 X191.770 Y87.839 E9.4606
G1 X191.859 Y87.972 E9.4678
G1 X192.529 Y89.589 E9.5464
G1 X192.560 Y89.746 E9.5535
G1 X192.560 Y98.004 E9.9243
G1 X192.529 Y98.161 E9.9315
G1 X191.859 Y99.778 E10.0101
G1 X191.770 Y99.911 E10.0173
G1 X191.560 Y100.121 E10.0306
G1 X191.560 Y129.318 E11.3416
G1 X191.437 Y129.616 E11.3561
G1 X190.795 Y130.257 E11.3968
G1 X190.922 Y130.384 E11.4049
G1 X191.045 Y130.682 E11.4194
G1 X191.045 Y159.879 E12.7303
G1 X192.005 Y160.839 E12.7913
G1 X192.094 Y160.972 E12.7985
G1 X192.764 Y162.589 E12.8771
G1 X192.795 Y162.746 E12.8843
G1 X192.795 Y169.504 E13.1877
G1 X192.764 Y169.661 E13.1949
G1 X192.094 Y171.278 E13.2735
G1 X192.005 Y171.411 E13.2807
G1 X189.396 Y174.020 E13.4463
G1 X189.263 Y174.109 E13.4535
G1 X187.646 Y174.779 E13.5321
G1 X187.489 Y174.810 E13.5393
G1 X183.638 Y174.810 E13.7122
G1 X183.638 Y178.500 E13.8779
G1 X188.004 Y178.500 E14.0740
G1 X188.161 Y178.531 E14.0811
G1 X189.778 Y179.201 E14.1597
G1 X189.911 Y179.290 E14.1669
G1 X191.770 Y181.149 E14.2850
G1 X191.859 Y181.282 E14.2921
G1 X192.529 Y182.899 E14.3708
G1 X192.560 Y183.056 E14.3779
G1 X192.560 Y191.314 E14.7487
G1 X192.529 Y191.470 E14.7559
G1 X191.859 Y193.088 E14.8345
G1 X191.770 Y193.221 E14.8417
G1 X191.560 Y193.431 E14.8550
G1 X191.560 Y222.628 E16.1660
G1 X191.437 Y222.925 E16.1805
G1 X188.866 Y225.496 E16.3437
G1 X188.568 Y225.620 E16.3582
G1 X122.932 Y225.620 E19.3053
G1 X122.634 Y225.496 E19.3198
G1 X120.257 Y223.120 E19.4707
G1 X117.881 Y225.496 E19.6217
G1 X117.583 Y225.620 E19.6361
G1 X51.947 Y225.620 E22.5833
G1 X51.649 Y225.496 E22.5977
G1 X49.078 Y222.925 E22.7610
G1 X48.955 Y222.628 E22.7754
G1 X48.955 Y193.431 E24.0864
G1 X47.995 Y192.471 E24.1474
G1 X47.906 Y192.338 E24.1546
G1 X47.236 Y190.720 E24.2332
G1 X47.205 Y190.564 E24.2403
G1 X47.205 Y183.806 E24.5438
G1 X47.236 Y183.649 E24.5510
G1 X47.906 Y182.032 E24.6296
G1 X47.995 Y181.899 E24.6367
G1 X50.604 Y179.290 E24.8024
G1 X50.737 Y179.201 E24.8096
G1 X52.354 Y178.531 E24.8882
G1 X52.511 Y178.500 E24.8954
G1 X56.414 Y178.500 E25.0706
G1 X56.414 Y174.810 E25.2363
G1 X51.996 Y174.810 E25.4347
G1 X51.839 Y174.779 E25.4418
G1 X50.222 Y174.109 E25.5204
G1 X50.089 Y174.020 E25.5276
G1 X48.230 Y172.161 E25.6457
G1 X48.141 Y172.028 E25.6528
G1 X47.471 Y170.411 E25.7314
G1 X47.440 Y170.254 E25.7386
G1 X47.440 Y161.996 E26.1094
G1 X47.471 Y161.839 E26.1166
G1 X48.141 Y160.222 E26.1952
G1 X48.230 Y160.089 E26.2024
G1 X48.440 Y159.879 E26.2157
G1 X48.440 Y130.682 E27.5267
G1 X48.563 Y130.384 E27.5412
G1 X49.205 Y129.743 E27.5819
G1 X49.078 Y129.616 E27.5900
G1 X48.955 Y129.318 E27.6044
G1 X48.955 Y100.121 E28.9154
G1 X47.995 Y99.161 E28.9764
G1 X47.906 Y99.028 E28.9835
G1 X47.236 Y97.411 E29.0622
G1 X47.205 Y97.254 E29.0693
G1 X47.205 Y90.496 E29.3728
G1 X47.236 Y90.339 E29.3799
G1 X47.906 Y88.722 E29.4586
G1 X47.995 Y88.589 E29.4657
G1 X50.604 Y85.980 E29.6314
G1 X50.737 Y85.891 E29.6386
G1 X52.354 Y85.221 E29.7172
G1 X52.511 Y85.190 E29.7244
G1 X56.414 Y85.190 E29.8996
G1 X56.414 Y81.500 E30.0653
G1 X51.996 Y81.500 E30.2636
G1 X51.839 Y81.469 E30.2708
G1 X50.222 Y80.799 E30.3494
G1 X50.089 Y80.710 E30.3566
G1 X48.230 Y78.851 E30.4747
G1 X48.141 Y78.718 E30.4818
G1 X47.471 Y77.101 E30.5604
G1 X47.440 Y76.944 E30.5676
G1 X47.440 Y68.686 E30.9384
G1 X47.471 Y68.530 E30.9456
G1 X48.141 Y66.912 E31.0242
G1 X48.230 Y66.779 E31.0313
G1 X48.440 Y66.569 E31.0447
G1 X48.440 Y37.372 E32.3557
G1 X48.563 Y37.075 E32.3701
G1 X49.021 Y37.380 F3600
G92 E0
G1 X51.440 Y34.961 E0.1536 F900
G1 X51.539 Y34.920 E0.1584
G1 X116.961 Y34.920 E3.0959
G1 X117.060 Y34.961 E3.1007
G1 X119.479 Y37.380 E3.2544
G1 X119.520 Y37.480 E3.2592
G1 X119.520 Y66.793 E4.5754
G1 X119.743 Y67.015 E4.5895
G1 X119.965 Y66.793 E4.6036
G1 X119.965 Y37.480 E5.9198
G1 X120.006 Y37.380 E5.9247
G1 X122.425 Y34.961 E6.0783
G1 X122.525 Y34.920 E6.0831
G1 X187.946 Y34.920 E9.0206
G1 X188.045 Y34.961 E9.0254
G1 X190.464 Y37.380 E9.1790
G1 X190.505 Y37.480 E9.1838
G1 X190.505 Y66.793 E10.5000
G1 X191.586 Y67.874 E10.5687
G1 X191.615 Y67.918 E10.5710
G1 X192.245 Y69.437 E10.6449
G1 X192.255 Y69.489 E10.6473
G1 X192.255 Y76.141 E10.9459
G1 X192.245 Y76.193 E10.9483
G1 X191.615 Y77.713 E11.0222
G1 X191.586 Y77.757 E11.0246
G1 X189.052 Y80.291 E11.1855
G1 X189.007 Y80.321 E11.1879
G1 X187.488 Y80.950 E11.2617
G1 X187.436 Y80.960 E11.2641
G1 X183.098 Y80.960 E11.4589
G1 X183.098 Y85.730 E11.6731
G1 X187.951 Y85.730 E11.8910
G1 X188.003 Y85.740 E11.8934
G1 X189.522 Y86.370 E11.9672
G1 X189.567 Y86.399 E11.9696
G1 X191.351 Y88.183 E12.0829
G1 X191.380 Y88.228 E12.0853
G1 X192.010 Y89.747 E12.1591
G1 X192.020 Y89.799 E12.1615
G1 X192.020 Y97.951 E12.5275
G1 X192.010 Y98.003 E12.5299
G1 X191.380 Y99.522 E12.6038
G1 X191.351 Y99.567 E12.6062
G1 X191.020 Y99.897 E12.6272
G1 X191.020 Y129.211 E13.9434
G1 X190.979 Y129.310 E13.9482
G1 X190.031 Y130.257 E14.0084
G1 X190.464 Y130.690 E14.0358
G1 X190.505 Y130.789 E14.0407
G1 X190.505 Y160.103 E15.3569
G1 X191.586 Y161.183 E15.4255
G1 X191.615 Y161.228 E15.4279
G1 X192.245 Y162.747 E15.5017
G1 X192.255 Y162.799 E15.5041
G1 X192.255 Y169.451 E15.8028
G1 X192.245 Y169.503 E15.8052
G1 X191.615 Y171.022 E15.8790
G1 X191.586 Y171.067 E15.8814
G1 X189.052 Y173.601 E16.0423
G1 X189.007 Y173.630 E16.0447
G1 X187.488 Y174.260 E16.1185
G1 X187.436 Y174.270 E16.1209
G1 X183.098 Y174.270 E16.3157
G1 X183.098 Y179.040 E16.5299
G1 X187.951 Y179.040 E16.7478
G1 X188.003 Y179.050 E16.7502
G1 X189.522 Y179.679 E16.8240
G1 X189.567 Y179.709 E16.8264
G1 X191.351 Y181.493 E16.9397
G1 X191.380 Y181.537 E16.9421
G1 X192.010 Y183.057 E17.0159
G1 X192.020 Y183.109 E17.0183
G1 X192.020 Y191.261 E17.3844
G1 X192.010 Y191.313 E17.3867
G1 X191.380 Y192.832 E17.4606
G1 X191.351 Y192.876 E17.4630
G1 X191.020 Y193.207 E17.4840
G1 X191.020 Y222.520 E18.8002
G1 X190.979 Y222.620 E18.8050
G1 X188.560 Y225.039 E18.9586
G1 X188.461 Y225.080 E18.9634
G1 X123.039 Y225.080 E21.9009
G1 X122.940 Y225.039 E21.9057
G1 X120.521 Y222.620 E22.0594
G1 X120.480 Y222.520 E22.0642
G1 X120.480 Y193.207 E23.3804
G1 X120.257 Y192.985 E23.3945
G1 X120.035 Y193.207 E23.4086
G1 X120.035 Y222.520 E24.7248
G1 X119.994 Y222.620 E24.7297
G1 X117.575 Y225.039 E24.8833
G1 X117.476 Y225.080 E24.8881
G1 X52.054 Y225.080 E27.8256
G1 X51.955 Y225.039 E27.8304
G1 X49.536 Y222.620 E27.9840
G1 X49.495 Y222.520 E27.9888
G1 X49.495 Y193.207 E29.3050
G1 X48.414 Y192.126 E29.3737
G1 X48.385 Y192.082 E29.3760
G1 X47.755 Y190.563 E29.4499
G1 X47.745 Y190.511 E29.4523
G1 X47.745 Y183.859 E29.7509
G1 X47.755 Y183.807 E29.7533
G1 X48.385 Y182.287 E29.8272
G1 X48.414 Y182.243 E29.8296
G1 X50.948 Y179.709 E29.9905
G1 X50.993 Y179.679 E29.9929
G1 X52.512 Y179.050 E30.0667
G1 X52.564 Y179.040 E30.0691
G1 X56.954 Y179.040 E30.2662
G1 X56.954 Y174.270 E30.4804
G1 X52.049 Y174.270 E30.7006
G1 X51.997 Y174.260 E30.7030
G1 X50.478 Y173.630 E30.7768
G1 X50.433 Y173.601 E30.7792
G1 X48.649 Y171.817 E30.8925
G1 X48.620 Y171.772 E30.8949
G1 X47.990 Y170.253 E30.9687
G1 X47.980 Y170.201 E30.9711
G1 X47.980 Y162.049 E31.3371
G1 X47.990 Y161.997 E31.3395
G1 X48.620 Y160.478 E31.4134
G1 X48.649 Y160.433 E31.4157
G1 X48.980 Y160.103 E31.4368
G1 X48.980 Y130.789 E32.7529
G1 X49.021 Y130.690 E32.7578
G1 X49.969 Y129.743 E32.8179
G1 X49.536 Y129.310 E32.8454
G1 X49.495 Y129.211 E32.8503
G1 X49.495 Y99.897 E34.1664
G1 X48.414 Y98.817 E34.2351
G1 X48.385 Y98.772 E34.2375
G1 X47.755 Y97.253 E34.3113
G1 X47.745 Y97.201 E34.3137
G1 X47.745 Y90.549 E34.6124
G1 X47.755 Y90.497 E34.6148
G1 X48.385 Y88.978 E34.6886
G1 X48.414 Y88.933 E34.6910
G1 X50.948 Y86.399 E34.8519
G1 X50.993 Y86.370 E34.8543
G1 X52.512 Y85.740 E34.9281
G1 X52.564 Y85.730 E34.9305
G1 X56.954 Y85.730 E35.1276
G1 X56.954 Y80.960 E35.3418
G1 X52.049 Y80.960 E35.5620
G1 X51.997 Y80.950 E35.5644
G1 X50.478 Y80.320 E35.6382
G1 X50.433 Y80.291 E35.6406
G1 X48.649 Y78.507 E35.7539
G1 X48.620 Y78.463 E35.7563
G1 X47.990 Y76.943 E35.8301
G1 X47.980 Y76.891 E35.8325
G1 X47.980 Y68.739 E36.1986
G1 X47.990 Y68.687 E36.2009
G1 X48.620 Y67.168 E36.2748
G1 X48.649 Y67.124 E36.2772
G1 X48.980 Y66.793 E36.2982
G1 X48.980 Y37.480 E37.6144
G1 X49.021 Y37.380 E37.6192
G92 E0
G1 E-1.4000 F3000
; inner perimeter
G1 X54.060 Y40.000 F3600
G1 E0.0000 F3000
G92 E0
G1 X114.440 Y40.000 E2.7111 F810
G1 X114.440 Y68.483 E3.9901
G1 X114.233 Y68.690 E4.0032
G1 X114.440 Y68.897 E4.0163
G1 X114.440 Y69.375 E4.0378
G1 X114.918 Y69.375 E4.0593
G1 X116.190 Y70.647 E4.1400
G1 X116.190 Y74.983 E4.3347
G1 X116.048 Y75.125 E4.3437
G1 X115.293 Y75.880 E4.3917
G1 X112.060 Y75.880 E4.5369
G1 X112.060 Y75.125 E4.5708
G1 X115.310 Y75.125 E4.7167
G1 X115.310 Y71.255 E4.8905
G1 X113.060 Y71.255 E4.9915
G1 X113.060 Y44.380 E6.1982
G1 X55.440 Y44.380 E8.7854
G1 X55.440 Y71.255 E9.9921
G1 X53.060 Y71.255 E10.0990
G1 X53.060 Y69.897 E10.1600
G1 X53.582 Y69.375 E10.1931
G1 X54.060 Y69.375 E10.2146
G1 X54.060 Y68.897 E10.2361
G1 X54.267 Y68.690 E10.2492
G1 X54.060 Y68.483 E10.2623
G1 X54.060 Y40.000 E11.5412
G92 E0
G1 E-1.4000 F3000
G1 X53.060 Y75.125 F3600
G1 E0.0000 F3000
G92 E0
G1 X56.440 Y75.125 E0.1518 F810
G1 X56.440 Y75.880 E0.1857
G1 X53.060 Y75.880 E0.3374
G1 X53.060 Y75.125 E0.3713
G92 E0
G1 E-1.4000 F3000
; outer perimeter
G1 X53.520 Y39.460 F3600
G1 E0.0000 F3000
G92 E0
G1 X114.980 Y39.460 E2.7596 F720
G1 X114.980 Y68.835 E4.0786
G1 X115.142 Y68.835 E4.0859
G1 X116.730 Y70.423 E4.1867
G1 X116.730 Y75.207 E4.4015
G1 X115.517 Y76.420 E4.4785
G1 X111.520 Y76.420 E4.6580
