; G-Code generated by Simplify3D(R) Version 4.0.0
; Aug 22, 2017 at 8:45:56 AM
; Settings Summary
;   processName,Process1
;   applyToModels,Prusa Mount,Prusa Mount(2),Prusa Mount(3),Prusa Mount(4)
;   profileName,XL PRUSA (modified)
;   profileVersion,2017-06-28 10:59:29
;   baseProfile,Default (modified)
;   printMaterial,ABS
;   printQuality,Medium
;   printExtruders,
;   extruderName,Primary Extruder
;   extruderToolheadNumber,0
;   extruderDiameter,0.7
;   extruderAutoWidth,0
;   extruderWidth,0.72
;   extrusionMultiplier,1
;   extruderUseRetract,1
;   extruderRetractionDistance,1.4
;   extruderExtraRestartDistance,0
;   extruderRetractionZLift,0
;   extruderRetractionSpeed,3000
;   extruderUseCoasting,0
;   extruderCoastingDistance,0.2
;   extruderUseWipe,0
;   extruderWipeDistance,5
;   primaryExtruder,0
;   layerHeight,0.3
;   topSolidLayers,3
;   bottomSolidLayers,3
;   perimeterOutlines,3
;   printPerimetersInsideOut,1
;   startPointOption,2
;   startPointOriginX,0
;   startPointOriginY,0
;   sequentialIslands,0
;   spiralVaseMode,0
;   firstLayerHeightPercentage,100
;   firstLayerWidthPercentage,100
;   firstLayerUnderspeed,0.75
;   useRaft,0
;   raftExtruder,0
;   raftTopLayers,3
;   raftBaseLayers,2
;   raftOffset,3
;   raftSeparationDistance,0.14
;   raftTopInfill,100
;   aboveRaftSpeedMultiplier,0.3
;   useSkirt,1
;   skirtExtruder,0
;   skirtLayers,1
;   skirtOutlines,2
;   skirtOffset,4
;   usePrimePillar,0
;   primePillarExtruder,999
;   primePillarWidth,12
;   primePillarLocation,7
;   primePillarSpeedMultiplier,1
;   useOozeShield,0
;   oozeShieldExtruder,999
;   oozeShieldOffset,2
;   oozeShieldOutlines,1
;   oozeShieldSidewallShape,1
;   oozeShieldSidewallAngle,30
;   oozeShieldSpeedMultiplier,1
;   infillExtruder,0
;   internalInfillPattern,Rectilinear
;   externalInfillPattern,Rectilinear
;   infillPercentage,40
;   outlineOverlapPercentage,20
;   infillExtrusionWidthPercentage,135
;   minInfillLength,6
;   infillLayerInterval,1
;   internalInfillAngles,45,-45
;   overlapInternalInfillAngles,0
;   externalInfillAngles,45,-45
;   generateSupport,0
;   supportExtruder,0
;   supportInfillPercentage,25
;   supportExtraInflation,0
;   supportBaseLayers,0
;   denseSupportExtruder,0
;   denseSupportLayers,0
;   denseSupportInfillPercentage,70
;   supportLayerInterval,1
;   supportHorizontalPartOffset,0.5
;   supportUpperSeparationLayers,1
;   supportLowerSeparationLayers,1
;   supportType,0
;   supportGridSpacing,3
;   maxOverhangAngle,45
;   supportAngles,0
;   temperatureName,Primary Extruder,Heat Bed
;   temperatureNumber,0,0
;   temperatureSetpointCount,1,1
;   temperatureSetpointLayers,1,1
;   temperatureSetpointTemperatures,240,85
;   temperatureStabilizeAtStartup,1,1
;   temperatureHeatedBed,0,1
;   temperatureRelayBetweenLayers,0,0
;   temperatureRelayBetweenLoops,0,0
;   fanLayers,1
;   fanSpeeds,0
;   blipFanToFullPower,0
;   adjustSpeedForCooling,1
;   minSpeedLayerTime,10
;   minCoolingSpeedSlowdown,60
;   increaseFanForCooling,0
;   minFanLayerTime,45
;   maxCoolingFanSpeed,100
;   increaseFanForBridging,0
;   bridgingFanSpeed,100
;   use5D,1
;   relativeEdistances,0
;   allowEaxisZeroing,1
;   independentExtruderAxes,0
;   includeM10123,0
;   stickySupport,1
;   applyToolheadOffsets,0
;   gcodeXoffset,0
;   gcodeYoffset,0
;   gcodeZoffset,0
;   overrideMachineDefinition,1
;   machineTypeOverride,0
;   strokeXoverride,240
;   strokeYoverride,260
;   strokeZoverride,200
;   originOffsetXoverride,0
;   originOffsetYoverride,0
;   originOffsetZoverride,0
;   homeXdirOverride,-1
;   homeYdirOverride,-1
;   homeZdirOverride,-1
;   flipXoverride,1
;   flipYoverride,-1
;   flipZoverride,1
;   toolheadOffsets,0,0|0,0|0,0|0,0|0,0|0,0
;   overrideFirmwareConfiguration,0
;   firmwareTypeOverride,RepRap (Marlin/Repetier/Sprinter)
;   GPXconfigOverride,r2
;   baudRateOverride,115200
;   overridePrinterModels,0
;   printerModelsOverride
;   startingGcode,M80 ;,G28 ; home all axes,G29 L ;,G29 A ;,,,
;   layerChangeGcode,
;   retractionGcode,
;   toolChangeGcode,
;   endingGcode,G91 ;,G1 Z5 ;,G28 X ;,M104 S0 ; turn off extruder,M140 S0 ; turn off bed,M84 ; disable motors,M81 ;,
;   exportFileFormat,gcode
;   celebration,0
;   celebrationSong,Random Song
;   postProcessing,
;   defaultSpeed,1800
;   outlineUnderspeed,0.8
;   solidInfillUnderspeed,0.8
;   supportUnderspeed,1
;   rapidXYspeed,4800
;   rapidZspeed,1200
;   minBridgingArea,50
;   bridgingExtraInflation,0
;   bridgingExtrusionMultiplier,1
;   bridgingSpeedMultiplier,0.4
;   useFixedBridgingAngle,0
;   fixedBridgingAngle,0
;   applyBridgingToPerimeters,1
;   filamentDiameters,1.75|1.75|1.75|1.75|1.75|1.75
;   filamentPricesPerKg,153|153|153|153|153|153
;   filamentDensities,1.06|1.06|1.06|1.06|1.06|1.06
;   useMinPrintHeight,0
;   minPrintHeight,0
;   useMaxPrintHeight,0
;   maxPrintHeight,0
;   useDiaphragm,0
;   diaphragmLayerInterval,20
;   robustSlicing,1
;   mergeAllIntoSolid,0
;   onlyRetractWhenCrossingOutline,1
;   retractBetweenLayers,1
;   useRetractionMinTravel,0
;   retractionMinTravel,3
;   retractWhileWiping,0
;   onlyWipeOutlines,1
;   avoidCrossingOutline,0
;   maxMovementDetourFactor,3
;   toolChangeRetractionDistance,12
;   toolChangeExtraRestartDistance,-0.5
;   toolChangeRetractionSpeed,12
;   externalThinWallType,1
;   internalThinWallType,1
;   thinWallAllowedOverlapPercentage,20
;   singleExtrusionMinLength,1
;   singleExtrusionMinPrintingWidthPercentage,50
;   singleExtrusionMaxPrintingWidthPercentage,200
;   singleExtrusionEndpointExtension,0.2
;   horizontalSizeCompensation,0
G90
M82
M106 S0
M140 S85
M190 S85
M104 S240 T0
M109 S240 T0
M80 ;
G28 ; home all axes
G29 L ;
G29 A ;
G92 E0
G1 E-1.4000 F3000
G1 Z0.300 F1200
; process Process1
; layer 1, Z = 0.300
T0
; tool H0.300 W0.720
; skirt
G1 X85.176 Y62.132 F4800
G1 E0.0000 F900
G92 E0
G1 X85.162 Y62.011 E0.0109 F1350
G1 X85.162 Y50.628 E1.0331
G1 X85.326 Y50.231 E1.0717
G1 X87.973 Y47.584 E1.4079
G1 X88.370 Y47.420 E1.4465
G1 X108.922 Y47.420 E3.2920
G1 X109.130 Y47.461 E3.3111
G1 X110.792 Y48.147 E3.4725
G1 X110.968 Y48.265 E3.4916
G1 X113.001 Y50.287 E3.7491
G1 X113.007 Y50.293 E3.7497
G1 X118.452 Y55.747 E4.4418
G1 X118.570 Y55.923 E4.4608
G1 X119.259 Y57.589 E4.6227
G1 X119.301 Y57.797 E4.6418
G1 X119.301 Y72.358 E5.9493
G1 X119.313 Y72.577 E5.9691
G1 X119.326 Y72.654 E5.9761
G1 X119.348 Y72.728 E5.9830
G1 X119.377 Y72.800 E5.9900
G1 X119.415 Y72.868 E5.9969
G1 X119.460 Y72.931 E6.0039
G1 X119.511 Y72.989 E6.0109
G1 X119.569 Y73.040 E6.0178
G1 X119.632 Y73.085 E6.0248
G1 X119.700 Y73.123 E6.0317
G1 X119.772 Y73.152 E6.0387
G1 X119.846 Y73.174 E6.0457
G1 X119.923 Y73.187 E6.0526
G1 X120.000 Y73.191 E6.0596
G1 X120.077 Y73.187 E6.0665
G1 X120.154 Y73.174 E6.0735
G1 X120.228 Y73.152 E6.0805
G1 X120.300 Y73.123 E6.0874
G1 X120.368 Y73.085 E6.0944
G1 X120.431 Y73.040 E6.1013
G1 X120.489 Y72.989 E6.1083
G1 X120.540 Y72.931 E6.1153
G1 X120.585 Y72.868 E6.1222
G1 X120.623 Y72.800 E6.1292
G1 X120.652 Y72.728 E6.1361
G1 X120.674 Y72.654 E6.1431
G1 X120.687 Y72.577 E6.1501
G1 X120.699 Y72.358 E6.1698
G1 X120.699 Y57.796 E7.4775
G1 X120.741 Y57.588 E7.4966
G1 X121.431 Y55.921 E7.6586
G1 X121.549 Y55.744 E7.6777
G1 X129.023 Y48.270 E8.6269
G1 X129.200 Y48.152 E8.6460
G1 X130.867 Y47.462 E8.8080
G1 X131.076 Y47.420 E8.8271
G1 X151.630 Y47.420 E10.6729
G1 X152.027 Y47.584 E10.7115
G1 X154.674 Y50.231 E11.0477
G1 X154.838 Y50.628 E11.0862
G1 X154.838 Y62.011 E12.1085
G1 X154.824 Y62.132 E12.1194
G1 X154.597 Y63.129 E12.2112
G1 X154.557 Y63.244 E12.2221
G1 X153.973 Y64.455 E12.3428
G1 X153.904 Y64.564 E12.3544
G1 X153.211 Y65.406 E12.4524
G1 X153.118 Y65.495 E12.4640
G1 X152.042 Y66.302 E12.5847
G1 X151.940 Y66.362 E12.5953
G1 X151.031 Y66.773 E12.6850
G1 X150.918 Y66.810 E12.6956
G1 X149.808 Y67.042 E12.7974
G1 X149.753 Y67.050 E12.8024
G1 X149.289 Y67.098 E12.8444
G1 X149.233 Y67.101 E12.8493
G1 X142.906 Y67.101 E13.4176
G1 X141.601 Y68.406 E13.5833
G1 X141.601 Y72.541 E13.9547
G1 X141.601 Y72.551 E13.9556
G1 X141.599 Y72.634 E13.9630
G1 X141.599 Y72.644 E13.9639
G1 X141.551 Y73.972 E14.0833
G1 X141.549 Y73.992 E14.0850
G1 X141.537 Y74.157 E14.0999
G1 X141.536 Y74.177 E14.1017
G1 X141.386 Y75.539 E14.2248
G1 X141.383 Y75.559 E14.2265
G1 X141.359 Y75.723 E14.2414
G1 X141.356 Y75.742 E14.2432
G1 X141.107 Y77.090 E14.3663
G1 X141.104 Y77.109 E14.3680
G1 X141.068 Y77.271 E14.3829
G1 X141.063 Y77.290 E14.3847
G1 X140.717 Y78.616 E14.5078
G1 X140.711 Y78.635 E14.5095
G1 X140.664 Y78.794 E14.5244
G1 X140.658 Y78.813 E14.5262
G1 X140.216 Y80.110 E14.6493
G1 X140.209 Y80.129 E14.6510
G1 X140.150 Y80.283 E14.6659
G1 X140.143 Y80.302 E14.6677
G1 X139.607 Y81.563 E14.7908
G1 X139.599 Y81.581 E14.7925
G1 X139.529 Y81.731 E14.8074
G1 X139.520 Y81.749 E14.8092
G1 X138.894 Y82.969 E14.9323
G1 X138.885 Y82.986 E14.9341
G1 X138.804 Y83.132 E14.9490
G1 X138.794 Y83.149 E14.9508
G1 X138.072 Y84.332 E15.0752
G1 X138.062 Y84.348 E15.0770
G1 X137.970 Y84.487 E15.0920
G1 X137.958 Y84.504 E15.0938
G1 X137.159 Y85.620 E15.2171
G1 X137.148 Y85.636 E15.2188
G1 X137.046 Y85.767 E15.2337
G1 X137.034 Y85.783 E15.2355
G1 X136.156 Y86.838 E15.3588
G1 X136.143 Y86.853 E15.3605
G1 X136.032 Y86.976 E15.3754
G1 X136.019 Y86.991 E15.3772
G1 X135.605 Y87.420 E15.4307
G1 X151.630 Y87.420 E16.8698
G1 X152.027 Y87.584 E16.9084
G1 X154.674 Y90.231 E17.2445
G1 X154.838 Y90.628 E17.2831
G1 X154.838 Y102.011 E18.3053
G1 X154.824 Y102.132 E18.3162
G1 X154.597 Y103.129 E18.4081
G1 X154.557 Y103.244 E18.4190
G1 X153.973 Y104.455 E18.5397
G1 X153.904 Y104.564 E18.5513
G1 X153.211 Y105.406 E18.6492
G1 X153.118 Y105.495 E18.6608
G1 X152.042 Y106.302 E18.7816
G1 X151.940 Y106.362 E18.7922
G1 X151.031 Y106.773 E18.8818
G1 X150.918 Y106.810 E18.8925
G1 X149.808 Y107.042 E18.9943
G1 X149.753 Y107.050 E18.9993
G1 X149.289 Y107.098 E19.0412
G1 X149.233 Y107.101 E19.0462
G1 X142.906 Y107.101 E19.6144
G1 X141.601 Y108.406 E19.7802
G1 X141.601 Y112.541 E20.1516
G1 X141.601 Y112.551 E20.1524
G1 X141.599 Y112.634 E20.1599
G1 X141.599 Y112.644 E20.1608
G1 X141.551 Y113.972 E20.2801
G1 X141.549 Y113.992 E20.2819
G1 X141.537 Y114.157 E20.2968
G1 X141.536 Y114.177 E20.2985
G1 X141.386 Y115.539 E20.4216
G1 X141.383 Y115.559 E20.4234
G1 X141.359 Y115.723 E20.4383
G1 X141.356 Y115.742 E20.4400
G1 X141.107 Y117.090 E20.5631
G1 X141.104 Y117.109 E20.5649
G1 X141.068 Y117.271 E20.5798
G1 X141.063 Y117.290 E20.5815
G1 X140.717 Y118.616 E20.7046
G1 X140.711 Y118.635 E20.7064
G1 X140.664 Y118.794 E20.7213
G1 X140.658 Y118.813 E20.7230
G1 X140.216 Y120.110 E20.8461
G1 X140.209 Y120.129 E20.8479
G1 X140.150 Y120.283 E20.8628
G1 X140.143 Y120.302 E20.8645
G1 X139.607 Y121.563 E20.9876
G1 X139.599 Y121.581 E20.9894
G1 X139.529 Y121.731 E21.0043
G1 X139.520 Y121.749 E21.0060
G1 X138.894 Y122.969 E21.1292
G1 X138.885 Y122.986 E21.1309
G1 X138.804 Y123.132 E21.1459
G1 X138.794 Y123.149 E21.1477
G1 X138.072 Y124.332 E21.2721
G1 X138.062 Y124.348 E21.2739
G1 X137.970 Y124.487 E21.2889
G1 X137.958 Y124.504 E21.2906
G1 X137.159 Y125.620 E21.4139
G1 X137.148 Y125.636 E21.4157
G1 X137.046 Y125.767 E21.4306
G1 X137.034 Y125.783 E21.4324
G1 X136.156 Y126.838 E21.5556
G1 X136.143 Y126.853 E21.5574
G1 X136.032 Y126.976 E21.5723
G1 X136.019 Y126.991 E21.5741
G1 X135.605 Y127.420 E21.6276
G1 X151.630 Y127.420 E23.0666
G1 X152.027 Y127.584 E23.1052
G1 X154.674 Y130.231 E23.4414
G1 X154.838 Y130.628 E23.4800
G1 X154.838 Y142.011 E24.5022
G1 X154.824 Y142.132 E24.5131
G1 X154.597 Y143.129 E24.6050
G1 X154.557 Y143.244 E24.6158
G1 X153.973 Y144.455 E24.7365
G1 X153.904 Y144.564 E24.7482
G1 X153.211 Y145.406 E24.8461
G1 X153.118 Y145.496 E24.8577
G1 X152.042 Y146.302 E24.9784
G1 X151.940 Y146.362 E24.9891
G1 X151.031 Y146.773 E25.0787
G1 X150.919 Y146.810 E25.0893
G1 X149.808 Y147.042 E25.1911
G1 X149.754 Y147.050 E25.1961
G1 X149.289 Y147.098 E25.2381
G1 X149.234 Y147.101 E25.2431
G1 X142.906 Y147.101 E25.8113
G1 X141.601 Y148.406 E25.9770
G1 X141.601 Y152.541 E26.3484
G1 X141.601 Y152.551 E26.3493
G1 X141.599 Y152.634 E26.3567
G1 X141.599 Y152.644 E26.3576
G1 X141.551 Y153.972 E26.4770
G1 X141.549 Y153.992 E26.4788
G1 X141.537 Y154.157 E26.4936
G1 X141.536 Y154.177 E26.4954
G1 X141.386 Y155.539 E26.6185
G1 X141.383 Y155.559 E26.6203
G1 X141.359 Y155.723 E26.6351
G1 X141.356 Y155.742 E26.6369
G1 X141.107 Y157.090 E26.7600
G1 X141.104 Y157.109 E26.7618
G1 X141.068 Y157.271 E26.7766
G1 X141.063 Y157.290 E26.7784
G1 X140.717 Y158.616 E26.9015
G1 X140.711 Y158.635 E26.9032
G1 X140.664 Y158.794 E26.9181
G1 X140.658 Y158.813 E26.9199
G1 X140.216 Y160.110 E27.0430
G1 X140.209 Y160.129 E27.0448
G1 X140.150 Y160.283 E27.0596
G1 X140.143 Y160.302 E27.0614
G1 X139.607 Y161.563 E27.1845
G1 X139.599 Y161.581 E27.1863
G1 X139.529 Y161.731 E27.2011
G1 X139.520 Y161.749 E27.2029
G1 X138.894 Y162.969 E27.3260
G1 X138.885 Y162.986 E27.3278
G1 X138.803 Y163.132 E27.3428
G1 X138.793 Y163.149 E27.3445
G1 X138.072 Y164.332 E27.4690
G1 X138.062 Y164.348 E27.4707
G1 X137.970 Y164.487 E27.4857
G1 X137.958 Y164.504 E27.4875
G1 X137.159 Y165.620 E27.6108
G1 X137.148 Y165.636 E27.6126
G1 X137.046 Y165.767 E27.6275
G1 X137.034 Y165.783 E27.6292
G1 X136.156 Y166.838 E27.7525
G1 X136.143 Y166.853 E27.7543
G1 X136.032 Y166.976 E27.7692
G1 X136.019 Y166.991 E27.7709
G1 X135.605 Y167.420 E27.8245
G1 X151.630 Y167.420 E29.2635
G1 X152.027 Y167.584 E29.3021
G1 X154.674 Y170.231 E29.6382
G1 X154.838 Y170.628 E29.6768
G1 X154.838 Y182.011 E30.6991
G1 X154.824 Y182.132 E30.7100
G1 X154.597 Y183.129 E30.8018
G1 X154.557 Y183.244 E30.8127
G1 X153.973 Y184.455 E30.9334
G1 X153.904 Y184.564 E30.9450
G1 X153.211 Y185.406 E31.0429
G1 X153.118 Y185.495 E31.0546
G1 X152.042 Y186.302 E31.1753
G1 X151.940 Y186.362 E31.1859
G1 X151.031 Y186.773 E31.2755
G1 X150.919 Y186.810 E31.2862
G1 X149.808 Y187.042 E31.3880
G1 X149.753 Y187.050 E31.3930
G1 X149.289 Y187.098 E31.4349
G1 X149.233 Y187.101 E31.4399
G1 X142.906 Y187.101 E32.0082
G1 X141.601 Y188.406 E32.1739
G1 X141.601 Y192.541 E32.5453
G1 X141.601 Y192.551 E32.5462
G1 X141.599 Y192.634 E32.5536
G1 X141.599 Y192.644 E32.5545
G1 X141.551 Y193.972 E32.6738
G1 X141.549 Y193.992 E32.6756
G1 X141.537 Y194.157 E32.6905
G1 X141.536 Y194.177 E32.6923
G1 X141.386 Y195.539 E32.8154
G1 X141.383 Y195.559 E32.8171
G1 X141.359 Y195.723 E32.8320
G1 X141.356 Y195.742 E32.8338
G1 X141.107 Y197.090 E32.9568
G1 X141.104 Y197.109 E32.9586
G1 X141.068 Y197.271 E32.9735
G1 X141.063 Y197.290 E32.9753
G1 X140.717 Y198.616 E33.0983
G1 X140.711 Y198.635 E33.1001
G1 X140.664 Y198.794 E33.1150
G1 X140.658 Y198.813 E33.1168
G1 X140.216 Y200.110 E33.2398
G1 X140.209 Y200.129 E33.2416
G1 X140.150 Y200.283 E33.2565
G1 X140.143 Y200.302 E33.2583
G1 X139.607 Y201.563 E33.3813
G1 X139.599 Y201.581 E33.3831
G1 X139.529 Y201.731 E33.3980
G1 X139.520 Y201.749 E33.3998
G1 X138.894 Y202.969 E33.5229
G1 X138.885 Y202.986 E33.5247
G1 X138.803 Y203.132 E33.5396
G1 X138.793 Y203.149 E33.5414
G1 X138.072 Y204.332 E33.6658
G1 X138.062 Y204.348 E33.6676
G1 X137.970 Y204.487 E33.6826
G1 X137.958 Y204.504 E33.6844
G1 X137.159 Y205.620 E33.8077
G1 X137.148 Y205.636 E33.8094
G1 X137.046 Y205.767 E33.8243
G1 X137.034 Y205.783 E33.8261
G1 X136.156 Y206.838 E33.9494
G1 X136.143 Y206.853 E33.9511
G1 X136.032 Y206.976 E33.9660
G1 X136.019 Y206.991 E33.9678
G1 X135.066 Y207.979 E34.0911
G1 X135.052 Y207.993 E34.0928
G1 X134.933 Y208.108 E34.1077
G1 X134.919 Y208.121 E34.1095
G1 X133.894 Y209.040 E34.2330
G1 X133.878 Y209.053 E34.2349
G1 X133.746 Y209.163 E34.2503
G1 X133.730 Y209.176 E34.2522
G1 X132.479 Y210.136 E34.3938
G1 X132.439 Y210.164 E34.3982
G1 X132.092 Y210.384 E34.4351
G1 X132.049 Y210.408 E34.4395
G1 X131.343 Y210.771 E34.5108
G1 X131.302 Y210.789 E34.5148
G1 X130.957 Y210.932 E34.5484
G1 X130.915 Y210.947 E34.5524
G1 X130.316 Y211.139 E34.6089
G1 X130.264 Y211.152 E34.6136
G1 X129.826 Y211.246 E34.6539
G1 X129.774 Y211.255 E34.6586
G1 X129.219 Y211.317 E34.7088
G1 X129.189 Y211.320 E34.7115
G1 X128.935 Y211.334 E34.7343
G1 X128.905 Y211.335 E34.7371
G1 X111.042 Y211.335 E36.3411
